supercar-experience/09-campaign-ads/_grade/luts/AK_DLogM_Rescue.cube
# AK_DLogM_Rescue
# Measured from real Osmo Action 6 D-Log M footage. Skin-safe stretch: does NOT push deep skin tones orange. Apply denoise BEFORE this.
# Baked from ffmpeg chain:
# curves=all='0/0 0.09/0.005 0.35/0.30 0.60/0.66 0.80/0.92 1/1',eq=saturation=1.90:contrast=1.10,colorbalance=rs=-.03:bs=.07:rh=.03:bh=-.03
TITLE "AK_DLogM_Rescue"
LUT_3D_SIZE 9
DOMAIN_MIN 0.0 0.0 0.0
DOMAIN_MAX 1.0 1.0 1.0
0.000000 0.000000 0.047059
0.000000 0.000000 0.047059
0.188235 0.000000 0.047059
0.498039 0.000000 0.000000
0.815686 0.000000 0.000000
0.988235 0.000000 0.000000
1.000000 0.000000 0.000000
1.000000 0.000000 0.000000
1.000000 0.000000 0.000000
0.000000 0.000000 0.047059
0.000000 0.000000 0.047059
0.176471 0.000000 0.047059
0.494118 0.000000 0.000000
0.807843 0.000000 0.000000
1.000000 0.000000 0.000000
1.000000 0.000000 0.000000
1.000000 0.000000 0.000000
1.000000 0.003922 0.000000
0.000000 0.184314 0.047059
0.000000 0.172549 0.047059
0.105882 0.141176 0.047059
0.419608 0.101961 0.007843
0.741176 0.062745 0.000000
1.000000 0.015686 0.000000
1.000000 0.062745 0.000000
1.000000 0.101961 0.000000
1.000000 0.121569 0.000000
0.000000 0.431373 0.003922
0.000000 0.431373 0.003922
0.035294 0.396078 0.011765
0.329412 0.356863 0.019608
0.643137 0.313725 0.000000
0.949020 0.270588 0.000000
1.000000 0.231373 0.000000
1.000000 0.262745 0.000000
1.000000 0.274510 0.000000
0.011765 0.698039 0.000000
0.011765 0.686275 0.000000
0.007843 0.654902 0.000000
0.258824 0.611765 0.000000
0.552941 0.568627 0.000000
0.862745 0.525490 0.000000
1.000000 0.470588 0.000000
1.000000 0.439216 0.000000
1.000000 0.427451 0.000000
0.019608 0.941176 0.000000
0.019608 0.941176 0.000000
0.019608 0.909804 0.000000
0.188235 0.858824 0.000000
0.486275 0.807843 0.000000
0.788235 0.749020 0.000000
1.000000 0.690196 0.000000
1.000000 0.650980 0.000000
1.000000 0.643137 0.000000
0.019608 1.000000 0.000000
0.019608 1.000000 0.000000
0.019608 1.000000 0.000000
0.105882 1.000000 0.000000
0.415686 1.000000 0.000000
0.698039 0.960784 0.000000
0.992157 0.894118 0.000000
1.000000 0.862745 0.000000
1.000000 0.847059 0.000000
0.019608 1.000000 0.000000
0.019608 1.000000 0.000000
0.019608 1.000000 0.000000
0.062745 1.000000 0.000000
0.356863 1.000000 0.000000
0.650980 1.000000 0.000000
0.949020 1.000000 0.000000
1.000000 0.976471 0.000000
1.000000 0.968627 0.000000
0.019608 1.000000 0.000000
0.019608 1.000000 0.000000
0.019608 1.000000 0.000000
0.047059 1.000000 0.000000
0.341176 1.000000 0.000000
0.635294 1.000000 0.000000
0.921569 1.000000 0.000000
1.000000 1.000000 0.000000
1.000000 1.000000 0.000000
0.000000 0.000000 0.047059
0.000000 0.000000 0.047059
0.188235 0.000000 0.047059
0.490196 0.000000 0.000000
0.815686 0.000000 0.000000
0.992157 0.000000 0.000000
1.000000 0.000000 0.000000
1.000000 0.000000 0.000000
1.000000 0.000000 0.000000
0.000000 0.000000 0.047059
0.000000 0.000000 0.047059
0.164706 0.000000 0.047059
0.486275 0.000000 0.000000
0.800000 0.000000 0.000000
1.000000 0.000000 0.000000
1.000000 0.000000 0.000000
1.000000 0.000000 0.000000
1.000000 0.000000 0.000000
0.000000 0.180392 0.047059
0.000000 0.172549 0.047059
0.098039 0.145098 0.047059
0.407843 0.098039 0.007843
0.729412 0.062745 0.000000
1.000000 0.019608 0.000000
1.000000 0.058824 0.000000
1.000000 0.098039 0.000000
1.000000 0.117647 0.000000
0.000000 0.427451 0.007843
0.000000 0.419608 0.007843
0.035294 0.388235 0.011765
0.333333 0.352941 0.019608
0.647059 0.309804 0.000000
0.949020 0.262745 0.000000
1.000000 0.227451 0.000000
1.000000 0.250980 0.000000
1.000000 0.266667 0.000000
0.011765 0.690196 0.000000
0.011765 0.686275 0.000000
0.007843 0.654902 0.000000
0.258824 0.607843 0.000000
0.552941 0.564706 0.000000
0.870588 0.521569 0.000000
1.000000 0.474510 0.000000
1.000000 0.439216 0.000000
1.000000 0.431373 0.000000
0.019608 0.945098 0.000000
0.019608 0.933333 0.000000
0.019608 0.905882 0.000000
0.180392 0.866667 0.000000
0.478431 0.815686 0.000000
0.776471 0.756863 0.000000
1.000000 0.698039 0.000000
1.000000 0.658824 0.000000
1.000000 0.647059 0.000000
0.019608 1.000000 0.000000
0.019608 1.000000 0.000000
0.019608 1.000000 0.000000
0.105882 1.000000 0.000000
0.403922 1.000000 0.000000
0.698039 0.960784 0.000000
0.984314 0.905882 0.000000
1.000000 0.870588 0.000000
1.000000 0.854902 0.000000
0.019608 1.000000 0.000000
0.019608 1.000000 0.000000
0.019608 1.000000 0.000000
0.066667 1.000000 0.000000
0.364706 1.000000 0.000000
0.654902 1.000000 0.000000
0.937255 1.000000 0.000000
1.000000 0.988235 0.000000
1.000000 0.972549 0.000000
0.019608 1.000000 0.000000
0.019608 1.000000 0.000000
0.019608 1.000000 0.000000
0.035294 1.000000 0.000000
0.345098 1.000000 0.000000
0.631373 1.000000 0.000000
0.925490 1.000000 0.000000
1.000000 1.000000 0.000000
1.000000 1.000000 0.000000
0.000000 0.000000 0.270588
0.000000 0.000000 0.270588
0.172549 0.000000 0.235294
0.486275 0.000000 0.141176
0.800000 0.000000 0.078431
1.000000 0.000000 0.039216
1.000000 0.000000 0.000000
1.000000 0.000000 0.000000
1.000000 0.000000 0.000000
0.000000 0.000000 0.258824
0.000000 0.000000 0.250980
0.160784 0.000000 0.227451
0.474510 0.000000 0.137255
0.788235 0.000000 0.074510
1.000000 0.000000 0.027451
1.000000 0.000000 0.000000
1.000000 0.000000 0.000000
1.000000 0.000000 0.000000
0.000000 0.172549 0.200000
0.000000 0.160784 0.188235
0.098039 0.129412 0.156863
0.415686 0.086275 0.062745
0.725490 0.047059 0.003922
1.000000 0.000000 0.000000
1.000000 0.027451 0.000000
1.000000 0.070588 0.000000
1.000000 0.086275 0.000000
0.000000 0.423529 0.070588
0.000000 0.415686 0.066667
0.019608 0.384314 0.043137
0.305882 0.341176 0.023529
0.623529 0.298039 0.000000
0.929412 0.254902 0.000000
1.000000 0.207843 0.000000
1.000000 0.227451 0.000000
1.000000 0.239216 0.000000
0.011765 0.674510 0.000000
0.011765 0.666667 0.000000
0.007843 0.635294 0.000000
0.239216 0.600000 0.000000
0.529412 0.552941 0.000000
0.850980 0.517647 0.000000
1.000000 0.466667 0.000000
1.000000 0.443137 0.000000
1.000000 0.435294 0.000000
0.019608 0.917647 0.000000
0.019608 0.925490 0.000000
0.019608 0.890196 0.000000
0.180392 0.847059 0.000000
0.478431 0.803922 0.000000
0.776471 0.764706 0.000000
1.000000 0.721569 0.000000
1.000000 0.686275 0.000000
1.000000 0.678431 0.000000
0.019608 1.000000 0.000000
0.019608 1.000000 0.000000
0.019608 1.000000 0.000000
0.101961 1.000000 0.000000
0.396078 1.000000 0.000000
0.678431 0.996078 0.000000
0.972549 0.933333 0.000000
1.000000 0.901961 0.000000
1.000000 0.886275 0.000000
0.019608 1.000000 0.000000
0.019608 1.000000 0.000000
0.019608 1.000000 0.000000
0.043137 1.000000 0.000000
0.352941 1.000000 0.000000
0.631373 1.000000 0.000000
0.933333 1.000000 0.000000
1.000000 1.000000 0.000000
1.000000 1.000000 0.000000
0.019608 1.000000 0.000000
0.019608 1.000000 0.000000
0.019608 1.000000 0.000000
0.039216 1.000000 0.000000
0.329412 1.000000 0.000000
0.627451 1.000000 0.000000
0.909804 1.000000 0.000000
1.000000 1.000000 0.000000
1.000000 1.000000 0.000000
0.000000 0.000000 0.549020
0.000000 0.000000 0.541176
0.172549 0.000000 0.505882
0.470588 0.000000 0.462745
0.780392 0.000000 0.396078
1.000000 0.000000 0.360784
1.000000 0.000000 0.317647
1.000000 0.000000 0.294118
1.000000 0.000000 0.286275
0.000000 0.000000 0.529412
0.000000 0.000000 0.521569
0.168627 0.000000 0.498039
0.450980 0.000000 0.447059
0.780392 0.000000 0.384314
1.000000 0.000000 0.356863
1.000000 0.000000 0.298039
1.000000 0.000000 0.298039
1.000000 0.000000 0.274510
0.000000 0.149020 0.470588
0.000000 0.149020 0.462745
0.101961 0.109804 0.439216
0.396078 0.066667 0.384314
0.709804 0.023529 0.325490
1.000000 0.000000 0.298039
1.000000 0.000000 0.239216
1.000000 0.035294 0.211765
1.000000 0.054902 0.215686
0.000000 0.407843 0.400000
0.000000 0.396078 0.388235
0.003922 0.360784 0.364706
0.317647 0.321569 0.298039
0.631373 0.282353 0.239216
0.921569 0.239216 0.192157
1.000000 0.200000 0.164706
1.000000 0.192157 0.133333
1.000000 0.203922 0.125490
0.011765 0.666667 0.290196
0.007843 0.654902 0.301961
0.007843 0.627451 0.247059
0.239216 0.580392 0.207843
0.533333 0.541176 0.168627
0.831373 0.494118 0.109804
1.000000 0.458824 0.082353
1.000000 0.435294 0.050980
1.000000 0.419608 0.043137
0.019608 0.890196 0.196078
0.019608 0.898039 0.184314
0.019608 0.874510 0.160784
0.168627 0.831373 0.125490
0.462745 0.788235 0.082353
0.745098 0.749020 0.035294
1.000000 0.701961 0.000000
1.000000 0.682353 0.000000
1.000000 0.670588 0.000000
0.019608 1.000000 0.125490
0.019608 1.000000 0.113725
0.019608 1.000000 0.070588
0.074510 1.000000 0.043137
0.384314 1.000000 0.000000
0.670588 0.996078 0.000000
0.968627 0.952941 0.000000
1.000000 0.925490 0.000000
1.000000 0.917647 0.000000
0.019608 1.000000 0.066667
0.019608 1.000000 0.058824
0.019608 1.000000 0.035294
0.039216 1.000000 0.000000
0.329412 1.000000 0.000000
0.627451 1.000000 0.000000
0.909804 1.000000 0.000000
1.000000 1.000000 0.000000
1.000000 1.000000 0.000000
0.019608 1.000000 0.062745
0.019608 1.000000 0.054902
0.019608 1.000000 0.027451
0.019608 1.000000 0.000000
0.317647 1.000000 0.000000
0.607843 1.000000 0.000000
0.894118 1.000000 0.000000
1.000000 1.000000 0.000000
1.000000 1.000000 0.000000
0.019608 0.000000 0.850980
0.019608 0.000000 0.839216
0.180392 0.000000 0.807843
0.466667 0.000000 0.768627
0.776471 0.000000 0.725490
1.000000 0.000000 0.686275
1.000000 0.000000 0.639216
1.000000 0.000000 0.619608
1.000000 0.000000 0.611765
0.019608 0.000000 0.839216
0.019608 0.000000 0.827451
0.160784 0.000000 0.800000
0.458824 0.000000 0.749020
0.749020 0.000000 0.725490
1.000000 0.000000 0.674510
1.000000 0.000000 0.623529
1.000000 0.000000 0.615686
1.000000 0.000000 0.592157
0.019608 0.133333 0.776471
0.019608 0.129412 0.768627
0.101961 0.090196 0.737255
0.392157 0.062745 0.690196
0.678431 0.015686 0.650980
0.980392 0.000000 0.615686
1.000000 0.000000 0.560784
1.000000 0.000000 0.556863
1.000000 0.015686 0.533333
0.015686 0.388235 0.694118
0.015686 0.384314 0.690196
0.011765 0.349020 0.666667
0.313725 0.301961 0.611765
0.611765 0.262745 0.560784
0.909804 0.219608 0.533333
1.000000 0.176471 0.482353
1.000000 0.156863 0.450980
1.000000 0.168627 0.450980
0.007843 0.643137 0.627451
0.007843 0.635294 0.619608
0.003922 0.603922 0.592157
0.231373 0.560784 0.533333
0.525490 0.517647 0.482353
0.827451 0.482353 0.435294
1.000000 0.439216 0.403922
1.000000 0.415686 0.372549
1.000000 0.407843 0.372549
0.019608 0.847059 0.533333
0.019608 0.858824 0.525490
0.019608 0.862745 0.482353
0.133333 0.815686 0.443137
0.435294 0.780392 0.403922
0.733333 0.737255 0.360784
1.000000 0.690196 0.321569
1.000000 0.662745 0.298039
1.000000 0.662745 0.294118
0.019608 0.996078 0.443137
0.019608 1.000000 0.443137
0.019608 1.000000 0.415686
0.062745 1.000000 0.368627
0.356863 1.000000 0.317647
0.654902 0.980392 0.274510
0.937255 0.937255 0.239216
1.000000 0.917647 0.215686
1.000000 0.905882 0.207843
0.019608 1.000000 0.392157
0.019608 1.000000 0.400000
0.019608 1.000000 0.356863
0.019608 1.000000 0.321569
0.317647 1.000000 0.278431
0.607843 1.000000 0.231373
0.894118 1.000000 0.196078
1.000000 1.000000 0.172549
1.000000 1.000000 0.164706
0.019608 1.000000 0.380392
0.019608 1.000000 0.372549
0.019608 1.000000 0.349020
0.019608 1.000000 0.305882
0.301961 1.000000 0.254902
0.584314 1.000000 0.227451
0.878431 1.000000 0.176471
1.000000 1.000000 0.149020
1.000000 1.000000 0.145098
0.019608 0.000000 0.980392
0.019608 0.000000 0.980392
0.156863 0.000000 0.980392
0.450980 0.000000 0.980392
0.745098 0.000000 0.980392
1.000000 0.000000 0.980392
1.000000 0.000000 0.960784
1.000000 0.000000 0.941176
1.000000 0.000000 0.933333
0.019608 0.000000 0.980392
0.019608 0.000000 0.980392
0.145098 0.000000 0.980392
0.439216 0.000000 0.980392
0.733333 0.000000 0.980392
1.000000 0.000000 0.980392
1.000000 0.000000 0.945098
1.000000 0.000000 0.921569
1.000000 0.000000 0.921569
0.019608 0.121569 0.980392
0.019608 0.113725 0.980392
0.086275 0.082353 0.980392
0.380392 0.035294 0.980392
0.674510 0.000000 0.964706
0.968627 0.000000 0.933333
1.000000 0.000000 0.886275
1.000000 0.000000 0.858824
1.000000 0.000000 0.854902
0.019608 0.368627 0.980392
0.019608 0.364706 0.980392
0.019608 0.329412 0.976471
0.298039 0.286275 0.933333
0.600000 0.250980 0.886275
0.882353 0.211765 0.839216
1.000000 0.160784 0.807843
1.000000 0.137255 0.776471
1.000000 0.133333 0.772549
0.019608 0.627451 0.921569
0.019608 0.627451 0.917647
0.019608 0.588235 0.878431
0.215686 0.545098 0.854902
0.513725 0.505882 0.811765
0.807843 0.458824 0.756863
1.000000 0.419608 0.729412
1.000000 0.400000 0.698039
1.000000 0.384314 0.690196
0.019608 0.819608 0.843137
0.019608 0.827451 0.831373
0.019608 0.843137 0.807843
0.129412 0.800000 0.772549
0.423529 0.752941 0.725490
0.721569 0.713725 0.678431
1.000000 0.674510 0.623529
1.000000 0.650980 0.619608
1.000000 0.643137 0.600000
0.019608 0.964706 0.756863
0.019608 0.972549 0.760784
0.019608 1.000000 0.717647
0.047059 1.000000 0.690196
0.345098 1.000000 0.639216
0.635294 0.960784 0.592157
0.921569 0.921569 0.564706
1.000000 0.898039 0.533333
1.000000 0.886275 0.525490
0.019608 1.000000 0.713725
0.019608 1.000000 0.705882
0.019608 1.000000 0.678431
0.019608 1.000000 0.623529
0.301961 1.000000 0.600000
0.600000 1.000000 0.556863
0.878431 1.000000 0.501961
1.000000 1.000000 0.498039
1.000000 1.000000 0.474510
0.019608 1.000000 0.709804
0.019608 1.000000 0.698039
0.019608 1.000000 0.670588
0.019608 1.000000 0.627451
0.286275 1.000000 0.576471
0.572549 1.000000 0.529412
0.870588 1.000000 0.501961
1.000000 1.000000 0.470588
1.000000 1.000000 0.462745
0.019608 0.000000 0.980392
0.019608 0.000000 0.980392
0.137255 0.000000 0.980392
0.435294 0.000000 0.980392
0.737255 0.000000 0.980392
1.000000 0.000000 0.980392
1.000000 0.000000 0.980392
1.000000 0.000000 0.980392
1.000000 0.000000 0.980392
0.019608 0.000000 0.980392
0.019608 0.000000 0.980392
0.137255 0.000000 0.980392
0.435294 0.000000 0.980392
0.729412 0.000000 0.980392
1.000000 0.000000 0.980392
1.000000 0.000000 0.980392
1.000000 0.000000 0.980392
1.000000 0.000000 0.980392
0.019608 0.152941 0.980392
0.019608 0.145098 0.980392
0.066667 0.098039 0.980392
0.360784 0.031373 0.980392
0.662745 0.000000 0.980392
0.956863 0.000000 0.980392
1.000000 0.000000 0.980392
1.000000 0.000000 0.980392
1.000000 0.000000 0.980392
0.019608 0.368627 0.980392
0.019608 0.364706 0.980392
0.019608 0.317647 0.980392
0.278431 0.278431 0.980392
0.588235 0.231373 0.980392
0.866667 0.188235 0.980392
1.000000 0.145098 0.980392
1.000000 0.117647 0.980392
1.000000 0.113725 0.980392
0.019608 0.607843 0.980392
0.019608 0.607843 0.980392
0.019608 0.576471 0.980392
0.184314 0.533333 0.980392
0.494118 0.486275 0.980392
0.780392 0.450980 0.980392
1.000000 0.407843 0.980392
1.000000 0.380392 0.980392
1.000000 0.368627 0.980392
0.019608 0.776471 0.980392
0.019608 0.784314 0.980392
0.019608 0.823529 0.980392
0.113725 0.784314 0.980392
0.415686 0.745098 0.980392
0.705882 0.698039 0.980392
0.992157 0.662745 0.952941
1.000000 0.635294 0.925490
1.000000 0.623529 0.921569
0.019608 0.925490 0.980392
0.019608 0.941176 0.980392
0.019608 0.996078 0.980392
0.039216 1.000000 0.980392
0.337255 0.988235 0.949020
0.631373 0.945098 0.921569
0.913725 0.905882 0.870588
1.000000 0.882353 0.839216
1.000000 0.874510 0.839216
0.019608 1.000000 0.980392
0.019608 1.000000 0.980392
0.019608 1.000000 0.980392
0.019608 1.000000 0.952941
0.286275 1.000000 0.909804
0.572549 1.000000 0.862745
0.866667 1.000000 0.819608
1.000000 1.000000 0.800000
1.000000 1.000000 0.796078
0.019608 1.000000 0.980392
0.019608 1.000000 0.980392
0.019608 1.000000 0.980392
0.027451 1.000000 0.929412
0.262745 1.000000 0.878431
0.564706 1.000000 0.854902
0.843137 1.000000 0.807843
1.000000 1.000000 0.772549
1.000000 1.000000 0.776471
0.019608 0.000000 0.980392
0.019608 0.000000 0.980392
0.149020 0.000000 0.980392
0.427451 0.000000 0.980392
0.725490 0.000000 0.980392
1.000000 0.000000 0.980392
1.000000 0.000000 0.980392
1.000000 0.000000 0.980392
1.000000 0.000000 0.980392
0.019608 0.011765 0.980392
0.019608 0.003922 0.980392
0.125490 0.000000 0.980392
0.419608 0.000000 0.980392
0.713725 0.000000 0.980392
1.000000 0.000000 0.980392
1.000000 0.000000 0.980392
1.000000 0.000000 0.980392
1.000000 0.000000 0.980392
0.019608 0.184314 0.980392
0.019608 0.168627 0.980392
0.054902 0.125490 0.980392
0.352941 0.062745 0.980392
0.650980 0.000000 0.980392
0.941176 0.000000 0.980392
1.000000 0.000000 0.980392
1.000000 0.000000 0.980392
1.000000 0.000000 0.980392
0.019608 0.388235 0.980392
0.019608 0.388235 0.980392
0.019608 0.333333 0.980392
0.278431 0.270588 0.980392
0.572549 0.219608 0.980392
0.870588 0.176471 0.980392
1.000000 0.133333 0.980392
1.000000 0.113725 0.980392
1.000000 0.105882 0.980392
0.019608 0.611765 0.980392
0.019608 0.596078 0.980392
0.019608 0.564706 0.980392
0.188235 0.521569 0.980392
0.490196 0.486275 0.980392
0.780392 0.439216 0.980392
1.000000 0.392157 0.980392
1.000000 0.376471 0.980392
1.000000 0.364706 0.980392
0.019608 0.756863 0.980392
0.019608 0.772549 0.980392
0.019608 0.819608 0.980392
0.101961 0.776471 0.980392
0.396078 0.733333 0.980392
0.694118 0.694118 0.980392
0.976471 0.650980 0.980392
1.000000 0.627451 0.980392
1.000000 0.619608 0.980392
0.019608 0.913725 0.980392
0.019608 0.921569 0.980392
0.019608 0.980392 0.980392
0.027451 1.000000 0.980392
0.321569 0.980392 0.980392
0.615686 0.933333 0.980392
0.898039 0.894118 0.980392
1.000000 0.874510 0.980392
1.000000 0.866667 0.980392
0.019608 0.992157 0.980392
0.019608 1.000000 0.980392
0.019608 1.000000 0.980392
0.019608 1.000000 0.980392
0.278431 1.000000 0.980392
0.572549 1.000000 0.980392
0.858824 1.000000 0.980392
1.000000 1.000000 0.976471
1.000000 1.000000 0.976471
0.019608 1.000000 0.980392
0.019608 1.000000 0.980392
0.019608 1.000000 0.980392
0.043137 1.000000 0.980392
0.266667 1.000000 0.980392
0.549020 1.000000 0.980392
0.839216 1.000000 0.980392
1.000000 1.000000 0.956863
1.000000 1.000000 0.949020
0.019608 0.000000 0.980392
0.019608 0.000000 0.980392
0.141176 0.000000 0.980392
0.435294 0.000000 0.980392
0.729412 0.000000 0.980392
1.000000 0.000000 0.980392
1.000000 0.000000 0.980392
1.000000 0.000000 0.980392
1.000000 0.000000 0.980392
0.019608 0.015686 0.980392
0.019608 0.015686 0.980392
0.129412 0.000000 0.980392
0.411765 0.000000 0.980392
0.721569 0.000000 0.980392
1.000000 0.000000 0.980392
1.000000 0.000000 0.980392
1.000000 0.000000 0.980392
1.000000 0.000000 0.980392
0.019608 0.188235 0.980392
0.019608 0.180392 0.980392
0.058824 0.129412 0.980392
0.356863 0.066667 0.980392
0.654902 0.003922 0.980392
0.949020 0.000000 0.980392
1.000000 0.000000 0.980392
1.000000 0.000000 0.980392
1.000000 0.000000 0.980392
0.019608 0.400000 0.980392
0.019608 0.392157 0.980392
0.019608 0.345098 0.980392
0.266667 0.278431 0.980392
0.564706 0.219608 0.980392
0.862745 0.172549 0.980392
1.000000 0.141176 0.980392
1.000000 0.109804 0.980392
1.000000 0.105882 0.980392
0.019608 0.619608 0.980392
0.019608 0.607843 0.980392
0.019608 0.560784 0.980392
0.184314 0.517647 0.980392
0.482353 0.478431 0.980392
0.780392 0.435294 0.980392
1.000000 0.392157 0.980392
1.000000 0.376471 0.980392
1.000000 0.364706 0.980392
0.019608 0.749020 0.980392
0.019608 0.764706 0.980392
0.019608 0.819608 0.980392
0.094118 0.776471 0.980392
0.403922 0.729412 0.980392
0.686275 0.694118 0.980392
0.980392 0.643137 0.980392
1.000000 0.619608 0.980392
1.000000 0.611765 0.980392
0.019608 0.898039 0.980392
0.019608 0.913725 0.980392
0.019608 0.972549 0.980392
0.019608 1.000000 0.980392
0.309804 0.976471 0.980392
0.607843 0.937255 0.980392
0.901961 0.886275 0.980392
1.000000 0.866667 0.980392
1.000000 0.858824 0.980392
0.019608 0.988235 0.980392
0.019608 0.996078 0.980392
0.019608 1.000000 0.980392
0.023529 1.000000 0.980392
0.270588 1.000000 0.980392
0.560784 1.000000 0.980392
0.850980 1.000000 0.980392
1.000000 1.000000 0.980392
1.000000 1.000000 0.980392
0.019608 1.000000 0.980392
0.019608 1.000000 0.980392
0.019608 1.000000 0.980392
0.050980 1.000000 0.980392
0.254902 1.000000 0.980392
0.552941 1.000000 0.980392
0.831373 1.000000 0.980392
1.000000 1.000000 0.980392
1.000000 1.000000 0.980392
