supercar-experience/09-campaign-ads/_grade/luts/AK_DLogM_Rescue.cube
# AK_DLogM_Rescue
# Measured from real Osmo Action 6 D-Log M footage. Skin-safe stretch: does NOT push deep skin tones orange. Apply denoise BEFORE this.
# Baked from ffmpeg chain:
# curves=all='0/0 0.09/0.005 0.35/0.30 0.60/0.66 0.80/0.92 1/1',eq=saturation=1.90:contrast=1.10,colorbalance=rs=-.03:bs=.07:rh=.03:bh=-.03
TITLE "AK_DLogM_Rescue"
LUT_3D_SIZE 5
DOMAIN_MIN 0.0 0.0 0.0
DOMAIN_MAX 1.0 1.0 1.0
0.000000 0.000000 0.047059
0.188235 0.000000 0.047059
0.815686 0.000000 0.000000
1.000000 0.000000 0.000000
1.000000 0.000000 0.000000
0.000000 0.184314 0.047059
0.105882 0.141176 0.047059
0.741176 0.062745 0.000000
1.000000 0.062745 0.000000
1.000000 0.121569 0.000000
0.011765 0.698039 0.000000
0.007843 0.654902 0.000000
0.552941 0.568627 0.000000
1.000000 0.470588 0.000000
1.000000 0.427451 0.000000
0.019608 1.000000 0.000000
0.019608 1.000000 0.000000
0.415686 1.000000 0.000000
0.992157 0.894118 0.000000
1.000000 0.847059 0.000000
0.019608 1.000000 0.000000
0.019608 1.000000 0.000000
0.341176 1.000000 0.000000
0.921569 1.000000 0.000000
1.000000 1.000000 0.000000
0.000000 0.000000 0.270588
0.172549 0.000000 0.235294
0.800000 0.000000 0.078431
1.000000 0.000000 0.000000
1.000000 0.000000 0.000000
0.000000 0.172549 0.200000
0.098039 0.129412 0.156863
0.725490 0.047059 0.003922
1.000000 0.027451 0.000000
1.000000 0.086275 0.000000
0.011765 0.674510 0.000000
0.007843 0.635294 0.000000
0.529412 0.552941 0.000000
1.000000 0.466667 0.000000
1.000000 0.435294 0.000000
0.019608 1.000000 0.000000
0.019608 1.000000 0.000000
0.396078 1.000000 0.000000
0.972549 0.933333 0.000000
1.000000 0.886275 0.000000
0.019608 1.000000 0.000000
0.019608 1.000000 0.000000
0.329412 1.000000 0.000000
0.909804 1.000000 0.000000
1.000000 1.000000 0.000000
0.019608 0.000000 0.850980
0.180392 0.000000 0.807843
0.776471 0.000000 0.725490
1.000000 0.000000 0.639216
1.000000 0.000000 0.611765
0.019608 0.133333 0.776471
0.101961 0.090196 0.737255
0.678431 0.015686 0.650980
1.000000 0.000000 0.560784
1.000000 0.015686 0.533333
0.007843 0.643137 0.627451
0.003922 0.603922 0.592157
0.525490 0.517647 0.482353
1.000000 0.439216 0.403922
1.000000 0.407843 0.372549
0.019608 0.996078 0.443137
0.019608 1.000000 0.415686
0.356863 1.000000 0.317647
0.937255 0.937255 0.239216
1.000000 0.905882 0.207843
0.019608 1.000000 0.380392
0.019608 1.000000 0.349020
0.301961 1.000000 0.254902
0.878431 1.000000 0.176471
1.000000 1.000000 0.145098
0.019608 0.000000 0.980392
0.137255 0.000000 0.980392
0.737255 0.000000 0.980392
1.000000 0.000000 0.980392
1.000000 0.000000 0.980392
0.019608 0.152941 0.980392
0.066667 0.098039 0.980392
0.662745 0.000000 0.980392
1.000000 0.000000 0.980392
1.000000 0.000000 0.980392
0.019608 0.607843 0.980392
0.019608 0.576471 0.980392
0.494118 0.486275 0.980392
1.000000 0.407843 0.980392
1.000000 0.368627 0.980392
0.019608 0.925490 0.980392
0.019608 0.996078 0.980392
0.337255 0.988235 0.949020
0.913725 0.905882 0.870588
1.000000 0.874510 0.839216
0.019608 1.000000 0.980392
0.019608 1.000000 0.980392
0.262745 1.000000 0.878431
0.843137 1.000000 0.807843
1.000000 1.000000 0.776471
0.019608 0.000000 0.980392
0.141176 0.000000 0.980392
0.729412 0.000000 0.980392
1.000000 0.000000 0.980392
1.000000 0.000000 0.980392
0.019608 0.188235 0.980392
0.058824 0.129412 0.980392
0.654902 0.003922 0.980392
1.000000 0.000000 0.980392
1.000000 0.000000 0.980392
0.019608 0.619608 0.980392
0.019608 0.560784 0.980392
0.482353 0.478431 0.980392
1.000000 0.392157 0.980392
1.000000 0.364706 0.980392
0.019608 0.898039 0.980392
0.019608 0.972549 0.980392
0.309804 0.976471 0.980392
0.901961 0.886275 0.980392
1.000000 0.858824 0.980392
0.019608 1.000000 0.980392
0.019608 1.000000 0.980392
0.254902 1.000000 0.980392
0.831373 1.000000 0.980392
1.000000 1.000000 0.980392
