supercar-experience/09-campaign-ads/_grade/luts/AK_DLogM_Rescue.cube
# AK_DLogM_Rescue
# Measured from real Osmo Action 6 D-Log M footage. Skin-safe stretch: does NOT push deep skin tones orange. Apply denoise BEFORE this.
# Baked from ffmpeg chain:
# curves=all='0/0 0.09/0.005 0.35/0.30 0.60/0.66 0.80/0.92 1/1',eq=saturation=1.90:contrast=1.10,colorbalance=rs=-.03:bs=.07:rh=.03:bh=-.03
TITLE "AK_DLogM_Rescue"
LUT_3D_SIZE 33
DOMAIN_MIN 0.0 0.0 0.0
DOMAIN_MAX 1.0 1.0 1.0
0.000000 0.000000 0.047059
0.000000 0.000000 0.047059
0.000000 0.000000 0.047059
0.000000 0.000000 0.047059
0.000000 0.000000 0.047059
0.000000 0.000000 0.047059
0.054902 0.000000 0.047059
0.109804 0.000000 0.047059
0.188235 0.000000 0.047059
0.254902 0.000000 0.035294
0.345098 0.000000 0.019608
0.423529 0.000000 0.007843
0.498039 0.000000 0.000000
0.576471 0.000000 0.000000
0.658824 0.000000 0.000000
0.737255 0.000000 0.000000
0.815686 0.000000 0.000000
0.874510 0.000000 0.000000
0.960784 0.000000 0.000000
0.968627 0.000000 0.000000
0.988235 0.000000 0.000000
1.000000 0.000000 0.000000
1.000000 0.000000 0.000000
1.000000 0.000000 0.000000
1.000000 0.000000 0.000000
1.000000 0.000000 0.000000
1.000000 0.000000 0.000000
1.000000 0.000000 0.000000
1.000000 0.000000 0.000000
1.000000 0.000000 0.000000
1.000000 0.000000 0.000000
1.000000 0.000000 0.000000
1.000000 0.000000 0.000000
0.000000 0.000000 0.047059
0.000000 0.000000 0.047059
0.000000 0.000000 0.047059
0.000000 0.000000 0.047059
0.000000 0.000000 0.047059
0.000000 0.000000 0.047059
0.054902 0.000000 0.047059
0.109804 0.000000 0.047059
0.188235 0.000000 0.047059
0.254902 0.000000 0.035294
0.345098 0.000000 0.019608
0.423529 0.000000 0.007843
0.498039 0.000000 0.000000
0.576471 0.000000 0.000000
0.658824 0.000000 0.000000
0.737255 0.000000 0.000000
0.815686 0.000000 0.000000
0.874510 0.000000 0.000000
0.960784 0.000000 0.000000
0.968627 0.000000 0.000000
0.988235 0.000000 0.000000
1.000000 0.000000 0.000000
1.000000 0.000000 0.000000
1.000000 0.000000 0.000000
1.000000 0.000000 0.000000
1.000000 0.000000 0.000000
1.000000 0.000000 0.000000
1.000000 0.000000 0.000000
1.000000 0.000000 0.000000
1.000000 0.000000 0.000000
1.000000 0.000000 0.000000
1.000000 0.000000 0.000000
1.000000 0.000000 0.000000
0.000000 0.000000 0.047059
0.000000 0.000000 0.047059
0.000000 0.000000 0.047059
0.000000 0.000000 0.047059
0.000000 0.000000 0.047059
0.000000 0.000000 0.047059
0.054902 0.000000 0.047059
0.109804 0.000000 0.047059
0.188235 0.000000 0.047059
0.254902 0.000000 0.035294
0.345098 0.000000 0.019608
0.423529 0.000000 0.007843
0.498039 0.000000 0.000000
0.576471 0.000000 0.000000
0.658824 0.000000 0.000000
0.737255 0.000000 0.000000
0.815686 0.000000 0.000000
0.874510 0.000000 0.000000
0.960784 0.000000 0.000000
0.968627 0.000000 0.000000
0.988235 0.000000 0.000000
1.000000 0.000000 0.000000
1.000000 0.000000 0.000000
1.000000 0.000000 0.000000
1.000000 0.000000 0.000000
1.000000 0.000000 0.000000
1.000000 0.000000 0.000000
1.000000 0.000000 0.000000
1.000000 0.000000 0.000000
1.000000 0.000000 0.000000
1.000000 0.000000 0.000000
1.000000 0.000000 0.000000
1.000000 0.000000 0.000000
0.000000 0.000000 0.047059
0.000000 0.000000 0.047059
0.000000 0.000000 0.047059
0.000000 0.000000 0.047059
0.000000 0.000000 0.047059
0.000000 0.000000 0.047059
0.047059 0.000000 0.047059
0.101961 0.000000 0.047059
0.180392 0.000000 0.047059
0.247059 0.000000 0.039216
0.337255 0.000000 0.023529
0.427451 0.000000 0.003922
0.490196 0.000000 0.000000
0.564706 0.000000 0.000000
0.650980 0.000000 0.000000
0.729412 0.000000 0.000000
0.811765 0.000000 0.000000
0.878431 0.000000 0.000000
0.960784 0.000000 0.000000
0.972549 0.000000 0.000000
0.992157 0.000000 0.000000
1.000000 0.000000 0.000000
1.000000 0.000000 0.000000
1.000000 0.000000 0.000000
1.000000 0.000000 0.000000
1.000000 0.000000 0.000000
1.000000 0.000000 0.000000
1.000000 0.000000 0.000000
1.000000 0.000000 0.000000
1.000000 0.000000 0.000000
1.000000 0.000000 0.000000
1.000000 0.000000 0.000000
1.000000 0.000000 0.000000
0.000000 0.000000 0.047059
0.000000 0.000000 0.047059
0.000000 0.000000 0.047059
0.000000 0.000000 0.047059
0.000000 0.000000 0.047059
0.000000 0.000000 0.047059
0.043137 0.000000 0.047059
0.105882 0.000000 0.047059
0.176471 0.000000 0.047059
0.254902 0.000000 0.035294
0.329412 0.000000 0.023529
0.419608 0.000000 0.007843
0.494118 0.000000 0.000000
0.572549 0.000000 0.000000
0.647059 0.000000 0.000000
0.729412 0.000000 0.000000
0.807843 0.000000 0.000000
0.866667 0.000000 0.000000
0.941176 0.000000 0.000000
0.988235 0.000000 0.000000
1.000000 0.000000 0.000000
1.000000 0.000000 0.000000
1.000000 0.000000 0.000000
1.000000 0.000000 0.000000
1.000000 0.000000 0.000000
1.000000 0.000000 0.000000
1.000000 0.000000 0.000000
1.000000 0.000000 0.000000
1.000000 0.000000 0.000000
1.000000 0.000000 0.000000
1.000000 0.000000 0.000000
1.000000 0.000000 0.000000
1.000000 0.003922 0.000000
0.000000 0.015686 0.047059
0.000000 0.015686 0.047059
0.000000 0.015686 0.047059
0.000000 0.023529 0.047059
0.000000 0.015686 0.047059
0.000000 0.003922 0.047059
0.031373 0.000000 0.047059
0.094118 0.000000 0.047059
0.168627 0.000000 0.047059
0.227451 0.000000 0.043137
0.317647 0.000000 0.023529
0.411765 0.000000 0.007843
0.466667 0.000000 0.000000
0.556863 0.000000 0.000000
0.623529 0.000000 0.000000
0.725490 0.000000 0.000000
0.796078 0.000000 0.000000
0.862745 0.000000 0.000000
0.937255 0.000000 0.000000
1.000000 0.000000 0.000000
1.000000 0.000000 0.000000
1.000000 0.000000 0.000000
1.000000 0.000000 0.000000
1.000000 0.000000 0.000000
1.000000 0.000000 0.000000
1.000000 0.000000 0.000000
1.000000 0.000000 0.000000
1.000000 0.000000 0.000000
1.000000 0.003922 0.000000
1.000000 0.011765 0.000000
1.000000 0.019608 0.000000
1.000000 0.019608 0.000000
1.000000 0.023529 0.000000
0.000000 0.074510 0.047059
0.000000 0.074510 0.047059
0.000000 0.074510 0.047059
0.000000 0.066667 0.047059
0.000000 0.062745 0.047059
0.000000 0.054902 0.047059
0.019608 0.047059 0.047059
0.066667 0.043137 0.047059
0.145098 0.031373 0.047059
0.211765 0.019608 0.043137
0.301961 0.011765 0.027451
0.392157 0.000000 0.011765
0.458824 0.000000 0.000000
0.533333 0.000000 0.000000
0.615686 0.000000 0.000000
0.694118 0.000000 0.000000
0.772549 0.000000 0.000000
0.847059 0.000000 0.000000
0.921569 0.000000 0.000000
0.992157 0.000000 0.000000
1.000000 0.000000 0.000000
1.000000 0.000000 0.000000
1.000000 0.000000 0.000000
1.000000 0.000000 0.000000
1.000000 0.000000 0.000000
1.000000 0.003922 0.000000
1.000000 0.019608 0.000000
1.000000 0.031373 0.000000
1.000000 0.039216 0.000000
1.000000 0.047059 0.000000
1.000000 0.047059 0.000000
1.000000 0.054902 0.000000
1.000000 0.054902 0.000000
0.000000 0.121569 0.047059
0.000000 0.121569 0.047059
0.000000 0.121569 0.047059
0.000000 0.117647 0.047059
0.000000 0.117647 0.047059
0.000000 0.109804 0.047059
0.000000 0.101961 0.047059
0.050980 0.094118 0.047059
0.133333 0.086275 0.047059
0.200000 0.070588 0.047059
0.286275 0.062745 0.031373
0.364706 0.054902 0.015686
0.447059 0.035294 0.003922
0.513725 0.027451 0.000000
0.596078 0.015686 0.000000
0.678431 0.011765 0.000000
0.756863 0.000000 0.000000
0.827451 0.000000 0.000000
0.913725 0.000000 0.000000
0.972549 0.000000 0.000000
1.000000 0.000000 0.000000
1.000000 0.000000 0.000000
1.000000 0.000000 0.000000
1.000000 0.003922 0.000000
1.000000 0.023529 0.000000
1.000000 0.039216 0.000000
1.000000 0.054902 0.000000
1.000000 0.062745 0.000000
1.000000 0.066667 0.000000
1.000000 0.074510 0.000000
1.000000 0.078431 0.000000
1.000000 0.078431 0.000000
1.000000 0.086275 0.000000
0.000000 0.184314 0.047059
0.000000 0.184314 0.047059
0.000000 0.184314 0.047059
0.000000 0.176471 0.047059
0.000000 0.172549 0.047059
0.000000 0.172549 0.047059
0.000000 0.164706 0.047059
0.035294 0.152941 0.047059
0.105882 0.141176 0.047059
0.180392 0.129412 0.047059
0.258824 0.121569 0.035294
0.345098 0.109804 0.019608
0.419608 0.101961 0.007843
0.501961 0.090196 0.000000
0.576471 0.082353 0.000000
0.658824 0.066667 0.000000
0.741176 0.062745 0.000000
0.803922 0.050980 0.000000
0.886275 0.035294 0.000000
0.949020 0.027451 0.000000
1.000000 0.015686 0.000000
1.000000 0.003922 0.000000
1.000000 0.023529 0.000000
1.000000 0.047059 0.000000
1.000000 0.062745 0.000000
1.000000 0.074510 0.000000
1.000000 0.090196 0.000000
1.000000 0.098039 0.000000
1.000000 0.101961 0.000000
1.000000 0.113725 0.000000
1.000000 0.113725 0.000000
1.000000 0.117647 0.000000
1.000000 0.121569 0.000000
0.000000 0.243137 0.043137
0.000000 0.243137 0.043137
0.000000 0.243137 0.043137
0.000000 0.243137 0.043137
0.000000 0.239216 0.043137
0.000000 0.231373 0.043137
0.000000 0.223529 0.047059
0.011765 0.215686 0.047059
0.094118 0.203922 0.047059
0.164706 0.196078 0.047059
0.243137 0.184314 0.039216
0.321569 0.176471 0.023529
0.403922 0.160784 0.011765
0.474510 0.149020 0.000000
0.552941 0.133333 0.000000
0.635294 0.129412 0.000000
0.713725 0.117647 0.000000
0.780392 0.113725 0.000000
0.874510 0.098039 0.000000
0.933333 0.094118 0.000000
1.000000 0.074510 0.000000
1.000000 0.070588 0.000000
1.000000 0.066667 0.000000
1.000000 0.078431 0.000000
1.000000 0.098039 0.000000
1.000000 0.113725 0.000000
1.000000 0.125490 0.000000
1.000000 0.133333 0.000000
1.000000 0.141176 0.000000
1.000000 0.145098 0.000000
1.000000 0.149020 0.000000
1.000000 0.152941 0.000000
1.000000 0.156863 0.000000
0.000000 0.309804 0.027451
0.000000 0.309804 0.027451
0.000000 0.309804 0.027451
0.000000 0.309804 0.027451
0.000000 0.301961 0.031373
0.000000 0.298039 0.031373
0.000000 0.294118 0.031373
0.003922 0.278431 0.035294
0.062745 0.278431 0.035294
0.145098 0.266667 0.039216
0.227451 0.250980 0.039216
0.305882 0.235294 0.027451
0.364706 0.227451 0.015686
0.450980 0.219608 0.000000
0.521569 0.211765 0.000000
0.615686 0.192157 0.000000
0.686275 0.192157 0.000000
0.764706 0.176471 0.000000
0.839216 0.164706 0.000000
0.921569 0.156863 0.000000
0.988235 0.149020 0.000000
1.000000 0.137255 0.000000
1.000000 0.125490 0.000000
1.000000 0.121569 0.000000
1.000000 0.137255 0.000000
1.000000 0.152941 0.000000
1.000000 0.164706 0.000000
1.000000 0.172549 0.000000
1.000000 0.184314 0.000000
1.000000 0.192157 0.000000
1.000000 0.196078 0.000000
1.000000 0.196078 0.000000
1.000000 0.200000 0.000000
0.000000 0.376471 0.015686
0.000000 0.376471 0.015686
0.000000 0.376471 0.015686
0.000000 0.376471 0.015686
0.000000 0.372549 0.015686
0.000000 0.364706 0.019608
0.000000 0.356863 0.019608
0.000000 0.356863 0.019608
0.054902 0.341176 0.023529
0.125490 0.329412 0.023529
0.203922 0.321569 0.027451
0.274510 0.309804 0.027451
0.352941 0.294118 0.019608
0.423529 0.286275 0.007843
0.509804 0.274510 0.000000
0.584314 0.262745 0.000000
0.662745 0.250980 0.000000
0.733333 0.250980 0.000000
0.827451 0.231373 0.000000
0.898039 0.223529 0.000000
0.972549 0.207843 0.000000
1.000000 0.203922 0.000000
1.000000 0.192157 0.000000
1.000000 0.180392 0.000000
1.000000 0.184314 0.000000
1.000000 0.196078 0.000000
1.000000 0.207843 0.000000
1.000000 0.215686 0.000000
1.000000 0.219608 0.000000
1.000000 0.223529 0.000000
1.000000 0.231373 0.000000
1.000000 0.231373 0.000000
1.000000 0.239216 0.000000
0.000000 0.431373 0.003922
0.000000 0.431373 0.003922
0.000000 0.431373 0.003922
0.000000 0.431373 0.003922
0.000000 0.431373 0.003922
0.000000 0.423529 0.007843
0.000000 0.411765 0.007843
0.000000 0.400000 0.011765
0.035294 0.396078 0.011765
0.117647 0.388235 0.011765
0.184314 0.380392 0.015686
0.266667 0.360784 0.019608
0.329412 0.356863 0.019608
0.411765 0.345098 0.007843
0.482353 0.329412 0.000000
0.560784 0.317647 0.000000
0.643137 0.313725 0.000000
0.725490 0.298039 0.000000
0.800000 0.290196 0.000000
0.882353 0.278431 0.000000
0.949020 0.270588 0.000000
1.000000 0.258824 0.000000
1.000000 0.250980 0.000000
1.000000 0.239216 0.000000
1.000000 0.231373 0.000000
1.000000 0.223529 0.000000
1.000000 0.239216 0.000000
1.000000 0.254902 0.000000
1.000000 0.262745 0.000000
1.000000 0.262745 0.000000
1.000000 0.266667 0.000000
1.000000 0.270588 0.000000
1.000000 0.274510 0.000000
0.000000 0.498039 0.000000
0.000000 0.498039 0.000000
0.000000 0.498039 0.000000
0.000000 0.498039 0.000000
0.000000 0.490196 0.000000
0.000000 0.486275 0.000000
0.000000 0.486275 0.000000
0.000000 0.474510 0.000000
0.019608 0.466667 0.000000
0.098039 0.450980 0.000000
0.172549 0.447059 0.003922
0.243137 0.431373 0.003922
0.309804 0.415686 0.007843
0.396078 0.411765 0.007843
0.466667 0.400000 0.000000
0.541176 0.384314 0.000000
0.615686 0.376471 0.000000
0.690196 0.372549 0.000000
0.780392 0.356863 0.000000
0.847059 0.349020 0.000000
0.933333 0.337255 0.000000
1.000000 0.325490 0.000000
1.000000 0.313725 0.000000
1.000000 0.301961 0.000000
1.000000 0.294118 0.000000
1.000000 0.282353 0.000000
1.000000 0.282353 0.000000
1.000000 0.290196 0.000000
1.000000 0.298039 0.000000
1.000000 0.298039 0.000000
1.000000 0.305882 0.000000
1.000000 0.305882 0.000000
1.000000 0.313725 0.000000
0.000000 0.564706 0.000000
0.000000 0.564706 0.000000
0.000000 0.564706 0.000000
0.000000 0.556863 0.000000
0.000000 0.556863 0.000000
0.000000 0.552941 0.000000
0.000000 0.541176 0.000000
0.000000 0.537255 0.000000
0.003922 0.525490 0.000000
0.074510 0.509804 0.000000
0.152941 0.498039 0.000000
0.219608 0.490196 0.000000
0.301961 0.478431 0.000000
0.372549 0.470588 0.000000
0.447059 0.458824 0.000000
0.521569 0.454902 0.000000
0.603922 0.439216 0.000000
0.658824 0.431373 0.000000
0.764706 0.423529 0.000000
0.823529 0.411765 0.000000
0.909804 0.392157 0.000000
0.980392 0.384314 0.000000
1.000000 0.372549 0.000000
1.000000 0.364706 0.000000
1.000000 0.352941 0.000000
1.000000 0.349020 0.000000
1.000000 0.345098 0.000000
1.000000 0.337255 0.000000
1.000000 0.329412 0.000000
1.000000 0.333333 0.000000
1.000000 0.333333 0.000000
1.000000 0.341176 0.000000
1.000000 0.341176 0.000000
0.007843 0.631373 0.000000
0.007843 0.631373 0.000000
0.007843 0.631373 0.000000
0.007843 0.631373 0.000000
0.007843 0.627451 0.000000
0.007843 0.615686 0.000000
0.003922 0.607843 0.000000
0.003922 0.600000 0.000000
0.003922 0.596078 0.000000
0.050980 0.580392 0.000000
0.137255 0.568627 0.000000
0.215686 0.556863 0.000000
0.266667 0.552941 0.000000
0.360784 0.537255 0.000000
0.419608 0.529412 0.000000
0.505882 0.513725 0.000000
0.572549 0.513725 0.000000
0.647059 0.494118 0.000000
0.729412 0.490196 0.000000
0.807843 0.470588 0.000000
0.882353 0.466667 0.000000
0.960784 0.458824 0.000000
1.000000 0.443137 0.000000
1.000000 0.435294 0.000000
1.000000 0.419608 0.000000
1.000000 0.411765 0.000000
1.000000 0.392157 0.000000
1.000000 0.388235 0.000000
1.000000 0.380392 0.000000
1.000000 0.384314 0.000000
1.000000 0.376471 0.000000
1.000000 0.376471 0.000000
1.000000 0.376471 0.000000
0.011765 0.698039 0.000000
0.011765 0.698039 0.000000
0.011765 0.698039 0.000000
0.011765 0.694118 0.000000
0.011765 0.686275 0.000000
0.011765 0.678431 0.000000
0.011765 0.666667 0.000000
0.011765 0.658824 0.000000
0.007843 0.654902 0.000000
0.035294 0.647059 0.000000
0.125490 0.627451 0.000000
0.200000 0.623529 0.000000
0.258824 0.611765 0.000000
0.329412 0.603922 0.000000
0.411765 0.596078 0.000000
0.494118 0.580392 0.000000
0.552941 0.568627 0.000000
0.627451 0.556863 0.000000
0.709804 0.549020 0.000000
0.788235 0.537255 0.000000
0.862745 0.525490 0.000000
0.937255 0.517647 0.000000
1.000000 0.501961 0.000000
1.000000 0.486275 0.000000
1.000000 0.470588 0.000000
1.000000 0.462745 0.000000
1.000000 0.447059 0.000000
1.000000 0.443137 0.000000
1.000000 0.439216 0.000000
1.000000 0.427451 0.000000
1.000000 0.431373 0.000000
1.000000 0.427451 0.000000
1.000000 0.427451 0.000000
0.015686 0.745098 0.000000
0.015686 0.745098 0.000000
0.015686 0.745098 0.000000
0.015686 0.741176 0.000000
0.015686 0.741176 0.000000
0.015686 0.741176 0.000000
0.015686 0.729412 0.000000
0.015686 0.717647 0.000000
0.015686 0.705882 0.000000
0.035294 0.698039 0.000000
0.105882 0.690196 0.000000
0.180392 0.678431 0.000000
0.250980 0.662745 0.000000
0.333333 0.658824 0.000000
0.400000 0.647059 0.000000
0.474510 0.631373 0.000000
0.545098 0.623529 0.000000
0.607843 0.615686 0.000000
0.682353 0.603922 0.000000
0.764706 0.592157 0.000000
0.843137 0.584314 0.000000
0.929412 0.560784 0.000000
1.000000 0.545098 0.000000
1.000000 0.537255 0.000000
1.000000 0.517647 0.000000
1.000000 0.509804 0.000000
1.000000 0.494118 0.000000
1.000000 0.490196 0.000000
1.000000 0.486275 0.000000
1.000000 0.486275 0.000000
1.000000 0.478431 0.000000
1.000000 0.478431 0.000000
1.000000 0.470588 0.000000
0.019608 0.823529 0.000000
0.019608 0.823529 0.000000
0.019608 0.823529 0.000000
0.019608 0.815686 0.000000
0.019608 0.811765 0.000000
0.019608 0.803922 0.000000
0.019608 0.792157 0.000000
0.019608 0.784314 0.000000
0.019608 0.776471 0.000000
0.019608 0.764706 0.000000
0.086275 0.752941 0.000000
0.168627 0.745098 0.000000
0.231373 0.737255 0.000000
0.301961 0.725490 0.000000
0.384314 0.717647 0.000000
0.450980 0.705882 0.000000
0.525490 0.694118 0.000000
0.592157 0.678431 0.000000
0.670588 0.666667 0.000000
0.745098 0.650980 0.000000
0.823529 0.635294 0.000000
0.898039 0.623529 0.000000
0.976471 0.603922 0.000000
1.000000 0.592157 0.000000
1.000000 0.572549 0.000000
1.000000 0.564706 0.000000
1.000000 0.556863 0.000000
1.000000 0.545098 0.000000
1.000000 0.545098 0.000000
1.000000 0.537255 0.000000
1.000000 0.533333 0.000000
1.000000 0.537255 0.000000
1.000000 0.529412 0.000000
0.019608 0.878431 0.000000
0.019608 0.878431 0.000000
0.019608 0.878431 0.000000
0.019608 0.874510 0.000000
0.019608 0.874510 0.000000
0.019608 0.862745 0.000000
0.019608 0.862745 0.000000
0.019608 0.850980 0.000000
0.019608 0.839216 0.000000
0.019608 0.835294 0.000000
0.066667 0.819608 0.000000
0.149020 0.803922 0.000000
0.211765 0.800000 0.000000
0.282353 0.788235 0.000000
0.360784 0.772549 0.000000
0.427451 0.764706 0.000000
0.509804 0.752941 0.000000
0.576471 0.737255 0.000000
0.650980 0.721569 0.000000
0.725490 0.709804 0.000000
0.807843 0.690196 0.000000
0.878431 0.674510 0.000000
0.956863 0.662745 0.000000
1.000000 0.643137 0.000000
1.000000 0.631373 0.000000
1.000000 0.615686 0.000000
1.000000 0.607843 0.000000
1.000000 0.600000 0.000000
1.000000 0.596078 0.000000
1.000000 0.588235 0.000000
1.000000 0.588235 0.000000
1.000000 0.588235 0.000000
1.000000 0.584314 0.000000
0.019608 0.941176 0.000000
0.019608 0.941176 0.000000
0.019608 0.941176 0.000000
0.019608 0.941176 0.000000
0.019608 0.941176 0.000000
0.019608 0.929412 0.000000
0.019608 0.933333 0.000000
0.019608 0.917647 0.000000
0.019608 0.909804 0.000000
0.019608 0.894118 0.000000
0.047059 0.890196 0.000000
0.125490 0.878431 0.000000
0.188235 0.858824 0.000000
0.266667 0.847059 0.000000
0.341176 0.839216 0.000000
0.415686 0.819608 0.000000
0.486275 0.807843 0.000000
0.556863 0.800000 0.000000
0.627451 0.784314 0.000000
0.701961 0.764706 0.000000
0.788235 0.749020 0.000000
0.866667 0.729412 0.000000
0.937255 0.717647 0.000000
1.000000 0.694118 0.000000
1.000000 0.690196 0.000000
1.000000 0.678431 0.000000
1.000000 0.662745 0.000000
1.000000 0.654902 0.000000
1.000000 0.650980 0.000000
1.000000 0.647059 0.000000
1.000000 0.647059 0.000000
1.000000 0.639216 0.000000
1.000000 0.643137 0.000000
0.019608 0.996078 0.000000
0.019608 0.996078 0.000000
0.019608 0.996078 0.000000
0.019608 1.000000 0.000000
0.019608 1.000000 0.000000
0.019608 1.000000 0.000000
0.019608 0.992157 0.000000
0.019608 0.980392 0.000000
0.019608 0.976471 0.000000
0.019608 0.968627 0.000000
0.031373 0.949020 0.000000
0.105882 0.945098 0.000000
0.164706 0.929412 0.000000
0.235294 0.913725 0.000000
0.313725 0.894118 0.000000
0.400000 0.878431 0.000000
0.462745 0.866667 0.000000
0.533333 0.850980 0.000000
0.615686 0.839216 0.000000
0.682353 0.823529 0.000000
0.760784 0.803922 0.000000
0.831373 0.788235 0.000000
0.909804 0.776471 0.000000
0.976471 0.756863 0.000000
1.000000 0.737255 0.000000
1.000000 0.729412 0.000000
1.000000 0.721569 0.000000
1.000000 0.713725 0.000000
1.000000 0.709804 0.000000
1.000000 0.701961 0.000000
1.000000 0.701961 0.000000
1.000000 0.698039 0.000000
1.000000 0.701961 0.000000
0.019608 1.000000 0.000000
0.019608 1.000000 0.000000
0.019608 1.000000 0.000000
0.019608 1.000000 0.000000
0.019608 1.000000 0.000000
0.019608 1.000000 0.000000
0.019608 1.000000 0.000000
0.019608 1.000000 0.000000
0.019608 1.000000 0.000000
0.019608 1.000000 0.000000
0.019608 1.000000 0.000000
0.086275 0.988235 0.000000
0.141176 0.980392 0.000000
0.223529 0.968627 0.000000
0.294118 0.952941 0.000000
0.384314 0.929412 0.000000
0.443137 0.925490 0.000000
0.517647 0.901961 0.000000
0.588235 0.886275 0.000000
0.662745 0.866667 0.000000
0.737255 0.858824 0.000000
0.815686 0.839216 0.000000
0.882353 0.823529 0.000000
0.964706 0.811765 0.000000
1.000000 0.803922 0.000000
1.000000 0.784314 0.000000
1.000000 0.776471 0.000000
1.000000 0.764706 0.000000
1.000000 0.764706 0.000000
1.000000 0.760784 0.000000
1.000000 0.752941 0.000000
1.000000 0.752941 0.000000
1.000000 0.752941 0.000000
0.019608 1.000000 0.000000
0.019608 1.000000 0.000000
0.019608 1.000000 0.000000
0.019608 1.000000 0.000000
0.019608 1.000000 0.000000
0.019608 1.000000 0.000000
0.019608 1.000000 0.000000
0.019608 1.000000 0.000000
0.019608 1.000000 0.000000
0.019608 1.000000 0.000000
0.019608 1.000000 0.000000
0.066667 1.000000 0.000000
0.125490 1.000000 0.000000
0.200000 1.000000 0.000000
0.274510 0.996078 0.000000
0.349020 0.988235 0.000000
0.423529 0.968627 0.000000
0.494118 0.952941 0.000000
0.576471 0.941176 0.000000
0.643137 0.925490 0.000000
0.721569 0.905882 0.000000
0.796078 0.898039 0.000000
0.870588 0.878431 0.000000
0.941176 0.862745 0.000000
1.000000 0.847059 0.000000
1.000000 0.839216 0.000000
1.000000 0.827451 0.000000
1.000000 0.819608 0.000000
1.000000 0.815686 0.000000
1.000000 0.807843 0.000000
1.000000 0.803922 0.000000
1.000000 0.803922 0.000000
1.000000 0.803922 0.000000
0.019608 1.000000 0.000000
0.019608 1.000000 0.000000
0.019608 1.000000 0.000000
0.019608 1.000000 0.000000
0.019608 1.000000 0.000000
0.019608 1.000000 0.000000
0.019608 1.000000 0.000000
0.019608 1.000000 0.000000
0.019608 1.000000 0.000000
0.019608 1.000000 0.000000
0.019608 1.000000 0.000000
0.039216 1.000000 0.000000
0.105882 1.000000 0.000000
0.192157 1.000000 0.000000
0.262745 1.000000 0.000000
0.333333 1.000000 0.000000
0.415686 1.000000 0.000000
0.478431 1.000000 0.000000
0.549020 0.988235 0.000000
0.623529 0.972549 0.000000
0.698039 0.960784 0.000000
0.780392 0.937255 0.000000
0.858824 0.921569 0.000000
0.925490 0.913725 0.000000
0.992157 0.894118 0.000000
1.000000 0.882353 0.000000
1.000000 0.870588 0.000000
1.000000 0.866667 0.000000
1.000000 0.862745 0.000000
1.000000 0.858824 0.000000
1.000000 0.854902 0.000000
1.000000 0.850980 0.000000
1.000000 0.847059 0.000000
0.019608 1.000000 0.000000
0.019608 1.000000 0.000000
0.019608 1.000000 0.000000
0.019608 1.000000 0.000000
0.019608 1.000000 0.000000
0.019608 1.000000 0.000000
0.019608 1.000000 0.000000
0.019608 1.000000 0.000000
0.019608 1.000000 0.000000
0.019608 1.000000 0.000000
0.019608 1.000000 0.000000
0.031373 1.000000 0.000000
0.090196 1.000000 0.000000
0.176471 1.000000 0.000000
0.243137 1.000000 0.000000
0.329412 1.000000 0.000000
0.396078 1.000000 0.000000
0.458824 1.000000 0.000000
0.533333 1.000000 0.000000
0.607843 1.000000 0.000000
0.678431 0.996078 0.000000
0.768627 0.972549 0.000000
0.843137 0.964706 0.000000
0.905882 0.952941 0.000000
0.972549 0.933333 0.000000
1.000000 0.921569 0.000000
1.000000 0.909804 0.000000
1.000000 0.909804 0.000000
1.000000 0.901961 0.000000
1.000000 0.894118 0.000000
1.000000 0.894118 0.000000
1.000000 0.886275 0.000000
1.000000 0.886275 0.000000
0.019608 1.000000 0.000000
0.019608 1.000000 0.000000
0.019608 1.000000 0.000000
0.019608 1.000000 0.000000
0.019608 1.000000 0.000000
0.019608 1.000000 0.000000
0.019608 1.000000 0.000000
0.019608 1.000000 0.000000
0.019608 1.000000 0.000000
0.019608 1.000000 0.000000
0.019608 1.000000 0.000000
0.019608 1.000000 0.000000
0.090196 1.000000 0.000000
0.164706 1.000000 0.000000
0.235294 1.000000 0.000000
