supercar-experience/09-campaign-ads/_grade/luts/AK_Golden_Vlog.cube
# AK_Golden_Vlog
# Warm, sunlit lifestyle look. Warms midtones and highlights, keeps shadows slightly cool so the warmth reads as sunlight rather than an orange cast.
# Best for: Golden hour, cafes, interiors, anything you want to feel inviting.
# Apply AFTER a D-Log M -> Rec.709 conversion, not instead of one.
TITLE "AK_Golden_Vlog"
LUT_3D_SIZE 9
DOMAIN_MIN 0.0 0.0 0.0
DOMAIN_MAX 1.0 1.0 1.0
0.010000 0.010066 0.040477
0.118820 0.010000 0.035268
0.272155 0.010000 0.032663
0.437527 0.010000 0.031490
0.598128 0.010657 0.032139
0.726081 0.013135 0.035562
0.852717 0.016857 0.041037
0.906692 0.018922 0.044916
0.906692 0.018922 0.044916
0.010000 0.111335 0.022338
0.107272 0.106237 0.016316
0.262189 0.085223 0.010728
0.429261 0.074598 0.010000
0.592967 0.067521 0.010750
0.724006 0.064155 0.013708
0.852113 0.063652 0.017832
0.910299 0.063070 0.020185
0.910251 0.062518 0.020168
0.010000 0.241753 0.010000
0.093654 0.238009 0.010000
0.248796 0.229608 0.010000
0.417684 0.203145 0.010000
0.585333 0.185731 0.010899
0.721886 0.177832 0.015031
0.852699 0.174853 0.020261
0.919850 0.173028 0.023528
0.919802 0.172474 0.023511
0.010000 0.385210 0.010000
0.082435 0.381967 0.010000
0.235532 0.377489 0.010000
0.405208 0.366510 0.010000
0.576777 0.339582 0.010944
0.719979 0.319439 0.016569
0.853207 0.308609 0.023017
0.931087 0.302393 0.027461
0.931036 0.301802 0.027443
0.010000 0.535862 0.010000
0.075018 0.533062 0.010000
0.225898 0.529244 0.010000
0.393306 0.525037 0.010000
0.567824 0.512000 0.010000
0.729184 0.488034 0.010000
0.853956 0.468469 0.026116
0.943423 0.455013 0.032033
0.944259 0.454027 0.032070
0.010000 0.680116 0.010000
0.072233 0.677658 0.010000
0.220973 0.674479 0.010000
0.386008 0.670980 0.010000
0.558457 0.667358 0.010000
0.721470 0.653051 0.010000
0.874764 0.632705 0.010000
0.956105 0.615579 0.036798
0.958145 0.613890 0.036931
0.010000 0.813434 0.010000
0.073536 0.811425 0.010000
0.220280 0.808842 0.010000
0.383101 0.806005 0.010000
0.553238 0.803074 0.010000
0.717951 0.800324 0.010000
0.863692 0.785069 0.010000
0.995886 0.768899 0.010000
1.000000 0.766748 0.010000
0.010000 0.964189 0.010000
0.077948 0.962851 0.010000
0.222896 0.961088 0.010000
0.383726 0.959096 0.010000
0.551782 0.956976 0.010000
0.711279 0.954928 0.010000
0.865309 0.953014 0.010000
0.994608 0.936231 0.010000
1.000000 0.933691 0.010000
0.010000 1.000000 0.010000
0.075934 1.000000 0.010000
0.220696 1.000000 0.010000
0.381371 1.000000 0.010000
0.549322 1.000000 0.010000
0.708774 1.000000 0.010000
0.858533 1.000000 0.010000
0.996660 1.000000 0.010000
1.000000 0.997016 0.010000
0.010000 0.010000 0.144093
0.117573 0.010000 0.138501
0.271194 0.010000 0.130156
0.436700 0.010000 0.124542
0.597629 0.010681 0.121520
0.725990 0.013247 0.121459
0.852892 0.017057 0.123906
0.907421 0.019177 0.125776
0.907412 0.019174 0.124779
0.010000 0.110055 0.126441
0.106177 0.105798 0.120925
0.262383 0.100397 0.116440
0.430943 0.095713 0.114436
0.596210 0.092820 0.114213
0.729541 0.093233 0.116810
0.861906 0.096279 0.121659
0.914294 0.098604 0.125186
0.914324 0.098958 0.125110
0.010000 0.240635 0.104587
0.091661 0.237276 0.098108
0.248088 0.229175 0.091013
0.418593 0.204334 0.086195
0.587785 0.191516 0.083456
0.725961 0.185546 0.084979
0.860524 0.183453 0.089120
0.921266 0.182433 0.092296
0.921289 0.182661 0.092726
0.010000 0.384227 0.084373
0.079309 0.381889 0.076926
0.233746 0.377057 0.070402
0.404933 0.366083 0.064213
0.578127 0.338484 0.064086
0.722810 0.320031 0.069597
0.859891 0.311135 0.077287
0.931964 0.306866 0.083447
0.931981 0.306963 0.084481
0.010000 0.535022 0.067638
0.070760 0.533652 0.059462
0.222980 0.529480 0.053697
0.391876 0.524880 0.047341
0.567984 0.511664 0.043087
0.730950 0.486906 0.046123
0.859283 0.467544 0.065430
0.944408 0.455274 0.075029
0.944731 0.454973 0.076716
0.010000 0.679414 0.056024
0.066882 0.678894 0.047364
0.216963 0.675360 0.042324
0.383486 0.671468 0.036769
0.557489 0.667435 0.031006
0.722023 0.652863 0.029523
0.879008 0.631899 0.035786
0.956700 0.614889 0.067729
0.958406 0.613554 0.070108
0.010000 0.813065 0.049204
0.067164 0.813264 0.040286
0.215249 0.810327 0.035915
0.379558 0.807096 0.031100
0.551250 0.803754 0.026105
0.717331 0.800613 0.021399
0.865729 0.785070 0.022720
0.996130 0.768470 0.030861
1.000000 0.766326 0.033135
0.010000 0.964192 0.046372
0.070657 0.964839 0.037381
0.216946 0.962835 0.033606
0.379265 0.960555 0.029449
0.548878 0.958108 0.025138
0.709852 0.955725 0.021078
0.864975 0.953481 0.017367
0.994677 0.936005 0.020968
1.000000 0.933242 0.022981
0.010000 1.000000 0.040279
0.075449 1.000000 0.037376
0.220357 1.000000 0.034054
0.381118 1.000000 0.030352
0.549075 1.000000 0.026385
0.708532 1.000000 0.022631
0.858230 1.000000 0.019186
0.996551 1.000000 0.016219
1.000000 0.997032 0.015208
0.010000 0.010000 0.275490
0.115247 0.010000 0.270446
0.269948 0.010000 0.263407
0.435629 0.010000 0.253061
0.596985 0.010713 0.243365
0.725893 0.013400 0.238675
0.853148 0.017328 0.236174
0.908408 0.019523 0.235269
0.908399 0.019520 0.234231
0.010000 0.108256 0.259109
0.104833 0.104237 0.255558
0.261040 0.098836 0.248136
0.429775 0.094334 0.238958
0.595446 0.091663 0.233536
0.729303 0.092380 0.230941
0.862012 0.095713 0.231412
0.915200 0.098253 0.232273
0.915229 0.098654 0.231646
0.010000 0.239186 0.237929
0.090312 0.235707 0.233026
0.246937 0.229977 0.225688
0.419542 0.218174 0.218049
0.590914 0.211984 0.215146
0.731777 0.209302 0.215388
0.871067 0.209587 0.218173
0.924745 0.209728 0.219901
0.924712 0.209412 0.219247
0.010000 0.382952 0.215700
0.078075 0.380516 0.209775
0.231196 0.376260 0.201474
0.404344 0.365585 0.194301
0.579715 0.339468 0.190929
0.726736 0.327406 0.192066
0.868613 0.322392 0.195825
0.934097 0.319861 0.198716
0.934095 0.319812 0.199017
0.010000 0.533932 0.196825
0.069361 0.532602 0.189813
0.218964 0.529549 0.180731
0.389789 0.524439 0.173815
0.567961 0.511554 0.168354
0.733010 0.485398 0.168592
0.866086 0.468431 0.182071
0.946063 0.459101 0.188242
0.946049 0.458842 0.189180
0.010000 0.678503 0.183141
0.065114 0.678243 0.175072
0.211528 0.676267 0.165453
0.379982 0.671865 0.159339
0.556003 0.667297 0.152990
0.722510 0.653094 0.150180
0.883873 0.630615 0.153867
0.958689 0.613875 0.179128
0.959323 0.612987 0.180712
0.010000 0.812322 0.174384
0.064866 0.813061 0.165322
0.208491 0.812015 0.155395
0.374731 0.808275 0.150020
0.548441 0.804399 0.144440
0.715547 0.800751 0.139178
0.867822 0.785612 0.139105
0.997068 0.767813 0.145022
1.000000 0.765844 0.147248
0.010000 0.963698 0.169805
0.067726 0.965054 0.159842
0.208996 0.964834 0.149797
0.373246 0.962194 0.145079
0.544878 0.959334 0.140182
0.707769 0.956523 0.135564
0.862033 0.953850 0.131341
0.995168 0.937047 0.133596
1.000000 0.934189 0.136358
0.010000 1.000000 0.163385
0.071930 1.000000 0.157741
0.211489 1.000000 0.147709
0.374208 1.000000 0.143490
0.544240 1.000000 0.139112
0.705615 1.000000 0.134984
0.854099 1.000000 0.131207
0.996281 1.000000 0.127964
1.000000 0.997392 0.128133
0.010000 0.010000 0.417297
0.112975 0.010000 0.412854
0.265886 0.010000 0.406521
0.434442 0.010000 0.398435
0.602413 0.010000 0.386580
0.725802 0.013575 0.373306
0.853449 0.017636 0.364255
0.909523 0.019913 0.358932
0.909513 0.019910 0.357837
0.010000 0.106575 0.402325
0.103650 0.102820 0.400949
0.258089 0.097880 0.394240
0.428481 0.092806 0.385928
0.599645 0.089784 0.375291
0.729065 0.091442 0.364430
0.862171 0.095103 0.359991
0.916259 0.097883 0.357079
0.916287 0.098336 0.355789
0.010000 0.236884 0.382978
0.090666 0.233668 0.380263
0.245284 0.228544 0.375503
0.418210 0.222803 0.367056
0.590206 0.218832 0.357792
0.732190 0.218126 0.354023
0.872661 0.220145 0.352959
0.926939 0.221658 0.352709
0.926942 0.221778 0.351813
0.010000 0.381538 0.361450
0.076767 0.378968 0.357274
0.229420 0.374669 0.350851
0.403386 0.367118 0.342687
0.581277 0.352760 0.335686
0.731240 0.345410 0.331966
0.877857 0.341449 0.331202
0.936894 0.338840 0.330638
0.936866 0.338577 0.330124
0.010000 0.532724 0.340201
0.068252 0.531260 0.334938
0.216820 0.528396 0.327102
0.387168 0.523636 0.318197
0.567630 0.510854 0.311391
0.734991 0.485475 0.308522
0.873215 0.474442 0.315329
0.948055 0.469019 0.317892
0.948024 0.468649 0.318017
0.010000 0.677494 0.324218
0.064198 0.677099 0.317897
0.208818 0.675622 0.308689
0.375787 0.671991 0.299388
0.554047 0.666831 0.292390
0.722745 0.652930 0.288100
0.888494 0.628927 0.288927
0.960517 0.614059 0.306596
0.960467 0.613406 0.307331
0.010000 0.811498 0.313312
0.064132 0.812103 0.305998
0.205066 0.811922 0.295498
0.369068 0.809269 0.286019
0.545018 0.804801 0.279789
0.712007 0.800591 0.273910
0.869443 0.785851 0.272283
0.997964 0.766574 0.275732
1.000000 0.764799 0.277116
0.010000 0.963146 0.306794
0.067156 0.964405 0.298579
0.204773 0.965215 0.286908
0.366262 0.963699 0.277427
0.540134 0.960390 0.271879
0.705152 0.957104 0.266643
0.859940 0.953952 0.261849
0.995588 0.937791 0.262604
1.000000 0.934861 0.264524
0.010000 1.000000 0.300004
0.071487 1.000000 0.294982
0.206548 1.000000 0.282402
0.366206 1.000000 0.273022
0.538480 1.000000 0.267992
0.701982 1.000000 0.263244
0.852425 1.000000 0.258895
0.995867 1.000000 0.255158
1.000000 0.997790 0.254981
0.010000 0.010000 0.564154
0.110907 0.010000 0.560345
0.261767 0.010000 0.554632
0.429259 0.010000 0.548309
0.601363 0.010000 0.539119
0.755917 0.010000 0.526699
0.853806 0.017979 0.506972
0.910787 0.020355 0.499103
0.910777 0.020352 0.498010
0.010000 0.105146 0.550688
0.102746 0.101674 0.551627
0.255135 0.097288 0.545536
0.424321 0.092422 0.538793
0.598481 0.088379 0.529534
0.756066 0.087116 0.518267
0.862361 0.094463 0.501696
0.917425 0.097503 0.494303
0.917452 0.098011 0.492266
0.010000 0.234783 0.533289
0.091435 0.231848 0.532913
0.243841 0.227108 0.530928
0.415228 0.221716 0.523639
0.592205 0.216906 0.514447
0.753724 0.214396 0.504671
0.872669 0.219347 0.493022
0.928070 0.221115 0.487446
0.928071 0.221290 0.485785
0.010000 0.378883 0.514068
0.078869 0.376549 0.512178
0.229551 0.372545 0.508708
0.401593 0.366870 0.503103
0.581893 0.361129 0.494188
0.747779 0.357235 0.487410
0.880616 0.359408 0.483849
0.940043 0.359874 0.482538
0.940016 0.359681 0.481364
0.010000 0.531434 0.493410
0.067068 0.529827 0.490015
0.215460 0.526778 0.484603
0.384971 0.522117 0.477266
0.566921 0.513144 0.468900
0.736753 0.497734 0.462713
0.880849 0.491986 0.462323
0.950971 0.488218 0.461176
0.950914 0.487641 0.460431
0.010000 0.676416 0.474971
0.063221 0.675879 0.470518
0.207666 0.674217 0.463733
0.372797 0.671095 0.454870
0.551603 0.665969 0.446022
0.722642 0.652117 0.440142
0.892601 0.628505 0.437914
0.962165 0.618878 0.447377
0.962100 0.618148 0.447245
0.010000 0.810618 0.461768
0.063349 0.811081 0.456321
0.204108 0.810715 0.448245
0.365151 0.809032 0.437945
0.541006 0.804865 0.429093
0.710267 0.800055 0.422554
0.870386 0.785590 0.419258
0.998770 0.764808 0.420070
1.000000 0.763252 0.420554
0.010000 0.962551 0.453178
0.066549 0.963703 0.446830
0.203991 0.964371 0.437582
0.361355 0.964050 0.425978
0.534711 0.961181 0.417280
0.702002 0.957383 0.411382
0.857765 0.953703 0.405980
0.995898 0.938063 0.405122
1.000000 0.934966 0.406142
0.010000 1.000000 0.445983
0.071015 1.000000 0.441634
0.205903 1.000000 0.431476
0.360434 1.000000 0.418860
0.531971 1.000000 0.410381
0.697747 1.000000 0.404970
0.850282 1.000000 0.400011
0.995260 1.000000 0.395746
1.000000 0.998223 0.395189
0.010000 0.010000 0.704546
0.109227 0.010000 0.701355
0.258061 0.010000 0.696254
0.423304 0.010000 0.690609
0.596083 0.010000 0.684727
0.755085 0.010000 0.674816
0.920268 0.010000 0.662251
1.000000 0.010000 0.653874
1.000000 0.010000 0.652739
0.010000 0.104106 0.692566
0.102217 0.100914 0.695784
0.252579 0.097076 0.690305
0.419517 0.092818 0.684239
0.594068 0.088371 0.677917
0.755121 0.085942 0.668067
0.924321 0.086172 0.656561
1.000000 0.087293 0.647612
1.000000 0.087871 0.644766
0.010000 0.233078 0.677092
0.092560 0.230421 0.679025
0.242779 0.226063 0.679775
0.411918 0.221279 0.673162
0.588768 0.216283 0.666268
0.752634 0.213067 0.656654
0.925900 0.212150 0.646516
1.000000 0.212281 0.638746
1.000000 0.212521 0.636303
0.010000 0.376443 0.660001
0.081832 0.374386 0.660420
0.230309 0.370742 0.659946
0.399942 0.365509 0.657145
0.579346 0.359902 0.649612
0.746529 0.355734 0.640463
0.922974 0.353544 0.631838
1.000000 0.352577 0.625371
0.941161 0.359046 0.618596
0.010000 0.528732 0.641958
0.070450 0.527312 0.640770
0.217118 0.524495 0.638209
0.384765 0.520078 0.634022
0.565303 0.514107 0.627653
0.736224 0.508841 0.619224
0.913984 0.505301 0.614175
0.953992 0.507934 0.611539
0.953934 0.507404 0.610117
0.010000 0.675352 0.623956
0.062257 0.674673 0.621349
0.206529 0.672828 0.616959
0.371468 0.669504 0.610753
0.549283 0.664593 0.602767
0.722180 0.655172 0.595134
0.895884 0.640722 0.589887
1.000000 0.631235 0.586340
1.000000 0.630343 0.585337
0.010000 0.809750 0.608483
0.062577 0.810071 0.604882
0.203163 0.809522 0.599200
0.364015 0.807636 0.591557
0.537561 0.804229 0.582065
0.708187 0.799155 0.574196
0.870530 0.785861 0.569242
0.999424 0.764000 0.567447
1.000000 0.762682 0.567042
0.010000 0.961958 0.597846
0.065951 0.963002 0.593343
0.203220 0.963524 0.586488
0.360393 0.963027 0.577541
0.530096 0.961263 0.566681
0.698529 0.957313 0.559165
0.854524 0.953091 0.553160
0.996068 0.937676 0.550701
1.000000 0.934288 0.550830
0.010000 1.000000 0.590243
0.070551 1.000000 0.586568
0.205267 1.000000 0.578802
0.359607 1.000000 0.568841
0.526354 1.000000 0.556916
0.693202 1.000000 0.549775
0.847806 1.000000 0.544211
0.994488 1.000000 0.539423
1.000000 0.998657 0.538484
0.010000 0.010000 0.832831
0.107974 0.010000 0.830217
0.254894 0.010000 0.825694
0.418012 0.010000 0.820690
0.588570 0.010000 0.815477
0.750546 0.010000 0.810545
0.919375 0.010000 0.799876
1.000000 0.010000 0.790022
1.000000 0.010000 0.788890
0.010000 0.103464 0.822255
0.102051 0.100537 0.827619
0.250499 0.097216 0.822716
0.415312 0.093533 0.817290
0.587643 0.089686 0.811636
0.751300 0.086036 0.806284
0.923313 0.085249 0.795774
1.000000 0.086529 0.784861
1.000000 0.087161 0.781345
0.010000 0.231809 0.808598
0.093954 0.229414 0.812713
0.242110 0.225416 0.816038
0.409124 0.221207 0.810064
0.583754 0.216811 0.803835
0.749594 0.212640 0.797937
0.924717 0.211080 0.787790
1.000000 0.211371 0.778056
1.000000 0.211665 0.774942
0.010000 0.374477 0.793519
0.084963 0.372683 0.796118
0.231357 0.369380 0.798473
0.398715 0.364563 0.798315
0.575900 0.359557 0.791446
0.744164 0.354809 0.784938
0.921537 0.352312 0.775397
1.000000 0.351504 0.766964
1.000000 0.351424 0.764294
0.010000 0.526029 0.777604
0.075424 0.524872 0.778595
0.220008 0.522395 0.778862
0.385343 0.518356 0.777813
0.563519 0.512837 0.774006
0.734358 0.507474 0.766846
0.912166 0.503897 0.758174
1.000000 0.501925 0.751115
1.000000 0.501447 0.748912
0.010000 0.672848 0.762269
0.066205 0.672307 0.761701
0.209042 0.670629 0.759945
0.372440 0.667476 0.756648
0.548701 0.662731 0.751685
0.720929 0.656980 0.745110
0.895664 0.652271 0.737496
1.000000 0.649173 0.733956
1.000000 0.648312 0.732263
0.010000 0.808931 0.747073
0.061849 0.809119 0.745216
0.202272 0.808397 0.741795
0.362943 0.806319 0.736662
0.536300 0.802711 0.729792
0.705998 0.797928 0.721847
0.869948 0.788508 0.715240
0.999921 0.775898 0.710983
1.000000 0.774651 0.709738
0.010000 0.961393 0.734502
0.065387 0.962333 0.731742
0.202494 0.962714 0.727148
0.359486 0.962045 0.720710
0.529002 0.960073 0.712471
0.695056 0.956883 0.703221
0.852868 0.952170 0.696517
0.996107 0.939345 0.692536
1.000000 0.935883 0.691825
0.010000 1.000000 0.726506
0.070114 1.000000 0.723474
0.204668 1.000000 0.717969
0.358829 1.000000 0.710516
0.525387 1.000000 0.701211
0.688638 1.000000 0.690943
0.845139 1.000000 0.684752
0.993448 1.000000 0.679470
1.000000 0.999249 0.678160
0.010000 0.010000 0.975408
0.107104 0.010000 0.973992
0.252257 0.010000 0.971165
0.413415 0.010000 0.967843
0.581925 0.010000 0.964151
0.741956 0.010000 0.960426
0.914509 0.010000 0.956797
1.000000 0.010000 0.948430
1.000000 0.010000 0.947226
0.010000 0.103164 0.968775
0.102184 0.100482 0.974092
0.248866 0.097639 0.970993
0.411719 0.094486 0.967329
0.582001 0.091193 0.963229
0.743713 0.088069 0.959065
0.919500 0.085197 0.954984
1.000000 0.085826 0.943908
1.000000 0.086508 0.939126
0.010000 0.230930 0.958788
0.095528 0.228777 0.964112
0.241779 0.225112 0.968655
0.406833 0.221434 0.964368
0.579415 0.217592 0.959531
0.743310 0.213947 0.954576
0.921841 0.210596 0.949679
1.000000 0.210532 0.938203
1.000000 0.210877 0.933582
0.010000 0.372956 0.945563
0.088139 0.371404 0.950464
0.232610 0.368415 0.955389
0.397871 0.363984 0.957529
0.573007 0.359532 0.951467
0.739327 0.355310 0.945197
0.919284 0.351427 0.938945
1.000000 0.350517 0.926646
1.000000 0.350486 0.922026
0.010000 0.523827 0.928584
0.080300 0.522913 0.932532
0.222962 0.520750 0.936157
0.386164 0.517060 0.938405
0.562161 0.511958 0.936645
0.731055 0.507122 0.928174
0.910181 0.502674 0.919646
1.000000 0.500778 0.906007
1.000000 0.500351 0.901199
0.010000 0.669989 0.908654
0.072725 0.669690 0.910984
0.213640 0.668326 0.912337
0.374905 0.665523 0.911699
0.548938 0.661142 0.908580
0.719112 0.655801 0.900945
0.893447 0.650824 0.888725
1.000000 0.647873 0.873408
1.000000 0.647061 0.868244
0.010000 0.806800 0.886244
0.065663 0.807076 0.886207
0.204949 0.806459 0.884147
0.364408 0.804484 0.879069
0.536554 0.800968 0.870275
0.705156 0.796259 0.859972
0.868065 0.790910 0.853434
0.999975 0.786907 0.847675
1.000000 0.785737 0.845749
0.010000 0.960868 0.860613
0.064868 0.961710 0.859461
0.201825 0.961957 0.856953
0.358651 0.961124 0.852829
0.527993 0.958955 0.847009
0.693883 0.955539 0.840055
0.851058 0.951013 0.832540
0.996039 0.941725 0.827148
1.000000 0.939063 0.825660
0.010000 1.000000 0.852246
0.069712 1.000000 0.849815
0.204116 1.000000 0.846396
0.358111 1.000000 0.841257
0.524497 1.000000 0.834370
0.687584 1.000000 0.826396
0.842396 1.000000 0.818176
0.992474 1.000000 0.812437
1.000000 0.999743 0.810777
0.010000 0.010000 1.000000
0.106613 0.010000 1.000000
0.250994 0.010000 1.000000
0.411239 0.010000 1.000000
0.578735 0.010000 1.000000
0.737746 0.010000 1.000000
0.906161 0.010000 1.000000
1.000000 0.010000 1.000000
1.000000 0.010000 1.000000
0.010000 0.102803 1.000000
0.102524 0.100664 1.000000
0.247668 0.098236 1.000000
0.408816 0.095544 1.000000
0.577314 0.092734 1.000000
0.737334 0.090068 1.000000
0.907099 0.087618 1.000000
1.000000 0.085506 1.000000
1.000000 0.085941 1.000000
0.010000 0.230355 1.000000
0.097121 0.228452 1.000000
0.241715 0.225077 1.000000
0.405063 0.221860 1.000000
0.575862 0.218501 1.000000
0.738065 0.215314 1.000000
0.911541 0.212385 1.000000
1.000000 0.209859 1.000000
1.000000 0.210192 1.000000
0.010000 0.372064 1.000000
0.091128 0.370520 1.000000
0.233925 0.367805 1.000000
0.397359 0.363709 1.000000
0.570713 0.359740 1.000000
0.735340 0.355976 1.000000
0.910755 0.352514 1.000000
1.000000 0.349658 1.000000
1.000000 0.349671 1.000000
0.010000 0.522510 1.000000
0.084768 0.521436 1.000000
0.225757 0.519547 1.000000
0.387102 0.516161 1.000000
0.561203 0.511422 1.000000
0.728405 0.507044 1.000000
0.903199 0.503019 1.000000
1.000000 0.499781 0.999896
1.000000 0.499398 0.998813
0.010000 0.668176 0.997225
0.078625 0.667641 0.997779
0.217867 0.666551 0.998832
0.377276 0.664051 0.999520
0.549367 0.659988 0.999741
0.717754 0.655005 0.998853
0.888017 0.650433 0.996724
1.000000 0.646742 0.994500
1.000000 0.645975 0.993333
0.010000 0.804447 0.992729
0.072901 0.804493 0.993069
0.210514 0.804149 0.993570
0.368116 0.802477 0.993572
0.538323 0.799279 0.992951
0.705083 0.794871 0.991732
0.864365 0.789843 0.989485
0.999647 0.785652 0.986461
1.000000 0.784525 0.985169
0.010000 0.959824 0.988054
0.067763 0.960384 0.988032
0.203911 0.960675 0.987790
0.359891 0.959855 0.986846
0.528403 0.957658 0.985031
0.693559 0.954177 0.982411
0.850020 0.949588 0.979075
0.995825 0.944607 0.975206
1.000000 0.942977 0.973758
0.010000 1.000000 0.983993
0.069364 1.000000 0.982944
0.203637 1.000000 0.982036
0.357488 1.000000 0.980207
0.523724 1.000000 0.977243
0.686668 1.000000 0.973239
0.841052 1.000000 0.968290
0.991788 1.000000 0.963063
1.000000 0.999964 0.961372
