supercar-experience/09-campaign-ads/_grade/luts/AK_Golden_Vlog.cube
# AK_Golden_Vlog
# Warm, sunlit lifestyle look. Warms midtones and highlights, keeps shadows slightly cool so the warmth reads as sunlight rather than an orange cast.
# Best for: Golden hour, cafes, interiors, anything you want to feel inviting.
# Apply AFTER a D-Log M -> Rec.709 conversion, not instead of one.
TITLE "AK_Golden_Vlog"
LUT_3D_SIZE 5
DOMAIN_MIN 0.0 0.0 0.0
DOMAIN_MAX 1.0 1.0 1.0
0.010000 0.010066 0.040477
0.272155 0.010000 0.032663
0.598128 0.010657 0.032139
0.852717 0.016857 0.041037
0.906692 0.018922 0.044916
0.010000 0.241753 0.010000
0.248796 0.229608 0.010000
0.585333 0.185731 0.010899
0.852699 0.174853 0.020261
0.919802 0.172474 0.023511
0.010000 0.535862 0.010000
0.225898 0.529244 0.010000
0.567824 0.512000 0.010000
0.853956 0.468469 0.026116
0.944259 0.454027 0.032070
0.010000 0.813434 0.010000
0.220280 0.808842 0.010000
0.553238 0.803074 0.010000
0.863692 0.785069 0.010000
1.000000 0.766748 0.010000
0.010000 1.000000 0.010000
0.220696 1.000000 0.010000
0.549322 1.000000 0.010000
0.858533 1.000000 0.010000
1.000000 0.997016 0.010000
0.010000 0.010000 0.275490
0.269948 0.010000 0.263407
0.596985 0.010713 0.243365
0.853148 0.017328 0.236174
0.908399 0.019520 0.234231
0.010000 0.239186 0.237929
0.246937 0.229977 0.225688
0.590914 0.211984 0.215146
0.871067 0.209587 0.218173
0.924712 0.209412 0.219247
0.010000 0.533932 0.196825
0.218964 0.529549 0.180731
0.567961 0.511554 0.168354
0.866086 0.468431 0.182071
0.946049 0.458842 0.189180
0.010000 0.812322 0.174384
0.208491 0.812015 0.155395
0.548441 0.804399 0.144440
0.867822 0.785612 0.139105
1.000000 0.765844 0.147248
0.010000 1.000000 0.163385
0.211489 1.000000 0.147709
0.544240 1.000000 0.139112
0.854099 1.000000 0.131207
1.000000 0.997392 0.128133
0.010000 0.010000 0.564154
0.261767 0.010000 0.554632
0.601363 0.010000 0.539119
0.853806 0.017979 0.506972
0.910777 0.020352 0.498010
0.010000 0.234783 0.533289
0.243841 0.227108 0.530928
0.592205 0.216906 0.514447
0.872669 0.219347 0.493022
0.928071 0.221290 0.485785
0.010000 0.531434 0.493410
0.215460 0.526778 0.484603
0.566921 0.513144 0.468900
0.880849 0.491986 0.462323
0.950914 0.487641 0.460431
0.010000 0.810618 0.461768
0.204108 0.810715 0.448245
0.541006 0.804865 0.429093
0.870386 0.785590 0.419258
1.000000 0.763252 0.420554
0.010000 1.000000 0.445983
0.205903 1.000000 0.431476
0.531971 1.000000 0.410381
0.850282 1.000000 0.400011
1.000000 0.998223 0.395189
0.010000 0.010000 0.832831
0.254894 0.010000 0.825694
0.588570 0.010000 0.815477
0.919375 0.010000 0.799876
1.000000 0.010000 0.788890
0.010000 0.231809 0.808598
0.242110 0.225416 0.816038
0.583754 0.216811 0.803835
0.924717 0.211080 0.787790
1.000000 0.211665 0.774942
0.010000 0.526029 0.777604
0.220008 0.522395 0.778862
0.563519 0.512837 0.774006
0.912166 0.503897 0.758174
1.000000 0.501447 0.748912
0.010000 0.808931 0.747073
0.202272 0.808397 0.741795
0.536300 0.802711 0.729792
0.869948 0.788508 0.715240
1.000000 0.774651 0.709738
0.010000 1.000000 0.726506
0.204668 1.000000 0.717969
0.525387 1.000000 0.701211
0.845139 1.000000 0.684752
1.000000 0.999249 0.678160
0.010000 0.010000 1.000000
0.250994 0.010000 1.000000
0.578735 0.010000 1.000000
0.906161 0.010000 1.000000
1.000000 0.010000 1.000000
0.010000 0.230355 1.000000
0.241715 0.225077 1.000000
0.575862 0.218501 1.000000
0.911541 0.212385 1.000000
1.000000 0.210192 1.000000
0.010000 0.522510 1.000000
0.225757 0.519547 1.000000
0.561203 0.511422 1.000000
0.903199 0.503019 1.000000
1.000000 0.499398 0.998813
0.010000 0.804447 0.992729
0.210514 0.804149 0.993570
0.538323 0.799279 0.992951
0.864365 0.789843 0.989485
1.000000 0.784525 0.985169
0.010000 1.000000 0.983993
0.203637 1.000000 0.982036
0.523724 1.000000 0.977243
0.841052 1.000000 0.968290
1.000000 0.999964 0.961372
