supercar-experience/09-campaign-ads/_grade/luts/AK_Garage_Dark.cube
# AK_Garage_Dark
# D-Log M rescue measured from real Anti Stock garage footage: dark room, black walls, hard point lights. Bigger shadow stretch than AK_DLogM_Rescue, cool shadows to separate concrete from the warm work lights. Denoise BEFORE this.
# Baked from ffmpeg chain:
# curves=all='0/0 0.05/0.012 0.30/0.30 0.58/0.68 0.82/0.95 1/1',eq=saturation=2.0:contrast=1.06,colorbalance=rs=-.04:bs=.07:rh=.03:bh=-.03
TITLE "AK_Garage_Dark"
LUT_3D_SIZE 5
DOMAIN_MIN 0.0 0.0 0.0
DOMAIN_MAX 1.0 1.0 1.0
0.000000 0.000000 0.047059
0.345098 0.000000 0.019608
0.964706 0.000000 0.000000
1.000000 0.000000 0.000000
1.000000 0.000000 0.000000
0.000000 0.305882 0.031373
0.203922 0.243137 0.043137
0.839216 0.137255 0.000000
1.000000 0.145098 0.000000
1.000000 0.192157 0.000000
0.019608 0.803922 0.000000
0.054902 0.737255 0.000000
0.635294 0.643137 0.000000
1.000000 0.509804 0.000000
1.000000 0.474510 0.000000
0.019608 1.000000 0.000000
0.019608 1.000000 0.000000
0.478431 1.000000 0.000000
1.000000 0.901961 0.000000
1.000000 0.858824 0.000000
0.019608 1.000000 0.000000
0.019608 1.000000 0.000000
0.415686 1.000000 0.000000
0.960784 1.000000 0.000000
1.000000 0.988235 0.000000
0.000000 0.000000 0.411765
0.325490 0.000000 0.352941
0.941176 0.000000 0.215686
1.000000 0.000000 0.121569
1.000000 0.000000 0.094118
0.000000 0.286275 0.309804
0.203922 0.219608 0.215686
0.819608 0.113725 0.086275
1.000000 0.094118 0.000000
1.000000 0.137255 0.000000
0.019608 0.776471 0.054902
0.035294 0.713725 0.000000
0.615686 0.623529 0.000000
1.000000 0.533333 0.000000
1.000000 0.494118 0.000000
0.019608 1.000000 0.000000
0.019608 1.000000 0.000000
0.454902 1.000000 0.000000
0.996078 0.952941 0.000000
1.000000 0.913725 0.000000
0.019608 1.000000 0.000000
0.019608 1.000000 0.000000
0.400000 1.000000 0.000000
0.937255 1.000000 0.000000
1.000000 1.000000 0.000000
0.019608 0.000000 0.980392
0.309804 0.000000 0.968627
0.909804 0.000000 0.870588
1.000000 0.000000 0.784314
1.000000 0.000000 0.752941
0.019608 0.243137 0.894118
0.188235 0.172549 0.839216
0.776471 0.082353 0.745098
1.000000 0.015686 0.654902
1.000000 0.062745 0.627451
0.015686 0.741176 0.721569
0.011765 0.682353 0.654902
0.588235 0.580392 0.549020
1.000000 0.494118 0.458824
1.000000 0.466667 0.431373
0.019608 1.000000 0.545098
0.019608 1.000000 0.474510
0.423529 1.000000 0.380392
0.960784 0.945098 0.290196
1.000000 0.913725 0.258824
0.019608 1.000000 0.470588
0.019608 1.000000 0.419608
0.352941 1.000000 0.321569
0.886275 1.000000 0.227451
1.000000 1.000000 0.200000
0.019608 0.000000 0.980392
0.286275 0.000000 0.980392
0.870588 0.000000 0.980392
1.000000 0.000000 0.980392
1.000000 0.000000 0.980392
0.019608 0.270588 0.980392
0.149020 0.172549 0.980392
0.752941 0.047059 0.980392
1.000000 0.000000 0.980392
1.000000 0.000000 0.980392
0.019608 0.662745 0.980392
0.019608 0.639216 0.980392
0.549020 0.549020 0.980392
1.000000 0.466667 0.980392
1.000000 0.427451 0.980392
0.019608 0.937255 0.980392
0.019608 1.000000 0.980392
0.384314 1.000000 0.968627
0.921569 0.913725 0.882353
1.000000 0.886275 0.854902
0.019608 1.000000 0.980392
0.019608 1.000000 0.980392
0.329412 1.000000 0.917647
0.866667 1.000000 0.823529
1.000000 1.000000 0.792157
0.019608 0.007843 0.980392
0.274510 0.000000 0.980392
0.858824 0.000000 0.980392
1.000000 0.000000 0.980392
1.000000 0.000000 0.980392
0.019608 0.294118 0.980392
0.145098 0.203922 0.980392
0.737255 0.058824 0.980392
1.000000 0.000000 0.980392
1.000000 0.000000 0.980392
0.019608 0.654902 0.980392
0.019608 0.627451 0.980392
0.545098 0.541176 0.980392
1.000000 0.447059 0.980392
1.000000 0.415686 0.980392
0.019608 0.905882 0.980392
0.019608 1.000000 0.980392
0.372549 0.988235 0.980392
0.909804 0.901961 0.980392
1.000000 0.874510 0.980392
0.019608 1.000000 0.980392
0.019608 1.000000 0.980392
0.313725 1.000000 0.980392
0.854902 1.000000 0.980392
1.000000 1.000000 0.980392
