supercar-experience/09-campaign-ads/_grade/luts/AK_Garage_Dark.cube
# AK_Garage_Dark
# D-Log M rescue measured from real Anti Stock garage footage: dark room, black walls, hard point lights. Bigger shadow stretch than AK_DLogM_Rescue, cool shadows to separate concrete from the warm work lights. Denoise BEFORE this.
# Baked from ffmpeg chain:
# curves=all='0/0 0.05/0.012 0.30/0.30 0.58/0.68 0.82/0.95 1/1',eq=saturation=2.0:contrast=1.06,colorbalance=rs=-.04:bs=.07:rh=.03:bh=-.03
TITLE "AK_Garage_Dark"
LUT_3D_SIZE 33
DOMAIN_MIN 0.0 0.0 0.0
DOMAIN_MAX 1.0 1.0 1.0
0.000000 0.000000 0.047059
0.000000 0.000000 0.047059
0.000000 0.000000 0.047059
0.000000 0.000000 0.047059
0.039216 0.000000 0.047059
0.105882 0.000000 0.047059
0.176471 0.000000 0.047059
0.258824 0.000000 0.035294
0.345098 0.000000 0.019608
0.431373 0.000000 0.003922
0.513725 0.000000 0.000000
0.592157 0.000000 0.000000
0.678431 0.000000 0.000000
0.756863 0.000000 0.000000
0.819608 0.000000 0.000000
0.901961 0.000000 0.000000
0.964706 0.000000 0.000000
0.972549 0.000000 0.000000
0.988235 0.000000 0.000000
1.000000 0.000000 0.000000
1.000000 0.000000 0.000000
1.000000 0.000000 0.000000
1.000000 0.000000 0.000000
1.000000 0.000000 0.000000
1.000000 0.000000 0.000000
1.000000 0.000000 0.000000
1.000000 0.000000 0.000000
1.000000 0.000000 0.000000
1.000000 0.000000 0.000000
1.000000 0.000000 0.000000
1.000000 0.000000 0.000000
1.000000 0.000000 0.000000
1.000000 0.000000 0.000000
0.000000 0.000000 0.047059
0.000000 0.000000 0.047059
0.000000 0.000000 0.047059
0.000000 0.000000 0.047059
0.043137 0.000000 0.047059
0.105882 0.000000 0.047059
0.168627 0.000000 0.047059
0.250980 0.000000 0.035294
0.349020 0.000000 0.019608
0.435294 0.000000 0.003922
0.517647 0.000000 0.000000
0.580392 0.000000 0.000000
0.662745 0.000000 0.000000
0.745098 0.000000 0.000000
0.823529 0.000000 0.000000
0.905882 0.000000 0.000000
0.964706 0.000000 0.000000
0.980392 0.000000 0.000000
0.988235 0.000000 0.000000
1.000000 0.000000 0.000000
1.000000 0.000000 0.000000
1.000000 0.000000 0.000000
1.000000 0.000000 0.000000
1.000000 0.000000 0.000000
1.000000 0.000000 0.000000
1.000000 0.000000 0.000000
1.000000 0.000000 0.000000
1.000000 0.000000 0.000000
1.000000 0.000000 0.000000
1.000000 0.000000 0.000000
1.000000 0.000000 0.000000
1.000000 0.000000 0.000000
1.000000 0.000000 0.000000
0.000000 0.000000 0.047059
0.000000 0.000000 0.047059
0.000000 0.000000 0.047059
0.000000 0.000000 0.047059
0.035294 0.000000 0.047059
0.101961 0.000000 0.047059
0.160784 0.000000 0.047059
0.239216 0.000000 0.039216
0.329412 0.000000 0.023529
0.427451 0.000000 0.003922
0.509804 0.000000 0.000000
0.576471 0.000000 0.000000
0.658824 0.000000 0.000000
0.741176 0.000000 0.000000
0.815686 0.000000 0.000000
0.898039 0.000000 0.000000
0.960784 0.000000 0.000000
0.984314 0.000000 0.000000
0.996078 0.000000 0.000000
1.000000 0.000000 0.000000
1.000000 0.000000 0.000000
1.000000 0.000000 0.000000
1.000000 0.000000 0.000000
1.000000 0.000000 0.000000
1.000000 0.000000 0.000000
1.000000 0.000000 0.000000
1.000000 0.000000 0.000000
1.000000 0.000000 0.000000
1.000000 0.000000 0.000000
1.000000 0.000000 0.000000
1.000000 0.003922 0.000000
1.000000 0.003922 0.000000
1.000000 0.011765 0.000000
0.000000 0.031373 0.047059
0.000000 0.023529 0.047059
0.000000 0.023529 0.047059
0.000000 0.015686 0.047059
0.027451 0.003922 0.047059
0.090196 0.000000 0.047059
0.149020 0.000000 0.047059
0.227451 0.000000 0.039216
0.317647 0.000000 0.023529
0.419608 0.000000 0.007843
0.486275 0.000000 0.000000
0.560784 0.000000 0.000000
0.647059 0.000000 0.000000
0.733333 0.000000 0.000000
0.811765 0.000000 0.000000
0.874510 0.000000 0.000000
0.949020 0.000000 0.000000
0.996078 0.000000 0.000000
1.000000 0.000000 0.000000
1.000000 0.000000 0.000000
1.000000 0.000000 0.000000
1.000000 0.000000 0.000000
1.000000 0.000000 0.000000
1.000000 0.000000 0.000000
1.000000 0.000000 0.000000
1.000000 0.000000 0.000000
1.000000 0.003922 0.000000
1.000000 0.011765 0.000000
1.000000 0.019608 0.000000
1.000000 0.019608 0.000000
1.000000 0.023529 0.000000
1.000000 0.027451 0.000000
1.000000 0.031373 0.000000
0.000000 0.066667 0.047059
0.000000 0.066667 0.047059
0.000000 0.062745 0.047059
0.000000 0.054902 0.047059
0.007843 0.047059 0.047059
0.066667 0.035294 0.047059
0.145098 0.027451 0.047059
0.215686 0.019608 0.043137
0.309804 0.003922 0.027451
0.396078 0.000000 0.011765
0.478431 0.000000 0.000000
0.549020 0.000000 0.000000
0.627451 0.000000 0.000000
0.705882 0.000000 0.000000
0.792157 0.000000 0.000000
0.866667 0.000000 0.000000
0.925490 0.000000 0.000000
0.992157 0.000000 0.000000
1.000000 0.000000 0.000000
1.000000 0.000000 0.000000
1.000000 0.000000 0.000000
1.000000 0.000000 0.000000
1.000000 0.000000 0.000000
1.000000 0.000000 0.000000
1.000000 0.003922 0.000000
1.000000 0.019608 0.000000
1.000000 0.027451 0.000000
1.000000 0.031373 0.000000
1.000000 0.047059 0.000000
1.000000 0.047059 0.000000
1.000000 0.050980 0.000000
1.000000 0.054902 0.000000
1.000000 0.054902 0.000000
0.000000 0.121569 0.047059
0.000000 0.113725 0.047059
0.000000 0.113725 0.047059
0.000000 0.105882 0.047059
0.000000 0.094118 0.047059
0.054902 0.090196 0.047059
0.113725 0.078431 0.047059
0.192157 0.066667 0.047059
0.274510 0.050980 0.031373
0.376471 0.035294 0.015686
0.447059 0.027451 0.003922
0.529412 0.019608 0.000000
0.607843 0.003922 0.000000
0.694118 0.000000 0.000000
0.772549 0.000000 0.000000
0.847059 0.000000 0.000000
0.917647 0.000000 0.000000
0.976471 0.000000 0.000000
1.000000 0.000000 0.000000
1.000000 0.000000 0.000000
1.000000 0.000000 0.000000
1.000000 0.000000 0.000000
1.000000 0.003922 0.000000
1.000000 0.019608 0.000000
1.000000 0.031373 0.000000
1.000000 0.047059 0.000000
1.000000 0.058824 0.000000
1.000000 0.066667 0.000000
1.000000 0.074510 0.000000
1.000000 0.078431 0.000000
1.000000 0.078431 0.000000
1.000000 0.078431 0.000000
1.000000 0.082353 0.000000
0.000000 0.172549 0.047059
0.000000 0.176471 0.047059
0.000000 0.168627 0.047059
0.000000 0.168627 0.047059
0.000000 0.160784 0.047059
0.027451 0.149020 0.047059
0.098039 0.129412 0.047059
0.164706 0.121569 0.047059
0.258824 0.101961 0.035294
0.349020 0.094118 0.019608
0.431373 0.082353 0.003922
0.513725 0.070588 0.000000
0.580392 0.062745 0.000000
0.662745 0.050980 0.000000
0.749020 0.039216 0.000000
0.823529 0.023529 0.000000
0.890196 0.015686 0.000000
0.949020 0.003922 0.000000
1.000000 0.000000 0.000000
1.000000 0.000000 0.000000
1.000000 0.003922 0.000000
1.000000 0.019608 0.000000
1.000000 0.039216 0.000000
1.000000 0.054902 0.000000
1.000000 0.066667 0.000000
1.000000 0.078431 0.000000
1.000000 0.090196 0.000000
1.000000 0.098039 0.000000
1.000000 0.101961 0.000000
1.000000 0.109804 0.000000
1.000000 0.109804 0.000000
1.000000 0.109804 0.000000
1.000000 0.113725 0.000000
0.000000 0.239216 0.043137
0.000000 0.239216 0.043137
0.000000 0.235294 0.043137
0.000000 0.223529 0.047059
0.000000 0.219608 0.047059
0.000000 0.207843 0.047059
0.078431 0.192157 0.047059
0.145098 0.192157 0.047059
0.239216 0.168627 0.039216
0.325490 0.156863 0.023529
0.411765 0.145098 0.007843
0.490196 0.129412 0.000000
0.549020 0.121569 0.000000
0.639216 0.113725 0.000000
0.721569 0.098039 0.000000
0.803922 0.086275 0.000000
0.862745 0.074510 0.000000
0.925490 0.066667 0.000000
1.000000 0.050980 0.000000
1.000000 0.039216 0.000000
1.000000 0.039216 0.000000
1.000000 0.058824 0.000000
1.000000 0.074510 0.000000
1.000000 0.090196 0.000000
1.000000 0.101961 0.000000
1.000000 0.117647 0.000000
1.000000 0.129412 0.000000
1.000000 0.137255 0.000000
1.000000 0.145098 0.000000
1.000000 0.145098 0.000000
1.000000 0.149020 0.000000
1.000000 0.149020 0.000000
1.000000 0.152941 0.000000
0.000000 0.305882 0.031373
0.000000 0.301961 0.031373
0.000000 0.301961 0.031373
0.000000 0.290196 0.031373
0.000000 0.282353 0.035294
0.000000 0.274510 0.035294
0.054902 0.266667 0.039216
0.125490 0.254902 0.039216
0.203922 0.243137 0.043137
0.286275 0.231373 0.031373
0.376471 0.219608 0.015686
0.458824 0.207843 0.000000
0.533333 0.192157 0.000000
0.611765 0.176471 0.000000
0.694118 0.164706 0.000000
0.764706 0.152941 0.000000
0.839216 0.137255 0.000000
0.905882 0.133333 0.000000
0.984314 0.121569 0.000000
1.000000 0.109804 0.000000
1.000000 0.098039 0.000000
1.000000 0.098039 0.000000
1.000000 0.109804 0.000000
1.000000 0.133333 0.000000
1.000000 0.145098 0.000000
1.000000 0.156863 0.000000
1.000000 0.168627 0.000000
1.000000 0.176471 0.000000
1.000000 0.184314 0.000000
1.000000 0.184314 0.000000
1.000000 0.192157 0.000000
1.000000 0.192157 0.000000
1.000000 0.192157 0.000000
0.000000 0.376471 0.015686
0.000000 0.376471 0.015686
0.000000 0.368627 0.015686
0.000000 0.364706 0.019608
0.000000 0.356863 0.019608
0.000000 0.341176 0.023529
0.035294 0.329412 0.023529
0.113725 0.317647 0.027451
0.192157 0.309804 0.027451
0.266667 0.298039 0.031373
0.349020 0.286275 0.019608
0.431373 0.270588 0.003922
0.513725 0.258824 0.000000
0.576471 0.247059 0.000000
0.662745 0.235294 0.000000
0.745098 0.223529 0.000000
0.811765 0.215686 0.000000
0.870588 0.203922 0.000000
0.949020 0.192157 0.000000
1.000000 0.176471 0.000000
1.000000 0.160784 0.000000
1.000000 0.156863 0.000000
1.000000 0.152941 0.000000
1.000000 0.168627 0.000000
1.000000 0.184314 0.000000
1.000000 0.196078 0.000000
1.000000 0.207843 0.000000
1.000000 0.215686 0.000000
1.000000 0.223529 0.000000
1.000000 0.223529 0.000000
1.000000 0.227451 0.000000
1.000000 0.227451 0.000000
1.000000 0.227451 0.000000
0.000000 0.435294 0.003922
0.000000 0.439216 0.003922
0.000000 0.427451 0.007843
0.000000 0.423529 0.007843
0.000000 0.419608 0.007843
0.000000 0.407843 0.011765
0.023529 0.396078 0.011765
0.086275 0.388235 0.011765
0.168627 0.368627 0.015686
0.250980 0.356863 0.019608
0.321569 0.341176 0.023529
0.407843 0.329412 0.007843
0.490196 0.317647 0.000000
0.552941 0.313725 0.000000
0.639216 0.301961 0.000000
0.721569 0.286275 0.000000
0.784314 0.274510 0.000000
0.847059 0.262745 0.000000
0.921569 0.250980 0.000000
1.000000 0.239216 0.000000
1.000000 0.227451 0.000000
1.000000 0.215686 0.000000
1.000000 0.203922 0.000000
1.000000 0.207843 0.000000
1.000000 0.223529 0.000000
1.000000 0.239216 0.000000
1.000000 0.247059 0.000000
1.000000 0.250980 0.000000
1.000000 0.258824 0.000000
1.000000 0.262745 0.000000
1.000000 0.262745 0.000000
1.000000 0.270588 0.000000
1.000000 0.270588 0.000000
0.000000 0.498039 0.000000
0.000000 0.498039 0.000000
0.000000 0.490196 0.000000
0.000000 0.486275 0.000000
0.000000 0.482353 0.000000
0.000000 0.474510 0.000000
0.003922 0.454902 0.000000
0.070588 0.450980 0.000000
0.152941 0.431373 0.003922
0.231373 0.419608 0.007843
0.309804 0.407843 0.011765
0.384314 0.396078 0.011765
0.454902 0.388235 0.000000
0.525490 0.372549 0.000000
0.607843 0.360784 0.000000
0.690196 0.345098 0.000000
0.764706 0.341176 0.000000
0.827451 0.329412 0.000000
0.901961 0.317647 0.000000
0.980392 0.301961 0.000000
1.000000 0.286275 0.000000
1.000000 0.278431 0.000000
1.000000 0.266667 0.000000
1.000000 0.258824 0.000000
1.000000 0.258824 0.000000
1.000000 0.270588 0.000000
1.000000 0.282353 0.000000
1.000000 0.286275 0.000000
1.000000 0.294118 0.000000
1.000000 0.294118 0.000000
1.000000 0.298039 0.000000
1.000000 0.298039 0.000000
1.000000 0.298039 0.000000
0.000000 0.556863 0.000000
0.000000 0.564706 0.000000
0.000000 0.560784 0.000000
0.000000 0.552941 0.000000
0.000000 0.545098 0.000000
0.000000 0.533333 0.000000
0.000000 0.521569 0.000000
0.047059 0.509804 0.000000
0.141176 0.498039 0.000000
0.215686 0.486275 0.000000
0.290196 0.466667 0.000000
0.364706 0.454902 0.000000
0.427451 0.447059 0.003922
0.505882 0.435294 0.000000
0.588235 0.427451 0.000000
0.674510 0.415686 0.000000
0.737255 0.400000 0.000000
0.800000 0.388235 0.000000
0.874510 0.376471 0.000000
0.952941 0.364706 0.000000
1.000000 0.349020 0.000000
1.000000 0.345098 0.000000
1.000000 0.325490 0.000000
1.000000 0.321569 0.000000
1.000000 0.313725 0.000000
1.000000 0.301961 0.000000
1.000000 0.305882 0.000000
1.000000 0.313725 0.000000
1.000000 0.317647 0.000000
1.000000 0.321569 0.000000
1.000000 0.321569 0.000000
1.000000 0.329412 0.000000
1.000000 0.329412 0.000000
0.007843 0.619608 0.000000
0.007843 0.623529 0.000000
0.007843 0.623529 0.000000
0.007843 0.615686 0.000000
0.003922 0.603922 0.000000
0.003922 0.596078 0.000000
0.003922 0.584314 0.000000
0.027451 0.572549 0.000000
0.113725 0.556863 0.000000
0.188235 0.545098 0.000000
0.266667 0.529412 0.000000
0.341176 0.517647 0.000000
0.411765 0.513725 0.000000
0.486275 0.501961 0.000000
0.556863 0.482353 0.000000
0.643137 0.470588 0.000000
0.709804 0.462745 0.000000
0.776471 0.450980 0.000000
0.854902 0.439216 0.000000
0.933333 0.431373 0.000000
1.000000 0.415686 0.000000
1.000000 0.403922 0.000000
1.000000 0.396078 0.000000
1.000000 0.372549 0.000000
1.000000 0.360784 0.000000
1.000000 0.349020 0.000000
1.000000 0.341176 0.000000
1.000000 0.345098 0.000000
1.000000 0.349020 0.000000
1.000000 0.349020 0.000000
1.000000 0.352941 0.000000
1.000000 0.352941 0.000000
1.000000 0.352941 0.000000
0.011765 0.686275 0.000000
0.011765 0.686275 0.000000
0.011765 0.682353 0.000000
0.011765 0.670588 0.000000
0.011765 0.670588 0.000000
0.007843 0.654902 0.000000
0.007843 0.650980 0.000000
0.007843 0.639216 0.000000
0.098039 0.615686 0.000000
0.172549 0.603922 0.000000
0.250980 0.600000 0.000000
0.309804 0.584314 0.000000
0.388235 0.572549 0.000000
0.458824 0.560784 0.000000
0.537255 0.545098 0.000000
0.615686 0.533333 0.000000
0.682353 0.521569 0.000000
0.756863 0.517647 0.000000
0.831373 0.498039 0.000000
0.905882 0.486275 0.000000
0.984314 0.470588 0.000000
1.000000 0.458824 0.000000
1.000000 0.443137 0.000000
1.000000 0.427451 0.000000
1.000000 0.419608 0.000000
1.000000 0.403922 0.000000
1.000000 0.396078 0.000000
1.000000 0.384314 0.000000
1.000000 0.376471 0.000000
1.000000 0.376471 0.000000
1.000000 0.376471 0.000000
1.000000 0.380392 0.000000
1.000000 0.380392 0.000000
0.015686 0.749020 0.000000
0.015686 0.749020 0.000000
0.015686 0.745098 0.000000
0.015686 0.737255 0.000000
0.015686 0.729412 0.000000
0.015686 0.721569 0.000000
0.015686 0.709804 0.000000
0.011765 0.698039 0.000000
0.062745 0.686275 0.000000
0.156863 0.666667 0.000000
0.227451 0.654902 0.000000
0.290196 0.650980 0.000000
0.368627 0.635294 0.000000
0.443137 0.623529 0.000000
0.513725 0.607843 0.000000
0.592157 0.596078 0.000000
0.662745 0.588235 0.000000
0.729412 0.576471 0.000000
0.807843 0.560784 0.000000
0.886275 0.541176 0.000000
0.964706 0.529412 0.000000
1.000000 0.513725 0.000000
1.000000 0.501961 0.000000
1.000000 0.478431 0.000000
1.000000 0.466667 0.000000
1.000000 0.450980 0.000000
1.000000 0.447059 0.000000
1.000000 0.439216 0.000000
1.000000 0.431373 0.000000
1.000000 0.427451 0.000000
1.000000 0.423529 0.000000
1.000000 0.423529 0.000000
1.000000 0.427451 0.000000
0.019608 0.803922 0.000000
0.019608 0.803922 0.000000
0.019608 0.796078 0.000000
0.019608 0.796078 0.000000
0.019608 0.784314 0.000000
0.019608 0.780392 0.000000
0.019608 0.760784 0.000000
0.019608 0.752941 0.000000
0.054902 0.737255 0.000000
0.133333 0.725490 0.000000
0.207843 0.713725 0.000000
0.282353 0.701961 0.000000
0.356863 0.686275 0.000000
0.427451 0.686275 0.000000
0.498039 0.666667 0.000000
0.568627 0.654902 0.000000
0.635294 0.643137 0.000000
0.698039 0.627451 0.000000
0.780392 0.607843 0.000000
0.862745 0.596078 0.000000
0.937255 0.576471 0.000000
0.996078 0.560784 0.000000
1.000000 0.541176 0.000000
1.000000 0.525490 0.000000
1.000000 0.509804 0.000000
1.000000 0.498039 0.000000
1.000000 0.494118 0.000000
1.000000 0.486275 0.000000
1.000000 0.482353 0.000000
1.000000 0.482353 0.000000
1.000000 0.474510 0.000000
1.000000 0.474510 0.000000
1.000000 0.474510 0.000000
0.019608 0.854902 0.000000
0.019608 0.854902 0.000000
0.019608 0.854902 0.000000
0.019608 0.843137 0.000000
0.019608 0.835294 0.000000
0.019608 0.827451 0.000000
0.019608 0.823529 0.000000
0.019608 0.807843 0.000000
0.047059 0.788235 0.000000
0.121569 0.776471 0.000000
0.196078 0.764706 0.000000
0.266667 0.760784 0.000000
0.333333 0.745098 0.000000
0.411765 0.729412 0.000000
0.486275 0.713725 0.000000
0.560784 0.698039 0.000000
0.619608 0.678431 0.000000
0.686275 0.674510 0.000000
0.772549 0.654902 0.000000
0.843137 0.631373 0.000000
0.917647 0.615686 0.000000
0.984314 0.603922 0.000000
1.000000 0.584314 0.000000
1.000000 0.572549 0.000000
1.000000 0.560784 0.000000
1.000000 0.545098 0.000000
1.000000 0.541176 0.000000
1.000000 0.533333 0.000000
1.000000 0.525490 0.000000
1.000000 0.517647 0.000000
1.000000 0.517647 0.000000
1.000000 0.517647 0.000000
1.000000 0.509804 0.000000
0.019608 0.913725 0.000000
0.019608 0.913725 0.000000
0.019608 0.917647 0.000000
0.019608 0.909804 0.000000
0.019608 0.901961 0.000000
0.019608 0.890196 0.000000
0.019608 0.878431 0.000000
0.019608 0.866667 0.000000
0.019608 0.850980 0.000000
0.098039 0.839216 0.000000
0.176471 0.827451 0.000000
0.239216 0.819608 0.000000
0.313725 0.803922 0.000000
0.392157 0.784314 0.000000
0.466667 0.768627 0.000000
0.541176 0.749020 0.000000
0.603922 0.737255 0.000000
0.662745 0.721569 0.000000
0.741176 0.701961 0.000000
0.819608 0.686275 0.000000
0.898039 0.666667 0.000000
0.960784 0.654902 0.000000
1.000000 0.643137 0.000000
1.000000 0.619608 0.000000
1.000000 0.611765 0.000000
1.000000 0.600000 0.000000
1.000000 0.592157 0.000000
1.000000 0.580392 0.000000
1.000000 0.572549 0.000000
1.000000 0.572549 0.000000
1.000000 0.564706 0.000000
1.000000 0.564706 0.000000
1.000000 0.564706 0.000000
0.019608 0.972549 0.000000
0.019608 0.972549 0.000000
0.019608 0.976471 0.000000
0.019608 0.968627 0.000000
0.019608 0.960784 0.000000
0.019608 0.949020 0.000000
0.019608 0.941176 0.000000
0.019608 0.933333 0.000000
0.019608 0.921569 0.000000
0.074510 0.901961 0.000000
0.152941 0.886275 0.000000
0.215686 0.874510 0.000000
0.286275 0.850980 0.000000
0.368627 0.839216 0.000000
0.447059 0.819608 0.000000
0.521569 0.803922 0.000000
0.580392 0.784314 0.000000
0.643137 0.772549 0.000000
0.721569 0.756863 0.000000
0.796078 0.737255 0.000000
0.874510 0.721569 0.000000
0.937255 0.709804 0.000000
0.996078 0.690196 0.000000
1.000000 0.674510 0.000000
1.000000 0.662745 0.000000
1.000000 0.647059 0.000000
1.000000 0.647059 0.000000
1.000000 0.639216 0.000000
1.000000 0.631373 0.000000
1.000000 0.623529 0.000000
1.000000 0.623529 0.000000
1.000000 0.623529 0.000000
1.000000 0.623529 0.000000
0.019608 1.000000 0.000000
0.019608 1.000000 0.000000
0.019608 1.000000 0.000000
0.019608 1.000000 0.000000
0.019608 1.000000 0.000000
0.019608 1.000000 0.000000
0.019608 1.000000 0.000000
0.019608 0.992157 0.000000
0.019608 0.976471 0.000000
0.054902 0.956863 0.000000
0.113725 0.941176 0.000000
0.192157 0.929412 0.000000
0.270588 0.909804 0.000000
0.345098 0.890196 0.000000
0.423529 0.874510 0.000000
0.494118 0.850980 0.000000
0.556863 0.839216 0.000000
0.623529 0.827451 0.000000
0.698039 0.807843 0.000000
0.772549 0.792157 0.000000
0.839216 0.780392 0.000000
0.909804 0.756863 0.000000
0.972549 0.745098 0.000000
1.000000 0.729412 0.000000
1.000000 0.721569 0.000000
1.000000 0.705882 0.000000
1.000000 0.698039 0.000000
1.000000 0.686275 0.000000
1.000000 0.678431 0.000000
1.000000 0.678431 0.000000
1.000000 0.670588 0.000000
1.000000 0.674510 0.000000
1.000000 0.674510 0.000000
0.019608 1.000000 0.000000
0.019608 1.000000 0.000000
0.019608 1.000000 0.000000
0.019608 1.000000 0.000000
0.019608 1.000000 0.000000
0.019608 1.000000 0.000000
0.019608 1.000000 0.000000
0.019608 1.000000 0.000000
0.019608 1.000000 0.000000
0.031373 1.000000 0.000000
0.101961 0.988235 0.000000
0.180392 0.968627 0.000000
0.243137 0.956863 0.000000
0.317647 0.941176 0.000000
0.396078 0.921569 0.000000
0.474510 0.909804 0.000000
0.537255 0.890196 0.000000
0.596078 0.874510 0.000000
0.670588 0.858824 0.000000
0.749020 0.839216 0.000000
0.823529 0.819608 0.000000
0.882353 0.803922 0.000000
0.964706 0.792157 0.000000
1.000000 0.780392 0.000000
1.000000 0.768627 0.000000
1.000000 0.752941 0.000000
1.000000 0.737255 0.000000
1.000000 0.737255 0.000000
1.000000 0.729412 0.000000
1.000000 0.725490 0.000000
1.000000 0.721569 0.000000
1.000000 0.725490 0.000000
1.000000 0.717647 0.000000
0.019608 1.000000 0.000000
0.019608 1.000000 0.000000
0.019608 1.000000 0.000000
0.019608 1.000000 0.000000
0.019608 1.000000 0.000000
0.019608 1.000000 0.000000
0.019608 1.000000 0.000000
0.019608 1.000000 0.000000
0.019608 1.000000 0.000000
0.019608 1.000000 0.000000
0.074510 1.000000 0.000000
0.152941 1.000000 0.000000
0.227451 1.000000 0.000000
0.309804 0.988235 0.000000
0.372549 0.976471 0.000000
0.447059 0.956863 0.000000
0.521569 0.933333 0.000000
0.580392 0.917647 0.000000
0.643137 0.905882 0.000000
0.721569 0.886275 0.000000
0.800000 0.874510 0.000000
0.858824 0.858824 0.000000
0.937255 0.839216 0.000000
1.000000 0.827451 0.000000
1.000000 0.811765 0.000000
1.000000 0.800000 0.000000
1.000000 0.788235 0.000000
1.000000 0.784314 0.000000
1.000000 0.780392 0.000000
1.000000 0.780392 0.000000
1.000000 0.772549 0.000000
1.000000 0.772549 0.000000
1.000000 0.772549 0.000000
0.019608 1.000000 0.000000
0.019608 1.000000 0.000000
0.019608 1.000000 0.000000
0.019608 1.000000 0.000000
0.019608 1.000000 0.000000
0.019608 1.000000 0.000000
0.019608 1.000000 0.000000
0.019608 1.000000 0.000000
0.019608 1.000000 0.000000
0.019608 1.000000 0.000000
0.047059 1.000000 0.000000
0.125490 1.000000 0.000000
0.203922 1.000000 0.000000
0.282353 1.000000 0.000000
0.356863 1.000000 0.000000
0.435294 1.000000 0.000000
0.494118 0.980392 0.000000
0.552941 0.964706 0.000000
0.635294 0.952941 0.000000
0.709804 0.933333 0.000000
0.772549 0.921569 0.000000
0.850980 0.905882 0.000000
0.909804 0.886275 0.000000
0.984314 0.870588 0.000000
1.000000 0.862745 0.000000
1.000000 0.847059 0.000000
1.000000 0.839216 0.000000
1.000000 0.831373 0.000000
1.000000 0.823529 0.000000
1.000000 0.819608 0.000000
1.000000 0.815686 0.000000
1.000000 0.819608 0.000000
1.000000 0.819608 0.000000
0.019608 1.000000 0.000000
0.019608 1.000000 0.000000
0.019608 1.000000 0.000000
0.019608 1.000000 0.000000
0.019608 1.000000 0.000000
0.019608 1.000000 0.000000
0.019608 1.000000 0.000000
0.019608 1.000000 0.000000
0.019608 1.000000 0.000000
0.019608 1.000000 0.000000
0.035294 1.000000 0.000000
0.109804 1.000000 0.000000
0.184314 1.000000 0.000000
0.262745 1.000000 0.000000
0.337255 1.000000 0.000000
0.415686 1.000000 0.000000
0.478431 1.000000 0.000000
0.537255 1.000000 0.000000
0.615686 0.988235 0.000000
0.690196 0.972549 0.000000
0.752941 0.960784 0.000000
0.831373 0.941176 0.000000
0.894118 0.929412 0.000000
0.972549 0.909804 0.000000
1.000000 0.901961 0.000000
1.000000 0.886275 0.000000
1.000000 0.878431 0.000000
1.000000 0.870588 0.000000
1.000000 0.858824 0.000000
1.000000 0.858824 0.000000
1.000000 0.850980 0.000000
1.000000 0.858824 0.000000
1.000000 0.858824 0.000000
0.019608 1.000000 0.000000
0.019608 1.000000 0.000000
0.019608 1.000000 0.000000
0.019608 1.000000 0.000000
0.019608 1.000000 0.000000
0.019608 1.000000 0.000000
0.019608 1.000000 0.000000
0.019608 1.000000 0.000000
0.019608 1.000000 0.000000
0.019608 1.000000 0.000000
0.031373 1.000000 0.000000
0.090196 1.000000 0.000000
0.168627 1.000000 0.000000
0.243137 1.000000 0.000000
0.317647 1.000000 0.000000
0.400000 1.000000 0.000000
0.458824 1.000000 0.000000
0.521569 1.000000 0.000000
0.596078 1.000000 0.000000
0.670588 1.000000 0.000000
0.749020 0.992157 0.000000
0.815686 0.984314 0.000000
0.874510 0.968627 0.000000
0.952941 0.949020 0.000000
0.996078 0.937255 0.000000
1.000000 0.921569 0.000000
1.000000 0.913725 0.000000
1.000000 0.905882 0.000000
1.000000 0.898039 0.000000
1.000000 0.898039 0.000000
1.000000 0.890196 0.000000
1.000000 0.894118 0.000000
1.000000 0.886275 0.000000
0.019608 1.000000 0.000000
0.019608 1.000000 0.000000
0.019608 1.000000 0.000000
0.019608 1.000000 0.000000
0.019608 1.000000 0.000000
0.019608 1.000000 0.000000
0.019608 1.000000 0.000000
0.019608 1.000000 0.000000
0.019608 1.000000 0.000000
0.019608 1.000000 0.000000
0.019608 1.000000 0.000000
0.078431 1.000000 0.000000
