supercar-experience/09-campaign-ads/_grade/luts/AK_Golden_Vlog.cube
# AK_Golden_Vlog
# Warm, sunlit lifestyle look. Warms midtones and highlights, keeps shadows slightly cool so the warmth reads as sunlight rather than an orange cast.
# Best for: Golden hour, cafes, interiors, anything you want to feel inviting.
# Apply AFTER a D-Log M -> Rec.709 conversion, not instead of one.
TITLE "AK_Golden_Vlog"
LUT_3D_SIZE 33
DOMAIN_MIN 0.0 0.0 0.0
DOMAIN_MAX 1.0 1.0 1.0
0.010000 0.010066 0.040477
0.020935 0.010000 0.039365
0.050798 0.010000 0.037853
0.083753 0.010000 0.036175
0.118820 0.010000 0.035268
0.155479 0.010000 0.034418
0.193400 0.010000 0.033729
0.232350 0.010000 0.033151
0.272155 0.010000 0.032663
0.312678 0.010000 0.032254
0.353808 0.010000 0.031922
0.395451 0.010000 0.031667
0.437527 0.010000 0.031490
0.479970 0.010000 0.031394
0.522475 0.010000 0.031380
0.562528 0.010158 0.031577
0.598128 0.010657 0.032139
0.632257 0.011209 0.032828
0.664943 0.011809 0.033634
0.696210 0.012453 0.034549
0.726081 0.013135 0.035562
0.754572 0.013851 0.036664
0.781692 0.014594 0.037844
0.809442 0.015422 0.039145
0.852717 0.016857 0.041037
0.878212 0.017792 0.042508
0.893589 0.018390 0.043694
0.903049 0.018773 0.044683
0.906692 0.018922 0.044916
0.906692 0.018922 0.044916
0.906692 0.018922 0.044916
0.906692 0.018922 0.044916
0.906692 0.018922 0.044916
0.010000 0.029299 0.036942
0.018599 0.028444 0.035822
0.048526 0.027317 0.034399
0.081590 0.026109 0.033520
0.116775 0.024871 0.032824
0.153557 0.023630 0.032187
0.191606 0.022404 0.031596
0.230689 0.021208 0.031058
0.270631 0.020053 0.030577
0.311294 0.018948 0.030160
0.352567 0.017902 0.029813
0.394356 0.016922 0.029540
0.436582 0.016014 0.029347
0.479176 0.015185 0.029238
0.521834 0.014443 0.029217
0.562106 0.013954 0.029415
0.597863 0.013871 0.029961
0.632104 0.013494 0.030205
0.664881 0.013274 0.030586
0.696223 0.013203 0.031096
0.726154 0.013273 0.031725
0.754713 0.013849 0.033155
0.781902 0.014595 0.034773
0.810070 0.015436 0.036385
0.853173 0.016867 0.038448
0.878537 0.017798 0.039966
0.893818 0.018393 0.041093
0.903198 0.018771 0.041941
0.906670 0.018915 0.042518
0.906673 0.018916 0.042848
0.906675 0.018916 0.043069
0.906675 0.018916 0.043069
0.906675 0.018916 0.043069
0.010000 0.054226 0.032374
0.015616 0.053401 0.031218
0.045497 0.052292 0.029711
0.078641 0.047743 0.028134
0.113910 0.044513 0.026520
0.150780 0.041982 0.024888
0.188916 0.039566 0.023261
0.228087 0.037181 0.021656
0.268116 0.034820 0.020086
0.308865 0.032491 0.018562
0.350222 0.030205 0.017094
0.392093 0.027970 0.015690
0.434398 0.025797 0.014358
0.477070 0.023694 0.013104
0.519802 0.021678 0.011942
0.560383 0.019918 0.011028
0.596252 0.018653 0.010649
0.630612 0.017696 0.011206
0.663494 0.016898 0.011805
0.694927 0.016251 0.012442
0.724936 0.015748 0.013113
0.753540 0.015380 0.013812
0.780751 0.015139 0.014537
0.807704 0.015322 0.015588
0.851747 0.016769 0.017806
0.877623 0.017711 0.019429
0.893191 0.018313 0.020629
0.902736 0.018696 0.021530
0.906487 0.018850 0.022190
0.906490 0.018852 0.022516
0.906492 0.018852 0.022736
0.906492 0.018852 0.022736
0.906492 0.018852 0.022736
0.010000 0.081838 0.027443
0.012446 0.081051 0.026250
0.042227 0.079974 0.024739
0.075677 0.078752 0.023119
0.110697 0.072994 0.021580
0.147647 0.067721 0.020045
0.185868 0.063953 0.018519
0.225126 0.060938 0.017018
0.265245 0.058270 0.015555
0.306086 0.055783 0.014141
0.347538 0.053412 0.012785
0.389505 0.051130 0.011496
0.431909 0.048929 0.010280
0.474680 0.046946 0.010000
0.517513 0.045088 0.010000
0.558491 0.043441 0.010125
0.594670 0.042266 0.010701
0.629329 0.041260 0.011320
0.662500 0.040413 0.011980
0.694213 0.039719 0.012675
0.724491 0.039169 0.013404
0.753354 0.038754 0.014160
0.780815 0.038468 0.014939
0.806877 0.038299 0.015736
0.851901 0.038909 0.017272
0.878461 0.039117 0.018265
0.894395 0.039074 0.018890
0.904133 0.038897 0.019281
0.908162 0.038469 0.019437
0.908133 0.038136 0.019427
0.908114 0.037913 0.019420
0.908114 0.037913 0.019420
0.908114 0.037913 0.019420
0.010000 0.111335 0.022338
0.010000 0.110587 0.021106
0.038889 0.109542 0.019601
0.071923 0.108347 0.018013
0.107272 0.106237 0.016316
0.144310 0.100534 0.014885
0.182622 0.094260 0.013467
0.221973 0.089209 0.012077
0.262189 0.085223 0.010728
0.303129 0.081980 0.010000
0.344681 0.079260 0.010000
0.386752 0.076832 0.010000
0.429261 0.074598 0.010000
0.472139 0.072507 0.010000
0.515080 0.070541 0.010000
0.556456 0.068786 0.010106
0.592967 0.067521 0.010750
0.627946 0.066437 0.011435
0.661428 0.065521 0.012160
0.693440 0.064764 0.012919
0.724006 0.064155 0.013708
0.753147 0.063685 0.014525
0.780874 0.063345 0.015363
0.807191 0.063127 0.016217
0.852113 0.063652 0.017832
0.879496 0.063829 0.018908
0.895899 0.063759 0.019585
0.905910 0.063556 0.020007
0.910299 0.063070 0.020185
0.910270 0.062740 0.020175
0.910251 0.062518 0.020168
0.910251 0.062518 0.020168
0.910251 0.062518 0.020168
0.010000 0.142299 0.017163
0.010000 0.141593 0.015889
0.035561 0.140578 0.014400
0.068500 0.139411 0.012845
0.103749 0.138163 0.011182
0.140817 0.135412 0.010000
0.179224 0.129589 0.010000
0.218674 0.122893 0.010000
0.258991 0.117047 0.010000
0.300035 0.112317 0.010000
0.341694 0.108475 0.010000
0.383873 0.105259 0.010000
0.426492 0.102474 0.010000
0.469483 0.099993 0.010000
0.512537 0.097747 0.010000
0.554305 0.095764 0.010079
0.591167 0.094315 0.010794
0.626486 0.093084 0.011550
0.660295 0.092047 0.012343
0.692622 0.091185 0.013169
0.723492 0.090486 0.014024
0.752925 0.089936 0.014903
0.780933 0.089523 0.015803
0.807519 0.089238 0.016717
0.852296 0.089664 0.018413
0.880561 0.089799 0.019580
0.897466 0.089693 0.020311
0.907770 0.089458 0.020767
0.912543 0.088910 0.020970
0.912515 0.088581 0.020960
0.912496 0.088361 0.020953
0.912496 0.088361 0.020953
0.912496 0.088361 0.020953
0.010000 0.174469 0.011985
0.010000 0.173808 0.010669
0.032293 0.172819 0.010000
0.065135 0.171681 0.010000
0.100279 0.170465 0.010000
0.137241 0.169186 0.010000
0.175705 0.165824 0.010000
0.215258 0.159879 0.010000
0.255680 0.152980 0.010000
0.296833 0.146608 0.010000
0.338602 0.141213 0.010000
0.380894 0.136733 0.010000
0.423629 0.132978 0.010000
0.466737 0.129766 0.010000
0.509909 0.126974 0.010000
0.552054 0.124563 0.010042
0.589288 0.122775 0.010834
0.624964 0.121276 0.011664
0.659115 0.120023 0.012529
0.691772 0.118984 0.013425
0.722960 0.118136 0.014349
0.752697 0.117458 0.015295
0.780998 0.116934 0.016259
0.807864 0.116551 0.017235
0.852450 0.116850 0.019012
0.881655 0.116921 0.020276
0.899092 0.116761 0.021066
0.909703 0.116480 0.021558
0.914884 0.115861 0.021790
0.914856 0.115533 0.021780
0.914837 0.115313 0.021773
0.914837 0.115313 0.021773
0.914837 0.115313 0.021773
0.010000 0.207665 0.010000
0.010000 0.207050 0.010000
0.029127 0.206084 0.010000
0.061867 0.204976 0.010000
0.096903 0.203792 0.010000
0.133751 0.202547 0.010000
0.172111 0.201254 0.010000
0.211746 0.197262 0.010000
0.252277 0.191228 0.010000
0.293542 0.184219 0.010000
0.335426 0.177488 0.010000
0.377835 0.171564 0.010000
0.420689 0.166514 0.010000
0.463917 0.162230 0.010000
0.507212 0.158584 0.010000
0.549686 0.155493 0.010000
0.587341 0.153153 0.010869
0.623391 0.151217 0.011779
0.657902 0.149611 0.012720
0.690903 0.148284 0.013689
0.722420 0.147196 0.014684
0.752475 0.146317 0.015699
0.781078 0.145621 0.016730
0.808235 0.145090 0.017771
0.852582 0.145220 0.019628
0.882779 0.145192 0.020996
0.900776 0.144948 0.021849
0.911711 0.144596 0.022379
0.917319 0.143891 0.022642
0.917291 0.143561 0.022632
0.917271 0.143341 0.022625
0.917271 0.143341 0.022625
0.917271 0.143341 0.022625
0.010000 0.241753 0.010000
0.010000 0.241184 0.010000
0.026094 0.240238 0.010000
0.058730 0.239161 0.010000
0.093654 0.238009 0.010000
0.130385 0.236800 0.010000
0.168623 0.235542 0.010000
0.209025 0.234243 0.010000
0.248796 0.229608 0.010000
0.290176 0.223510 0.010000
0.332178 0.216445 0.010000
0.374708 0.209475 0.010000
0.417684 0.203145 0.010000
0.461037 0.197612 0.010000
0.504458 0.192866 0.010000
0.547057 0.188865 0.010000
0.585333 0.185731 0.010899
0.621779 0.183159 0.011893
0.656665 0.181033 0.012915
0.690025 0.179277 0.013962
0.721886 0.177832 0.015031
0.752268 0.176652 0.016118
0.781185 0.175702 0.017219
0.808641 0.174952 0.018327
0.852699 0.174853 0.020261
0.883940 0.174674 0.021741
0.902525 0.174305 0.022662
0.913797 0.173847 0.023231
0.919850 0.173028 0.023528
0.919821 0.172696 0.023517
0.919802 0.172474 0.023511
0.919802 0.172474 0.023511
0.919802 0.172474 0.023511
0.010000 0.276627 0.010000
0.010000 0.276106 0.010000
0.023221 0.275176 0.010000
0.055750 0.274130 0.010000
0.090560 0.273013 0.010000
0.127171 0.271839 0.010000
0.165284 0.270618 0.010000
0.204692 0.269358 0.010000
0.246480 0.268063 0.010000
0.286748 0.262773 0.010000
0.328871 0.256627 0.010000
0.371524 0.249543 0.010000
0.414626 0.242419 0.010000
0.458107 0.235786 0.010000
0.501657 0.229888 0.010000
0.544384 0.224830 0.010000
0.583272 0.220723 0.010923
0.620135 0.217331 0.012008
0.655416 0.214512 0.013116
0.689150 0.212172 0.014245
0.721367 0.210234 0.015392
0.752089 0.208637 0.016555
0.781331 0.207331 0.017727
0.809096 0.206276 0.018905
0.852810 0.205873 0.020915
0.885148 0.205477 0.022514
0.904347 0.204928 0.023506
0.915969 0.204318 0.024117
0.922484 0.203345 0.024449
0.922454 0.203010 0.024439
0.922435 0.202785 0.024432
0.922435 0.202785 0.024432
0.922435 0.202785 0.024432
0.010000 0.312206 0.010000
0.010000 0.311727 0.010000
0.020532 0.310813 0.010000
0.052952 0.309800 0.010000
0.087646 0.308718 0.010000
0.124134 0.307580 0.010000
0.162119 0.306398 0.010000
0.201394 0.305177 0.010000
0.241810 0.303922 0.010000
0.284906 0.302637 0.010000
0.325513 0.296683 0.010000
0.368292 0.290504 0.010000
0.411523 0.283424 0.010000
0.455135 0.276206 0.010000
0.498817 0.269391 0.010000
0.541674 0.263320 0.010000
0.581159 0.258180 0.010939
0.618462 0.253851 0.012123
0.654158 0.250203 0.013323
0.688284 0.247141 0.014539
0.720873 0.244578 0.015769
0.751948 0.242442 0.017010
0.781526 0.240671 0.018258
0.809610 0.239214 0.019507
0.852927 0.238421 0.021591
0.886414 0.237733 0.023318
0.906252 0.236938 0.024384
0.918266 0.236098 0.025040
0.925228 0.234941 0.025410
0.925199 0.234601 0.025399
0.925179 0.234373 0.025393
0.925179 0.234373 0.025393
0.925179 0.234373 0.025393
0.010000 0.348419 0.010000
0.010000 0.347966 0.010000
0.018048 0.347082 0.010000
0.050357 0.346102 0.010000
0.084931 0.345055 0.010000
0.121294 0.343955 0.010000
0.159148 0.342811 0.010000
0.198289 0.341630 0.010000
0.238567 0.340417 0.010000
0.279864 0.339174 0.010000
0.324206 0.337906 0.010000
0.365019 0.331278 0.010000
0.408381 0.325079 0.010000
0.452127 0.318018 0.010000
0.495944 0.310792 0.010000
0.538935 0.303988 0.010000
0.578994 0.297933 0.010947
0.616762 0.292672 0.012236
0.652894 0.288138 0.013535
0.687432 0.284266 0.014844
0.720410 0.280976 0.016161
0.751853 0.278195 0.017485
0.781778 0.275857 0.018812
0.810192 0.273903 0.020137
0.853057 0.272632 0.022291
0.887748 0.271570 0.024156
0.908252 0.270458 0.025301
0.920681 0.269318 0.026004
0.928093 0.267923 0.026413
0.928063 0.267577 0.026402
0.928043 0.267344 0.026395
0.928043 0.267344 0.026395
0.928043 0.267344 0.026395
0.010000 0.385210 0.010000
0.010000 0.384778 0.010000
0.015787 0.383924 0.010000
0.047982 0.382978 0.010000
0.082435 0.381967 0.010000
0.118671 0.380904 0.010000
0.156393 0.379800 0.010000
0.195397 0.378660 0.010000
0.235532 0.377489 0.010000
0.276685 0.376289 0.010000
0.318761 0.375065 0.010000
0.364299 0.373818 0.010000
0.405208 0.366510 0.010000
0.449090 0.360299 0.010000
0.493044 0.353310 0.010000
0.536171 0.346247 0.010000
0.576777 0.339582 0.010944
0.615032 0.333546 0.012346
0.651624 0.328187 0.013750
0.686594 0.323499 0.015158
0.719979 0.319439 0.016569
0.751806 0.315949 0.017981
0.782094 0.312967 0.019391
0.810850 0.310436 0.020795
0.853207 0.308609 0.023017
0.889157 0.307097 0.025029
0.910355 0.305598 0.026259
0.923212 0.304097 0.027011
0.931087 0.302393 0.027461
0.931056 0.302039 0.027450
0.931036 0.301802 0.027443
0.931036 0.301802 0.027443
0.931036 0.301802 0.027443
0.010000 0.422528 0.010000
0.010000 0.422112 0.010000
0.013766 0.421289 0.010000
0.045846 0.420377 0.010000
0.080176 0.419403 0.010000
0.116282 0.418379 0.010000
0.153869 0.417315 0.010000
0.192734 0.416216 0.010000
0.232726 0.415087 0.010000
0.273731 0.413932 0.010000
0.315657 0.412752 0.010000
0.359791 0.411551 0.010000
0.405121 0.410329 0.010000
0.446029 0.402334 0.010000
0.490123 0.396160 0.010000
0.533388 0.389390 0.010000
0.575733 0.382521 0.010000
0.613267 0.376047 0.012449
0.650340 0.370050 0.013966
0.685764 0.364646 0.015480
0.719577 0.359853 0.016990
0.751806 0.355649 0.018496
0.782473 0.351993 0.019995
0.811586 0.348838 0.021482
0.853378 0.346401 0.023768
0.890647 0.344377 0.025939
0.912567 0.342432 0.027259
0.925863 0.340515 0.028064
0.934203 0.338434 0.028555
0.934186 0.338069 0.028545
0.934165 0.337826 0.028538
0.934165 0.337826 0.028538
0.934165 0.337826 0.028538
0.010000 0.460331 0.010000
0.010000 0.459926 0.010000
0.012001 0.459134 0.010000
0.043965 0.458257 0.010000
0.078170 0.457320 0.010000
0.114144 0.456335 0.010000
0.151594 0.455312 0.010000
0.190317 0.454256 0.010000
0.230163 0.453170 0.010000
0.271019 0.452059 0.010000
0.312793 0.450925 0.010000
0.355410 0.449770 0.010000
0.400535 0.448595 0.010000
0.446616 0.447404 0.010000
0.487184 0.438748 0.010000
0.530589 0.432747 0.010000
0.573073 0.426217 0.010000
0.614618 0.419561 0.010000
0.655200 0.413073 0.010000
0.684935 0.407377 0.015804
0.719195 0.401979 0.017421
0.751847 0.397131 0.019027
0.782911 0.392830 0.020619
0.812397 0.389049 0.022195
0.853568 0.385983 0.024543
0.892217 0.383413 0.026885
0.914890 0.380982 0.028302
0.928638 0.378610 0.029162
0.937187 0.376168 0.029682
0.937456 0.375709 0.029689
0.937434 0.375462 0.029682
0.937434 0.375462 0.029682
0.937434 0.375462 0.029682
0.010000 0.498346 0.010000
0.010000 0.497944 0.010000
0.010515 0.497185 0.010000
0.042361 0.496343 0.010000
0.076440 0.495443 0.010000
0.112281 0.494498 0.010000
0.149593 0.493516 0.010000
0.188174 0.492502 0.010000
0.227874 0.491460 0.010000
0.268579 0.490394 0.010000
0.310199 0.489305 0.010000
0.352659 0.488197 0.010000
0.395896 0.487070 0.010000
0.441997 0.485927 0.010000
0.484774 0.481050 0.010000
0.527796 0.475562 0.010000
0.570420 0.469758 0.010000
0.612102 0.463474 0.010000
0.652820 0.457046 0.010000
0.692547 0.450730 0.010000
0.718826 0.445198 0.017853
0.751918 0.439854 0.019565
0.783395 0.435004 0.021257
0.813270 0.430656 0.022927
0.853766 0.426991 0.025332
0.893851 0.423879 0.027858
0.917306 0.420954 0.029379
0.931518 0.418115 0.030299
0.940281 0.415294 0.030849
0.940844 0.414713 0.030875
0.940822 0.414460 0.030868
0.940822 0.414460 0.030868
0.940822 0.414460 0.030868
0.010000 0.535862 0.010000
0.010000 0.535460 0.010000
0.010000 0.534732 0.010000
0.041064 0.533925 0.010000
0.075018 0.533062 0.010000
0.110728 0.532156 0.010000
0.147904 0.531214 0.010000
0.186343 0.530242 0.010000
0.225898 0.529244 0.010000
0.266455 0.528222 0.010000
0.307922 0.527179 0.010000
0.350227 0.526117 0.010000
0.393306 0.525037 0.010000
0.437109 0.523942 0.010000
0.483936 0.522838 0.010000
0.525061 0.516883 0.010000
0.567824 0.512000 0.010000
0.609642 0.506388 0.010000
0.650494 0.500346 0.010000
0.690353 0.494153 0.010000
0.729184 0.488034 0.010000
0.766948 0.482148 0.010000
0.783903 0.477444 0.021892
0.814175 0.472647 0.023659
0.853956 0.468469 0.026116
0.895508 0.464867 0.028836
0.919760 0.461482 0.030467
0.934440 0.458201 0.031450
0.943423 0.455013 0.032033
0.944281 0.454284 0.032078
0.944259 0.454027 0.032070
0.944259 0.454027 0.032070
0.944259 0.454027 0.032070
0.010000 0.572820 0.010000
0.010000 0.572412 0.010000
0.010000 0.571714 0.010000
0.040065 0.570941 0.010000
0.073897 0.570115 0.010000
0.109478 0.569248 0.010000
0.146519 0.568347 0.010000
0.184818 0.567416 0.010000
0.224230 0.566460 0.010000
0.264640 0.565482 0.010000
0.305957 0.564484 0.010000
0.348109 0.563468 0.010000
0.391032 0.562434 0.010000
0.434676 0.561386 0.010000
0.480378 0.560330 0.010000
0.525412 0.559287 0.010000
0.565287 0.552779 0.010000
0.607241 0.547992 0.010000
0.648226 0.542570 0.010000
0.688214 0.536764 0.010000
0.727174 0.530812 0.010000
0.765063 0.524909 0.010000
0.801831 0.519200 0.010000
0.815094 0.514655 0.024384
0.854124 0.510086 0.026888
0.897168 0.506081 0.029812
0.922232 0.502300 0.031558
0.937385 0.498630 0.032608
0.946594 0.495112 0.033225
0.947749 0.494215 0.033292
0.947727 0.493955 0.033284
0.947727 0.493955 0.033284
0.947727 0.493955 0.033284
0.010000 0.609199 0.010000
0.010000 0.608779 0.010000
0.010000 0.608111 0.010000
0.039356 0.607372 0.010000
0.073066 0.606582 0.010000
0.108519 0.605753 0.010000
0.145427 0.604891 0.010000
0.183590 0.604002 0.010000
0.222860 0.603088 0.010000
0.263125 0.602153 0.010000
0.304294 0.601199 0.010000
0.346295 0.600228 0.010000
0.389065 0.599241 0.010000
0.432552 0.598239 0.010000
0.476460 0.597230 0.010000
0.521908 0.596234 0.010000
0.566318 0.595254 0.010000
0.604898 0.588198 0.010000
0.646014 0.583516 0.010000
0.686132 0.578282 0.010000
0.725218 0.572709 0.010000
0.763231 0.567001 0.010000
0.800120 0.561329 0.010000
0.835820 0.555825 0.010000
0.880606 0.550585 0.010000
0.898815 0.547248 0.030778
0.924705 0.543159 0.032646
0.940335 0.539178 0.033767
0.949777 0.535388 0.034422
0.951232 0.534312 0.034511
0.951210 0.534049 0.034503
0.951210 0.534049 0.034503
0.951210 0.534049 0.034503
0.010000 0.644973 0.010000
0.010000 0.644536 0.010000
0.010000 0.643899 0.010000
0.038925 0.643193 0.010000
0.072515 0.642439 0.010000
0.107843 0.641647 0.010000
0.144620 0.640825 0.010000
0.182647 0.639976 0.010000
0.221778 0.639104 0.010000
0.261900 0.638211 0.010000
0.302924 0.637301 0.010000
0.344775 0.636374 0.010000
0.387393 0.635432 0.010000
0.430726 0.634476 0.010000
0.474479 0.633514 0.010000
0.517753 0.632564 0.010000
0.562878 0.631629 0.010000
0.606619 0.630709 0.010000
0.643861 0.623114 0.010000
0.684106 0.618546 0.010000
0.723316 0.613499 0.010000
0.761452 0.608157 0.010000
0.798460 0.602697 0.010000
0.834276 0.597269 0.010000
0.877665 0.591995 0.010000
0.932419 0.586967 0.010000
0.927159 0.583807 0.033723
0.943272 0.579608 0.034920
0.952954 0.575619 0.035615
0.954711 0.574363 0.035729
0.954688 0.574099 0.035721
0.954688 0.574099 0.035721
0.954688 0.574099 0.035721
0.010000 0.680116 0.010000
0.010000 0.679658 0.010000
0.010000 0.679050 0.010000
0.038761 0.678377 0.010000
0.072233 0.677658 0.010000
0.107437 0.676903 0.010000
0.144085 0.676119 0.010000
0.181979 0.675310 0.010000
0.220973 0.674479 0.010000
0.260955 0.673628 0.010000
0.301834 0.672761 0.010000
0.343539 0.671878 0.010000
0.386008 0.670980 0.010000
0.429190 0.670070 0.010000
0.472789 0.669153 0.010000
0.515912 0.668248 0.010000
0.558457 0.667358 0.010000
0.603252 0.666482 0.010000
0.646278 0.665622 0.010000
0.682137 0.657497 0.010000
0.721470 0.653051 0.010000
0.759726 0.648193 0.010000
0.796852 0.643083 0.010000
0.832783 0.637875 0.010000
0.874764 0.632705 0.010000
0.930762 0.627685 0.010000
0.964138 0.622907 0.010000
0.984712 0.618307 0.010000
0.956105 0.615579 0.036798
0.958168 0.614154 0.036939
0.958145 0.613890 0.036931
0.958145 0.613890 0.036931
0.958145 0.613890 0.036931
0.010000 0.714558 0.010000
0.010000 0.714111 0.010000
0.010000 0.713533 0.010000
0.038851 0.712892 0.010000
0.072208 0.712208 0.010000
0.107290 0.711489 0.010000
0.143811 0.710743 0.010000
0.181574 0.709972 0.010000
0.220434 0.709182 0.010000
0.260277 0.708372 0.010000
0.301016 0.707547 0.010000
0.342576 0.706707 0.010000
0.384899 0.705853 0.010000
0.427931 0.704988 0.010000
0.471380 0.704116 0.010000
0.514354 0.703256 0.010000
0.556752 0.702409 0.010000
0.600583 0.701576 0.010000
0.642993 0.700759 0.010000
0.685252 0.699957 0.010000
0.719680 0.691315 0.010000
0.758055 0.686999 0.010000
0.795297 0.682332 0.010000
0.831340 0.677455 0.010000
0.871910 0.672507 0.010000
0.929138 0.667611 0.010000
0.963196 0.662873 0.010000
0.984155 0.658281 0.010000
0.996943 0.653949 0.010000
1.000000 0.652321 0.010000
1.000000 0.652055 0.010000
1.000000 0.652055 0.010000
1.000000 0.652055 0.010000
0.010000 0.748284 0.010000
0.010000 0.747859 0.010000
0.010000 0.747310 0.010000
0.039183 0.746701 0.010000
0.072426 0.746050 0.010000
0.107389 0.745367 0.010000
0.143786 0.744658 0.010000
0.181420 0.743926 0.010000
0.220147 0.743175 0.010000
0.259855 0.742406 0.010000
0.300455 0.741622 0.010000
0.341874 0.740824 0.010000
0.384053 0.740014 0.010000
0.426939 0.739192 0.010000
0.470240 0.738364 0.010000
0.513068 0.737547 0.010000
0.555321 0.736744 0.010000
0.596968 0.735954 0.010000
0.640393 0.735178 0.010000
0.682057 0.734417 0.010000
0.723494 0.733672 0.010000
0.756438 0.724528 0.010000
0.793794 0.720349 0.010000
0.829949 0.715878 0.010000
0.869109 0.711241 0.010000
0.927548 0.706564 0.010000
0.962277 0.701962 0.010000
0.983608 0.697473 0.010000
0.996584 0.693201 0.010000
1.000000 0.691450 0.010000
1.000000 0.691186 0.010000
1.000000 0.691186 0.010000
1.000000 0.691186 0.010000
0.010000 0.781260 0.010000
0.010000 0.780858 0.010000
0.010000 0.780336 0.010000
0.039742 0.779758 0.010000
0.072874 0.779140 0.010000
0.107720 0.778493 0.010000
0.143995 0.777820 0.010000
0.181503 0.777125 0.010000
0.220101 0.776413 0.010000
0.259676 0.775684 0.010000
0.300140 0.774941 0.010000
0.341421 0.774184 0.010000
0.383458 0.773416 0.010000
0.426201 0.772637 0.010000
0.469357 0.771852 0.010000
0.512042 0.771079 0.010000
0.554154 0.770317 0.010000
0.595662 0.769569 0.010000
0.636527 0.768834 0.010000
0.679532 0.768114 0.010000
0.720397 0.767408 0.010000
0.760946 0.766718 0.010000
0.792345 0.757088 0.010000
0.828609 0.753058 0.010000
0.866367 0.748790 0.010000
0.925998 0.744402 0.010000
0.961384 0.740012 0.010000
0.983072 0.735710 0.010000
0.996231 0.731572 0.010000
1.000000 0.729732 0.010000
1.000000 0.729470 0.010000
1.000000 0.729470 0.010000
1.000000 0.729470 0.010000
0.010000 0.813434 0.010000
0.010000 0.813052 0.010000
0.010000 0.812558 0.010000
0.040513 0.812010 0.010000
0.073536 0.811425 0.010000
0.108268 0.810812 0.010000
0.144424 0.810174 0.010000
0.181809 0.809517 0.010000
0.220280 0.808842 0.010000
0.259725 0.808152 0.010000
0.300056 0.807448 0.010000
0.341202 0.806732 0.010000
0.383101 0.806005 0.010000
0.425703 0.805268 0.010000
0.468718 0.804526 0.010000
0.511263 0.803794 0.010000
0.553238 0.803074 0.010000
0.594609 0.802367 0.010000
0.635341 0.801672 0.010000
0.675390 0.800991 0.010000
0.717951 0.800324 0.010000
0.757955 0.799672 0.010000
0.797540 0.799037 0.010000
0.827322 0.788941 0.010000
0.863692 0.785069 0.010000
0.924489 0.781016 0.010000
0.960518 0.776893 0.010000
0.982547 0.772845 0.010000
0.995886 0.768899 0.010000
1.000000 0.767007 0.010000
1.000000 0.766748 0.010000
1.000000 0.766748 0.010000
1.000000 0.766748 0.010000
0.010000 0.844738 0.010000
0.010000 0.844376 0.010000
0.010719 0.843909 0.010000
0.041479 0.843391 0.010000
0.074396 0.842838 0.010000
0.109016 0.842257 0.010000
0.145056 0.841655 0.010000
0.182321 0.841033 0.010000
0.220668 0.840395 0.010000
0.259987 0.839743 0.010000
0.300189 0.839078 0.010000
0.341202 0.838402 0.010000
0.382967 0.837715 0.010000
0.425433 0.837019 0.010000
0.468310 0.836318 0.010000
0.510718 0.835627 0.010000
0.552558 0.834947 0.010000
0.593797 0.834279 0.010000
0.634398 0.833624 0.010000
0.674319 0.832981 0.010000
0.716031 0.832352 0.010000
0.755594 0.831737 0.010000
0.794663 0.831138 0.010000
0.830555 0.827917 0.010000
0.861266 0.820018 0.010000
0.923028 0.816319 0.010000
0.959682 0.812497 0.010000
0.982036 0.808748 0.010000
0.995551 0.805041 0.010000
1.000000 0.803132 0.010000
1.000000 0.802876 0.010000
1.000000 0.802876 0.010000
1.000000 0.802876 0.010000
0.010000 0.890129 0.010000
0.010000 0.889479 0.010000
0.011956 0.888634 0.010000
0.042619 0.887691 0.010000
0.075433 0.886677 0.010000
0.109945 0.885606 0.010000
0.145872 0.884484 0.010000
0.183021 0.883318 0.010000
0.221248 0.882110 0.010000
0.260444 0.880865 0.010000
0.300520 0.879585 0.010000
0.341405 0.878270 0.010000
0.383039 0.876923 0.010000
0.425372 0.875546 0.010000
0.468115 0.874146 0.010000
0.510391 0.872752 0.010000
