supercar-experience/09-campaign-ads/_grade/luts/AK_Garage_Dark.cube
# AK_Garage_Dark
# D-Log M rescue measured from real Anti Stock garage footage: dark room, black walls, hard point lights. Bigger shadow stretch than AK_DLogM_Rescue, cool shadows to separate concrete from the warm work lights. Denoise BEFORE this.
# Baked from ffmpeg chain:
# curves=all='0/0 0.05/0.012 0.30/0.30 0.58/0.68 0.82/0.95 1/1',eq=saturation=2.0:contrast=1.06,colorbalance=rs=-.04:bs=.07:rh=.03:bh=-.03
TITLE "AK_Garage_Dark"
LUT_3D_SIZE 9
DOMAIN_MIN 0.0 0.0 0.0
DOMAIN_MAX 1.0 1.0 1.0
0.000000 0.000000 0.047059
0.039216 0.000000 0.047059
0.345098 0.000000 0.019608
0.678431 0.000000 0.000000
0.964706 0.000000 0.000000
1.000000 0.000000 0.000000
1.000000 0.000000 0.000000
1.000000 0.000000 0.000000
1.000000 0.000000 0.000000
0.000000 0.066667 0.047059
0.007843 0.047059 0.047059
0.309804 0.003922 0.027451
0.627451 0.000000 0.000000
0.925490 0.000000 0.000000
1.000000 0.000000 0.000000
1.000000 0.003922 0.000000
1.000000 0.047059 0.000000
1.000000 0.054902 0.000000
0.000000 0.305882 0.031373
0.000000 0.282353 0.035294
0.203922 0.243137 0.043137
0.533333 0.192157 0.000000
0.839216 0.137255 0.000000
1.000000 0.098039 0.000000
1.000000 0.145098 0.000000
1.000000 0.184314 0.000000
1.000000 0.192157 0.000000
0.000000 0.556863 0.000000
0.000000 0.545098 0.000000
0.141176 0.498039 0.000000
0.427451 0.447059 0.003922
0.737255 0.400000 0.000000
1.000000 0.349020 0.000000
1.000000 0.313725 0.000000
1.000000 0.317647 0.000000
1.000000 0.329412 0.000000
0.019608 0.803922 0.000000
0.019608 0.784314 0.000000
0.054902 0.737255 0.000000
0.356863 0.686275 0.000000
0.635294 0.643137 0.000000
0.937255 0.576471 0.000000
1.000000 0.509804 0.000000
1.000000 0.482353 0.000000
1.000000 0.474510 0.000000
0.019608 1.000000 0.000000
0.019608 1.000000 0.000000
0.019608 0.976471 0.000000
0.270588 0.909804 0.000000
0.556863 0.839216 0.000000
0.839216 0.780392 0.000000
1.000000 0.721569 0.000000
1.000000 0.678431 0.000000
1.000000 0.674510 0.000000
0.019608 1.000000 0.000000
0.019608 1.000000 0.000000
0.019608 1.000000 0.000000
0.184314 1.000000 0.000000
0.478431 1.000000 0.000000
0.752941 0.960784 0.000000
1.000000 0.901961 0.000000
1.000000 0.858824 0.000000
1.000000 0.858824 0.000000
0.019608 1.000000 0.000000
0.019608 1.000000 0.000000
0.019608 1.000000 0.000000
0.141176 1.000000 0.000000
0.427451 1.000000 0.000000
0.709804 1.000000 0.000000
0.968627 1.000000 0.000000
1.000000 0.964706 0.000000
1.000000 0.960784 0.000000
0.019608 1.000000 0.000000
0.019608 1.000000 0.000000
0.019608 1.000000 0.000000
0.129412 1.000000 0.000000
0.415686 1.000000 0.000000
0.698039 1.000000 0.000000
0.960784 1.000000 0.000000
1.000000 0.992157 0.000000
1.000000 0.988235 0.000000
0.000000 0.000000 0.125490
0.035294 0.000000 0.113725
0.341176 0.000000 0.043137
0.650980 0.000000 0.000000
0.956863 0.000000 0.000000
1.000000 0.000000 0.000000
1.000000 0.000000 0.000000
1.000000 0.000000 0.000000
1.000000 0.000000 0.000000
0.000000 0.054902 0.101961
0.003922 0.043137 0.074510
0.290196 0.000000 0.031373
0.623529 0.000000 0.000000
0.921569 0.000000 0.000000
1.000000 0.000000 0.000000
1.000000 0.000000 0.000000
1.000000 0.023529 0.000000
1.000000 0.039216 0.000000
0.000000 0.298039 0.031373
0.000000 0.278431 0.035294
0.200000 0.231373 0.043137
0.529412 0.180392 0.000000
0.839216 0.137255 0.000000
1.000000 0.090196 0.000000
1.000000 0.129412 0.000000
1.000000 0.164706 0.000000
1.000000 0.176471 0.000000
0.000000 0.552941 0.000000
0.000000 0.533333 0.000000
0.121569 0.494118 0.000000
0.419608 0.439216 0.003922
0.733333 0.396078 0.000000
1.000000 0.345098 0.000000
1.000000 0.301961 0.000000
1.000000 0.321569 0.000000
1.000000 0.333333 0.000000
0.019608 0.796078 0.000000
0.019608 0.780392 0.000000
0.050980 0.729412 0.000000
0.341176 0.686275 0.000000
0.631373 0.639216 0.000000
0.929412 0.584314 0.000000
1.000000 0.529412 0.000000
1.000000 0.498039 0.000000
1.000000 0.486275 0.000000
0.019608 0.988235 0.000000
0.019608 1.000000 0.000000
0.019608 0.968627 0.000000
0.266667 0.925490 0.000000
0.560784 0.858824 0.000000
0.831373 0.788235 0.000000
1.000000 0.733333 0.000000
1.000000 0.694118 0.000000
1.000000 0.686275 0.000000
0.019608 1.000000 0.000000
0.019608 1.000000 0.000000
0.019608 1.000000 0.000000
0.184314 1.000000 0.000000
0.474510 1.000000 0.000000
0.749020 0.976471 0.000000
1.000000 0.913725 0.000000
1.000000 0.874510 0.000000
1.000000 0.870588 0.000000
0.019608 1.000000 0.000000
0.019608 1.000000 0.000000
0.019608 1.000000 0.000000
0.137255 1.000000 0.000000
0.423529 1.000000 0.000000
0.705882 1.000000 0.000000
0.964706 1.000000 0.000000
1.000000 0.980392 0.000000
1.000000 0.976471 0.000000
0.019608 1.000000 0.000000
0.019608 1.000000 0.000000
0.019608 1.000000 0.000000
0.125490 1.000000 0.000000
0.419608 1.000000 0.000000
0.694118 1.000000 0.000000
0.956863 1.000000 0.000000
1.000000 1.000000 0.000000
1.000000 1.000000 0.000000
0.000000 0.000000 0.411765
0.031373 0.000000 0.384314
0.325490 0.000000 0.352941
0.635294 0.000000 0.262745
0.941176 0.000000 0.215686
1.000000 0.000000 0.168627
1.000000 0.000000 0.121569
1.000000 0.000000 0.105882
1.000000 0.000000 0.094118
0.000000 0.035294 0.376471
0.003922 0.027451 0.356863
0.270588 0.000000 0.321569
0.600000 0.000000 0.247059
0.909804 0.000000 0.176471
1.000000 0.000000 0.129412
1.000000 0.000000 0.086275
1.000000 0.000000 0.062745
1.000000 0.000000 0.054902
0.000000 0.286275 0.309804
0.000000 0.262745 0.286275
0.203922 0.219608 0.215686
0.517647 0.164706 0.137255
0.819608 0.113725 0.086275
1.000000 0.070588 0.043137
1.000000 0.094118 0.000000
1.000000 0.125490 0.000000
1.000000 0.137255 0.000000
0.000000 0.533333 0.176471
0.000000 0.517647 0.149020
0.105882 0.474510 0.101961
0.411765 0.427451 0.054902
0.713725 0.372549 0.000000
1.000000 0.325490 0.000000
1.000000 0.286275 0.000000
1.000000 0.278431 0.000000
1.000000 0.290196 0.000000
0.019608 0.776471 0.054902
0.019608 0.756863 0.043137
0.035294 0.713725 0.000000
0.325490 0.670588 0.000000
0.615686 0.623529 0.000000
0.909804 0.568627 0.000000
1.000000 0.533333 0.000000
1.000000 0.505882 0.000000
1.000000 0.494118 0.000000
0.019608 0.949020 0.000000
0.019608 0.984314 0.000000
0.019608 0.952941 0.000000
0.247059 0.901961 0.000000
0.541176 0.858824 0.000000
0.815686 0.811765 0.000000
1.000000 0.768627 0.000000
1.000000 0.733333 0.000000
1.000000 0.729412 0.000000
0.019608 1.000000 0.000000
0.019608 1.000000 0.000000
0.019608 1.000000 0.000000
0.164706 1.000000 0.000000
0.454902 1.000000 0.000000
0.737255 1.000000 0.000000
0.996078 0.952941 0.000000
1.000000 0.913725 0.000000
1.000000 0.913725 0.000000
0.019608 1.000000 0.000000
0.019608 1.000000 0.000000
0.019608 1.000000 0.000000
0.117647 1.000000 0.000000
0.411765 1.000000 0.000000
0.686275 1.000000 0.000000
0.949020 1.000000 0.000000
1.000000 1.000000 0.000000
1.000000 1.000000 0.000000
0.019608 1.000000 0.000000
0.019608 1.000000 0.000000
0.019608 1.000000 0.000000
0.105882 1.000000 0.000000
0.400000 1.000000 0.000000
0.674510 1.000000 0.000000
0.937255 1.000000 0.000000
1.000000 1.000000 0.000000
1.000000 1.000000 0.000000
0.015686 0.000000 0.717647
0.047059 0.000000 0.694118
0.329412 0.000000 0.650980
0.623529 0.000000 0.603922
0.921569 0.000000 0.549020
1.000000 0.000000 0.509804
1.000000 0.000000 0.458824
1.000000 0.000000 0.439216
1.000000 0.000000 0.431373
0.011765 0.027451 0.690196
0.011765 0.003922 0.658824
0.278431 0.000000 0.619608
0.580392 0.000000 0.564706
0.894118 0.000000 0.513725
1.000000 0.000000 0.466667
1.000000 0.000000 0.419608
1.000000 0.000000 0.400000
1.000000 0.000000 0.388235
0.003922 0.258824 0.607843
0.003922 0.243137 0.576471
0.203922 0.196078 0.525490
0.501961 0.145098 0.478431
0.792157 0.101961 0.427451
1.000000 0.054902 0.364706
1.000000 0.050980 0.333333
1.000000 0.090196 0.317647
1.000000 0.098039 0.305882
0.000000 0.521569 0.498039
0.000000 0.494118 0.486275
0.086275 0.454902 0.447059
0.411765 0.403922 0.368627
0.698039 0.349020 0.325490
0.980392 0.309804 0.270588
1.000000 0.266667 0.239216
1.000000 0.243137 0.203922
1.000000 0.247059 0.207843
0.019608 0.760784 0.388235
0.015686 0.745098 0.372549
0.011765 0.694118 0.329412
0.313725 0.647059 0.286275
0.607843 0.600000 0.227451
0.898039 0.549020 0.184314
1.000000 0.513725 0.141176
1.000000 0.482353 0.113725
1.000000 0.482353 0.109804
0.019608 0.913725 0.305882
0.019608 0.945098 0.278431
0.019608 0.937255 0.239216
0.227451 0.882353 0.180392
0.521569 0.835294 0.141176
0.800000 0.792157 0.098039
1.000000 0.749020 0.050980
1.000000 0.725490 0.031373
1.000000 0.721569 0.023529
0.019608 1.000000 0.227451
0.019608 1.000000 0.196078
0.019608 1.000000 0.156863
0.145098 1.000000 0.098039
0.435294 1.000000 0.058824
0.717647 1.000000 0.015686
0.976471 0.960784 0.000000
1.000000 0.945098 0.000000
1.000000 0.933333 0.000000
0.019608 1.000000 0.172549
0.019608 1.000000 0.156863
0.019608 1.000000 0.113725
0.098039 1.000000 0.058824
0.392157 1.000000 0.000000
0.666667 1.000000 0.000000
0.929412 1.000000 0.000000
1.000000 1.000000 0.000000
1.000000 1.000000 0.000000
0.019608 1.000000 0.168627
0.019608 1.000000 0.141176
0.019608 1.000000 0.098039
0.074510 1.000000 0.039216
0.368627 1.000000 0.000000
0.658824 1.000000 0.000000
0.905882 1.000000 0.000000
1.000000 1.000000 0.000000
1.000000 1.000000 0.000000
0.019608 0.000000 0.980392
0.035294 0.000000 0.980392
0.309804 0.000000 0.968627
0.615686 0.000000 0.913725
0.909804 0.000000 0.870588
1.000000 0.000000 0.827451
1.000000 0.000000 0.784314
1.000000 0.000000 0.756863
1.000000 0.000000 0.752941
0.019608 0.007843 0.980392
0.019608 0.000000 0.968627
0.278431 0.000000 0.929412
0.580392 0.000000 0.874510
0.874510 0.000000 0.835294
1.000000 0.000000 0.788235
1.000000 0.000000 0.741176
1.000000 0.000000 0.725490
1.000000 0.000000 0.713725
0.019608 0.243137 0.894118
0.019608 0.227451 0.886275
0.188235 0.172549 0.839216
0.498039 0.129412 0.788235
0.776471 0.082353 0.745098
1.000000 0.035294 0.690196
1.000000 0.015686 0.654902
1.000000 0.054902 0.619608
1.000000 0.062745 0.627451
0.019608 0.501961 0.800000
0.019608 0.478431 0.788235
0.086275 0.431373 0.745098
0.396078 0.384314 0.694118
0.690196 0.337255 0.654902
0.960784 0.290196 0.588235
1.000000 0.247059 0.560784
1.000000 0.223529 0.521569
1.000000 0.219608 0.513725
0.015686 0.741176 0.721569
0.015686 0.725490 0.694118
0.011765 0.682353 0.654902
0.294118 0.627451 0.588235
0.588235 0.580392 0.549020
0.870588 0.537255 0.505882
1.000000 0.494118 0.458824
1.000000 0.466667 0.439216
1.000000 0.466667 0.431373
0.019608 0.878431 0.627451
0.019608 0.905882 0.600000
0.019608 0.917647 0.560784
0.211765 0.866667 0.501961
0.501961 0.811765 0.458824
0.780392 0.772549 0.419608
1.000000 0.733333 0.372549
1.000000 0.709804 0.352941
1.000000 0.698039 0.341176
0.019608 1.000000 0.545098
0.019608 1.000000 0.517647
0.019608 1.000000 0.474510
0.133333 1.000000 0.423529
0.423529 1.000000 0.380392
0.698039 0.984314 0.337255
0.960784 0.945098 0.290196
1.000000 0.925490 0.270588
1.000000 0.913725 0.258824
0.019608 1.000000 0.490196
0.019608 1.000000 0.474510
0.019608 1.000000 0.419608
0.082353 1.000000 0.380392
0.364706 1.000000 0.325490
0.650980 1.000000 0.278431
0.909804 1.000000 0.231373
1.000000 1.000000 0.215686
1.000000 1.000000 0.203922
0.019608 1.000000 0.470588
0.019608 1.000000 0.458824
0.019608 1.000000 0.419608
0.066667 1.000000 0.368627
0.352941 1.000000 0.321569
0.639216 1.000000 0.262745
0.886275 1.000000 0.227451
1.000000 1.000000 0.196078
1.000000 1.000000 0.200000
0.019608 0.000000 0.980392
0.019608 0.000000 0.980392
0.290196 0.000000 0.980392
0.596078 0.000000 0.980392
0.890196 0.000000 0.980392
1.000000 0.000000 0.980392
1.000000 0.000000 0.980392
1.000000 0.000000 0.980392
1.000000 0.000000 0.980392
0.019608 0.031373 0.980392
0.019608 0.000000 0.980392
0.258824 0.000000 0.980392
0.568627 0.000000 0.980392
0.854902 0.000000 0.980392
1.000000 0.000000 0.980392
1.000000 0.000000 0.980392
1.000000 0.000000 0.980392
1.000000 0.000000 0.980392
0.019608 0.227451 0.980392
0.019608 0.211765 0.980392
0.168627 0.156863 0.980392
0.478431 0.109804 0.980392
0.760784 0.066667 0.980392
1.000000 0.015686 0.980392
1.000000 0.000000 0.964706
1.000000 0.015686 0.937255
1.000000 0.027451 0.933333
0.019608 0.482353 0.980392
0.019608 0.458824 0.980392
0.070588 0.419608 0.980392
0.376471 0.368627 0.980392
0.670588 0.321569 0.956863
0.945098 0.274510 0.909804
1.000000 0.227451 0.862745
1.000000 0.207843 0.847059
1.000000 0.200000 0.835294
0.019608 0.701961 0.980392
0.019608 0.705882 0.980392
0.019608 0.662745 0.968627
0.282353 0.611765 0.909804
0.568627 0.560784 0.850980
0.850980 0.521569 0.811765
1.000000 0.474510 0.776471
1.000000 0.454902 0.745098
1.000000 0.447059 0.733333
0.019608 0.839216 0.933333
0.019608 0.866667 0.921569
0.019608 0.898039 0.862745
0.192157 0.843137 0.823529
0.490196 0.803922 0.772549
0.760784 0.752941 0.721569
1.000000 0.713725 0.678431
1.000000 0.694118 0.654902
1.000000 0.682353 0.647059
0.019608 0.964706 0.847059
0.019608 0.996078 0.823529
0.019608 1.000000 0.780392
0.113725 1.000000 0.745098
0.407843 1.000000 0.686275
0.678431 0.968627 0.639216
0.941176 0.929412 0.592157
1.000000 0.905882 0.572549
1.000000 0.894118 0.560784
0.019608 1.000000 0.807843
0.019608 1.000000 0.780392
0.019608 1.000000 0.741176
0.070588 1.000000 0.686275
0.345098 1.000000 0.643137
0.639216 1.000000 0.603922
0.894118 1.000000 0.552941
1.000000 1.000000 0.533333
1.000000 1.000000 0.525490
0.019608 1.000000 0.792157
0.019608 1.000000 0.760784
0.019608 1.000000 0.721569
0.047059 1.000000 0.670588
0.337255 1.000000 0.631373
0.627451 1.000000 0.584314
0.870588 1.000000 0.537255
1.000000 1.000000 0.517647
1.000000 1.000000 0.509804
0.019608 0.000000 0.980392
0.019608 0.000000 0.980392
0.286275 0.000000 0.980392
0.588235 0.000000 0.980392
0.870588 0.000000 0.980392
1.000000 0.000000 0.980392
1.000000 0.000000 0.980392
1.000000 0.000000 0.980392
1.000000 0.000000 0.980392
0.019608 0.062745 0.980392
0.019608 0.039216 0.980392
0.250980 0.000000 0.980392
0.549020 0.000000 0.980392
0.839216 0.000000 0.980392
1.000000 0.000000 0.980392
1.000000 0.000000 0.980392
1.000000 0.000000 0.980392
1.000000 0.000000 0.980392
0.019608 0.270588 0.980392
0.019608 0.235294 0.980392
0.149020 0.172549 0.980392
0.458824 0.105882 0.980392
0.752941 0.047059 0.980392
1.000000 0.003922 0.980392
1.000000 0.000000 0.980392
1.000000 0.000000 0.980392
1.000000 0.000000 0.980392
0.019608 0.482353 0.980392
0.019608 0.454902 0.980392
0.050980 0.403922 0.980392
0.352941 0.349020 0.980392
0.647059 0.301961 0.980392
0.937255 0.254902 0.980392
1.000000 0.215686 0.980392
1.000000 0.196078 0.980392
1.000000 0.180392 0.980392
0.019608 0.662745 0.980392
0.019608 0.694118 0.980392
0.019608 0.639216 0.980392
0.262745 0.596078 0.980392
0.549020 0.549020 0.980392
0.843137 0.498039 0.980392
1.000000 0.466667 0.980392
1.000000 0.435294 0.980392
1.000000 0.427451 0.980392
0.019608 0.811765 0.980392
0.019608 0.839216 0.980392
0.019608 0.882353 0.980392
0.176471 0.831373 0.980392
0.466667 0.784314 0.980392
0.741176 0.737255 0.980392
1.000000 0.698039 0.964706
1.000000 0.666667 0.941176
1.000000 0.666667 0.933333
0.019608 0.937255 0.980392
0.019608 0.964706 0.980392
0.019608 1.000000 0.980392
0.090196 1.000000 0.980392
0.384314 1.000000 0.968627
0.662745 0.956863 0.929412
0.921569 0.913725 0.882353
1.000000 0.886275 0.862745
1.000000 0.886275 0.854902
0.019608 1.000000 0.980392
0.019608 1.000000 0.980392
0.019608 1.000000 0.980392
0.047059 1.000000 0.968627
0.341176 1.000000 0.917647
0.611765 1.000000 0.870588
0.878431 1.000000 0.839216
1.000000 1.000000 0.803922
1.000000 1.000000 0.792157
0.019608 1.000000 0.980392
0.019608 1.000000 0.980392
0.019608 1.000000 0.980392
0.039216 1.000000 0.952941
0.329412 1.000000 0.917647
0.603922 1.000000 0.866667
0.866667 1.000000 0.823529
1.000000 1.000000 0.803922
1.000000 1.000000 0.792157
0.019608 0.003922 0.980392
0.019608 0.000000 0.980392
0.274510 0.000000 0.980392
0.580392 0.000000 0.980392
0.866667 0.000000 0.980392
1.000000 0.000000 0.980392
1.000000 0.000000 0.980392
1.000000 0.000000 0.980392
1.000000 0.000000 0.980392
0.019608 0.086275 0.980392
0.019608 0.062745 0.980392
0.235294 0.000000 0.980392
0.545098 0.000000 0.980392
0.835294 0.000000 0.980392
1.000000 0.000000 0.980392
1.000000 0.000000 0.980392
1.000000 0.000000 0.980392
1.000000 0.000000 0.980392
0.019608 0.286275 0.980392
0.019608 0.258824 0.980392
0.141176 0.200000 0.980392
0.443137 0.125490 0.980392
0.737255 0.058824 0.980392
1.000000 0.000000 0.980392
1.000000 0.000000 0.980392
1.000000 0.000000 0.980392
1.000000 0.000000 0.980392
0.019608 0.501961 0.980392
0.019608 0.478431 0.980392
0.047059 0.411765 0.980392
0.356863 0.341176 0.980392
0.647059 0.294118 0.980392
0.921569 0.247059 0.980392
1.000000 0.207843 0.980392
1.000000 0.184314 0.980392
1.000000 0.176471 0.980392
0.019608 0.650980 0.980392
0.019608 0.678431 0.980392
0.019608 0.635294 0.980392
0.258824 0.584314 0.980392
0.552941 0.537255 0.980392
0.827451 0.490196 0.980392
1.000000 0.450980 0.980392
1.000000 0.419608 0.980392
1.000000 0.419608 0.980392
0.019608 0.792157 0.980392
0.019608 0.815686 0.980392
0.019608 0.874510 0.980392
0.160784 0.823529 0.980392
0.450980 0.776471 0.980392
0.745098 0.729412 0.980392
0.988235 0.690196 0.980392
1.000000 0.666667 0.980392
1.000000 0.654902 0.980392
0.019608 0.917647 0.980392
0.019608 0.941176 0.980392
0.019608 1.000000 0.980392
0.078431 1.000000 0.980392
0.372549 0.996078 0.980392
0.658824 0.945098 0.980392
0.905882 0.905882 0.980392
1.000000 0.886275 0.980392
1.000000 0.870588 0.980392
0.019608 0.984314 0.980392
0.019608 1.000000 0.980392
0.019608 1.000000 0.980392
0.039216 1.000000 0.980392
0.325490 1.000000 0.980392
0.611765 1.000000 0.980392
0.862745 1.000000 0.980392
1.000000 1.000000 0.972549
1.000000 0.992157 0.960784
0.019608 1.000000 0.980392
0.019608 1.000000 0.980392
0.019608 1.000000 0.980392
0.054902 1.000000 0.980392
0.313725 1.000000 0.980392
0.588235 1.000000 0.980392
0.850980 1.000000 0.980392
1.000000 1.000000 0.952941
1.000000 1.000000 0.945098
0.019608 0.007843 0.980392
0.019608 0.000000 0.980392
0.274510 0.000000 0.980392
0.584314 0.000000 0.980392
0.858824 0.000000 0.980392
1.000000 0.000000 0.980392
1.000000 0.000000 0.980392
1.000000 0.000000 0.980392
1.000000 0.000000 0.980392
0.019608 0.090196 0.980392
0.019608 0.066667 0.980392
0.239216 0.000000 0.980392
0.533333 0.000000 0.980392
0.823529 0.000000 0.980392
1.000000 0.000000 0.980392
1.000000 0.000000 0.980392
1.000000 0.000000 0.980392
1.000000 0.000000 0.980392
0.019608 0.294118 0.980392
0.019608 0.262745 0.980392
0.145098 0.203922 0.980392
0.443137 0.125490 0.980392
0.737255 0.058824 0.980392
1.000000 0.000000 0.980392
1.000000 0.000000 0.980392
1.000000 0.000000 0.980392
1.000000 0.000000 0.980392
0.019608 0.501961 0.980392
0.019608 0.482353 0.980392
0.039216 0.419608 0.980392
0.345098 0.349020 0.980392
0.635294 0.290196 0.980392
0.925490 0.243137 0.980392
1.000000 0.207843 0.980392
1.000000 0.176471 0.980392
1.000000 0.168627 0.980392
0.019608 0.654902 0.980392
0.019608 0.678431 0.980392
0.019608 0.627451 0.980392
0.250980 0.588235 0.980392
0.545098 0.541176 0.980392
0.831373 0.490196 0.980392
1.000000 0.447059 0.980392
1.000000 0.423529 0.980392
1.000000 0.415686 0.980392
0.019608 0.784314 0.980392
0.019608 0.811765 0.980392
0.019608 0.874510 0.980392
0.164706 0.819608 0.980392
0.454902 0.772549 0.980392
0.737255 0.733333 0.980392
0.996078 0.690196 0.980392
1.000000 0.658824 0.980392
1.000000 0.662745 0.980392
0.019608 0.905882 0.980392
0.019608 0.941176 0.980392
0.019608 1.000000 0.980392
0.078431 1.000000 0.980392
0.372549 0.988235 0.980392
0.650980 0.949020 0.980392
0.909804 0.901961 0.980392
1.000000 0.874510 0.980392
1.000000 0.874510 0.980392
0.019608 0.976471 0.980392
0.019608 1.000000 0.980392
0.019608 1.000000 0.980392
0.039216 1.000000 0.980392
0.325490 1.000000 0.980392
0.603922 1.000000 0.980392
0.866667 1.000000 0.980392
1.000000 0.996078 0.980392
1.000000 0.996078 0.980392
0.019608 1.000000 0.980392
0.019608 1.000000 0.980392
0.019608 1.000000 0.980392
0.054902 1.000000 0.980392
0.313725 1.000000 0.980392
0.596078 1.000000 0.980392
0.854902 1.000000 0.980392
0.988235 1.000000 0.980392
1.000000 1.000000 0.980392
