supercar-experience/09-campaign-ads/_grade/luts/AK_NQ_Signature.cube
# AK_NQ_Signature
# Grade copied from a reference by per-channel histogram matching.
TITLE "AK_NQ_Signature"
LUT_3D_SIZE 9
DOMAIN_MIN 0.0 0.0 0.0
DOMAIN_MAX 1.0 1.0 1.0
0.000000 0.000000 0.000000
0.015962 0.000000 0.000000
0.046615 0.000000 0.000000
0.165311 0.000000 0.000000
0.306556 0.000000 0.000000
0.471676 0.000000 0.000000
0.763113 0.000000 0.000000
0.951815 0.000000 0.000000
1.000000 0.000000 0.000000
0.000000 0.003378 0.000000
0.015962 0.003378 0.000000
0.046615 0.003378 0.000000
0.165311 0.003378 0.000000
0.306556 0.003378 0.000000
0.471676 0.003378 0.000000
0.763113 0.003378 0.000000
0.951815 0.003378 0.000000
1.000000 0.003378 0.000000
0.000000 0.051670 0.000000
0.015962 0.051670 0.000000
0.046615 0.051670 0.000000
0.165311 0.051670 0.000000
0.306556 0.051670 0.000000
0.471676 0.051670 0.000000
0.763113 0.051670 0.000000
0.951815 0.051670 0.000000
1.000000 0.051670 0.000000
0.000000 0.177367 0.000000
0.015962 0.177367 0.000000
0.046615 0.177367 0.000000
0.165311 0.177367 0.000000
0.306556 0.177367 0.000000
0.471676 0.177367 0.000000
0.763113 0.177367 0.000000
0.951815 0.177367 0.000000
1.000000 0.177367 0.000000
0.000000 0.320711 0.000000
0.015962 0.320711 0.000000
0.046615 0.320711 0.000000
0.165311 0.320711 0.000000
0.306556 0.320711 0.000000
0.471676 0.320711 0.000000
0.763113 0.320711 0.000000
0.951815 0.320711 0.000000
1.000000 0.320711 0.000000
0.000000 0.478209 0.000000
0.015962 0.478209 0.000000
0.046615 0.478209 0.000000
0.165311 0.478209 0.000000
0.306556 0.478209 0.000000
0.471676 0.478209 0.000000
0.763113 0.478209 0.000000
0.951815 0.478209 0.000000
1.000000 0.478209 0.000000
0.000000 0.663312 0.000000
0.015962 0.663312 0.000000
0.046615 0.663312 0.000000
0.165311 0.663312 0.000000
0.306556 0.663312 0.000000
0.471676 0.663312 0.000000
0.763113 0.663312 0.000000
0.951815 0.663312 0.000000
1.000000 0.663312 0.000000
0.000000 0.863059 0.000000
0.015962 0.863059 0.000000
0.046615 0.863059 0.000000
0.165311 0.863059 0.000000
0.306556 0.863059 0.000000
0.471676 0.863059 0.000000
0.763113 0.863059 0.000000
0.951815 0.863059 0.000000
1.000000 0.863059 0.000000
0.000000 1.000000 0.000000
0.015962 1.000000 0.000000
0.046615 1.000000 0.000000
0.165311 1.000000 0.000000
0.306556 1.000000 0.000000
0.471676 1.000000 0.000000
0.763113 1.000000 0.000000
0.951815 1.000000 0.000000
1.000000 1.000000 0.000000
0.000000 0.000000 0.016812
0.015962 0.000000 0.016812
0.046615 0.000000 0.016812
0.165311 0.000000 0.016812
0.306556 0.000000 0.016812
0.471676 0.000000 0.016812
0.763113 0.000000 0.016812
0.951815 0.000000 0.016812
1.000000 0.000000 0.016812
0.000000 0.003378 0.016812
0.015962 0.003378 0.016812
0.046615 0.003378 0.016812
0.165311 0.003378 0.016812
0.306556 0.003378 0.016812
0.471676 0.003378 0.016812
0.763113 0.003378 0.016812
0.951815 0.003378 0.016812
1.000000 0.003378 0.016812
0.000000 0.051670 0.016812
0.015962 0.051670 0.016812
0.046615 0.051670 0.016812
0.165311 0.051670 0.016812
0.306556 0.051670 0.016812
0.471676 0.051670 0.016812
0.763113 0.051670 0.016812
0.951815 0.051670 0.016812
1.000000 0.051670 0.016812
0.000000 0.177367 0.016812
0.015962 0.177367 0.016812
0.046615 0.177367 0.016812
0.165311 0.177367 0.016812
0.306556 0.177367 0.016812
0.471676 0.177367 0.016812
0.763113 0.177367 0.016812
0.951815 0.177367 0.016812
1.000000 0.177367 0.016812
0.000000 0.320711 0.016812
0.015962 0.320711 0.016812
0.046615 0.320711 0.016812
0.165311 0.320711 0.016812
0.306556 0.320711 0.016812
0.471676 0.320711 0.016812
0.763113 0.320711 0.016812
0.951815 0.320711 0.016812
1.000000 0.320711 0.016812
0.000000 0.478209 0.016812
0.015962 0.478209 0.016812
0.046615 0.478209 0.016812
0.165311 0.478209 0.016812
0.306556 0.478209 0.016812
0.471676 0.478209 0.016812
0.763113 0.478209 0.016812
0.951815 0.478209 0.016812
1.000000 0.478209 0.016812
0.000000 0.663312 0.016812
0.015962 0.663312 0.016812
0.046615 0.663312 0.016812
0.165311 0.663312 0.016812
0.306556 0.663312 0.016812
0.471676 0.663312 0.016812
0.763113 0.663312 0.016812
0.951815 0.663312 0.016812
1.000000 0.663312 0.016812
0.000000 0.863059 0.016812
0.015962 0.863059 0.016812
0.046615 0.863059 0.016812
0.165311 0.863059 0.016812
0.306556 0.863059 0.016812
0.471676 0.863059 0.016812
0.763113 0.863059 0.016812
0.951815 0.863059 0.016812
1.000000 0.863059 0.016812
0.000000 1.000000 0.016812
0.015962 1.000000 0.016812
0.046615 1.000000 0.016812
0.165311 1.000000 0.016812
0.306556 1.000000 0.016812
0.471676 1.000000 0.016812
0.763113 1.000000 0.016812
0.951815 1.000000 0.016812
1.000000 1.000000 0.016812
0.000000 0.000000 0.056235
0.015962 0.000000 0.056235
0.046615 0.000000 0.056235
0.165311 0.000000 0.056235
0.306556 0.000000 0.056235
0.471676 0.000000 0.056235
0.763113 0.000000 0.056235
0.951815 0.000000 0.056235
1.000000 0.000000 0.056235
0.000000 0.003378 0.056235
0.015962 0.003378 0.056235
0.046615 0.003378 0.056235
0.165311 0.003378 0.056235
0.306556 0.003378 0.056235
0.471676 0.003378 0.056235
0.763113 0.003378 0.056235
0.951815 0.003378 0.056235
1.000000 0.003378 0.056235
0.000000 0.051670 0.056235
0.015962 0.051670 0.056235
0.046615 0.051670 0.056235
0.165311 0.051670 0.056235
0.306556 0.051670 0.056235
0.471676 0.051670 0.056235
0.763113 0.051670 0.056235
0.951815 0.051670 0.056235
1.000000 0.051670 0.056235
0.000000 0.177367 0.056235
0.015962 0.177367 0.056235
0.046615 0.177367 0.056235
0.165311 0.177367 0.056235
0.306556 0.177367 0.056235
0.471676 0.177367 0.056235
0.763113 0.177367 0.056235
0.951815 0.177367 0.056235
1.000000 0.177367 0.056235
0.000000 0.320711 0.056235
0.015962 0.320711 0.056235
0.046615 0.320711 0.056235
0.165311 0.320711 0.056235
0.306556 0.320711 0.056235
0.471676 0.320711 0.056235
0.763113 0.320711 0.056235
0.951815 0.320711 0.056235
1.000000 0.320711 0.056235
0.000000 0.478209 0.056235
0.015962 0.478209 0.056235
0.046615 0.478209 0.056235
0.165311 0.478209 0.056235
0.306556 0.478209 0.056235
0.471676 0.478209 0.056235
0.763113 0.478209 0.056235
0.951815 0.478209 0.056235
1.000000 0.478209 0.056235
0.000000 0.663312 0.056235
0.015962 0.663312 0.056235
0.046615 0.663312 0.056235
0.165311 0.663312 0.056235
0.306556 0.663312 0.056235
0.471676 0.663312 0.056235
0.763113 0.663312 0.056235
0.951815 0.663312 0.056235
1.000000 0.663312 0.056235
0.000000 0.863059 0.056235
0.015962 0.863059 0.056235
0.046615 0.863059 0.056235
0.165311 0.863059 0.056235
0.306556 0.863059 0.056235
0.471676 0.863059 0.056235
0.763113 0.863059 0.056235
0.951815 0.863059 0.056235
1.000000 0.863059 0.056235
0.000000 1.000000 0.056235
0.015962 1.000000 0.056235
0.046615 1.000000 0.056235
0.165311 1.000000 0.056235
0.306556 1.000000 0.056235
0.471676 1.000000 0.056235
0.763113 1.000000 0.056235
0.951815 1.000000 0.056235
1.000000 1.000000 0.056235
0.000000 0.000000 0.188840
0.015962 0.000000 0.188840
0.046615 0.000000 0.188840
0.165311 0.000000 0.188840
0.306556 0.000000 0.188840
0.471676 0.000000 0.188840
0.763113 0.000000 0.188840
0.951815 0.000000 0.188840
1.000000 0.000000 0.188840
0.000000 0.003378 0.188840
0.015962 0.003378 0.188840
0.046615 0.003378 0.188840
0.165311 0.003378 0.188840
0.306556 0.003378 0.188840
0.471676 0.003378 0.188840
0.763113 0.003378 0.188840
0.951815 0.003378 0.188840
1.000000 0.003378 0.188840
0.000000 0.051670 0.188840
0.015962 0.051670 0.188840
0.046615 0.051670 0.188840
0.165311 0.051670 0.188840
0.306556 0.051670 0.188840
0.471676 0.051670 0.188840
0.763113 0.051670 0.188840
0.951815 0.051670 0.188840
1.000000 0.051670 0.188840
0.000000 0.177367 0.188840
0.015962 0.177367 0.188840
0.046615 0.177367 0.188840
0.165311 0.177367 0.188840
0.306556 0.177367 0.188840
0.471676 0.177367 0.188840
0.763113 0.177367 0.188840
0.951815 0.177367 0.188840
1.000000 0.177367 0.188840
0.000000 0.320711 0.188840
0.015962 0.320711 0.188840
0.046615 0.320711 0.188840
0.165311 0.320711 0.188840
0.306556 0.320711 0.188840
0.471676 0.320711 0.188840
0.763113 0.320711 0.188840
0.951815 0.320711 0.188840
1.000000 0.320711 0.188840
0.000000 0.478209 0.188840
0.015962 0.478209 0.188840
0.046615 0.478209 0.188840
0.165311 0.478209 0.188840
0.306556 0.478209 0.188840
0.471676 0.478209 0.188840
0.763113 0.478209 0.188840
0.951815 0.478209 0.188840
1.000000 0.478209 0.188840
0.000000 0.663312 0.188840
0.015962 0.663312 0.188840
0.046615 0.663312 0.188840
0.165311 0.663312 0.188840
0.306556 0.663312 0.188840
0.471676 0.663312 0.188840
0.763113 0.663312 0.188840
0.951815 0.663312 0.188840
1.000000 0.663312 0.188840
0.000000 0.863059 0.188840
0.015962 0.863059 0.188840
0.046615 0.863059 0.188840
0.165311 0.863059 0.188840
0.306556 0.863059 0.188840
0.471676 0.863059 0.188840
0.763113 0.863059 0.188840
0.951815 0.863059 0.188840
1.000000 0.863059 0.188840
0.000000 1.000000 0.188840
0.015962 1.000000 0.188840
0.046615 1.000000 0.188840
0.165311 1.000000 0.188840
0.306556 1.000000 0.188840
0.471676 1.000000 0.188840
0.763113 1.000000 0.188840
0.951815 1.000000 0.188840
1.000000 1.000000 0.188840
0.000000 0.000000 0.317616
0.015962 0.000000 0.317616
0.046615 0.000000 0.317616
0.165311 0.000000 0.317616
0.306556 0.000000 0.317616
0.471676 0.000000 0.317616
0.763113 0.000000 0.317616
0.951815 0.000000 0.317616
1.000000 0.000000 0.317616
0.000000 0.003378 0.317616
0.015962 0.003378 0.317616
0.046615 0.003378 0.317616
0.165311 0.003378 0.317616
0.306556 0.003378 0.317616
0.471676 0.003378 0.317616
0.763113 0.003378 0.317616
0.951815 0.003378 0.317616
1.000000 0.003378 0.317616
0.000000 0.051670 0.317616
0.015962 0.051670 0.317616
0.046615 0.051670 0.317616
0.165311 0.051670 0.317616
0.306556 0.051670 0.317616
0.471676 0.051670 0.317616
0.763113 0.051670 0.317616
0.951815 0.051670 0.317616
1.000000 0.051670 0.317616
0.000000 0.177367 0.317616
0.015962 0.177367 0.317616
0.046615 0.177367 0.317616
0.165311 0.177367 0.317616
0.306556 0.177367 0.317616
0.471676 0.177367 0.317616
0.763113 0.177367 0.317616
0.951815 0.177367 0.317616
1.000000 0.177367 0.317616
0.000000 0.320711 0.317616
0.015962 0.320711 0.317616
0.046615 0.320711 0.317616
0.165311 0.320711 0.317616
0.306556 0.320711 0.317616
0.471676 0.320711 0.317616
0.763113 0.320711 0.317616
0.951815 0.320711 0.317616
1.000000 0.320711 0.317616
0.000000 0.478209 0.317616
0.015962 0.478209 0.317616
0.046615 0.478209 0.317616
0.165311 0.478209 0.317616
0.306556 0.478209 0.317616
0.471676 0.478209 0.317616
0.763113 0.478209 0.317616
0.951815 0.478209 0.317616
1.000000 0.478209 0.317616
0.000000 0.663312 0.317616
0.015962 0.663312 0.317616
0.046615 0.663312 0.317616
0.165311 0.663312 0.317616
0.306556 0.663312 0.317616
0.471676 0.663312 0.317616
0.763113 0.663312 0.317616
0.951815 0.663312 0.317616
1.000000 0.663312 0.317616
0.000000 0.863059 0.317616
0.015962 0.863059 0.317616
0.046615 0.863059 0.317616
0.165311 0.863059 0.317616
0.306556 0.863059 0.317616
0.471676 0.863059 0.317616
0.763113 0.863059 0.317616
0.951815 0.863059 0.317616
1.000000 0.863059 0.317616
0.000000 1.000000 0.317616
0.015962 1.000000 0.317616
0.046615 1.000000 0.317616
0.165311 1.000000 0.317616
0.306556 1.000000 0.317616
0.471676 1.000000 0.317616
0.763113 1.000000 0.317616
0.951815 1.000000 0.317616
1.000000 1.000000 0.317616
0.000000 0.000000 0.423024
0.015962 0.000000 0.423024
0.046615 0.000000 0.423024
0.165311 0.000000 0.423024
0.306556 0.000000 0.423024
0.471676 0.000000 0.423024
0.763113 0.000000 0.423024
0.951815 0.000000 0.423024
1.000000 0.000000 0.423024
0.000000 0.003378 0.423024
0.015962 0.003378 0.423024
0.046615 0.003378 0.423024
0.165311 0.003378 0.423024
0.306556 0.003378 0.423024
0.471676 0.003378 0.423024
0.763113 0.003378 0.423024
0.951815 0.003378 0.423024
1.000000 0.003378 0.423024
0.000000 0.051670 0.423024
0.015962 0.051670 0.423024
0.046615 0.051670 0.423024
0.165311 0.051670 0.423024
0.306556 0.051670 0.423024
0.471676 0.051670 0.423024
0.763113 0.051670 0.423024
0.951815 0.051670 0.423024
1.000000 0.051670 0.423024
0.000000 0.177367 0.423024
0.015962 0.177367 0.423024
0.046615 0.177367 0.423024
0.165311 0.177367 0.423024
0.306556 0.177367 0.423024
0.471676 0.177367 0.423024
0.763113 0.177367 0.423024
0.951815 0.177367 0.423024
1.000000 0.177367 0.423024
0.000000 0.320711 0.423024
0.015962 0.320711 0.423024
0.046615 0.320711 0.423024
0.165311 0.320711 0.423024
0.306556 0.320711 0.423024
0.471676 0.320711 0.423024
0.763113 0.320711 0.423024
0.951815 0.320711 0.423024
1.000000 0.320711 0.423024
0.000000 0.478209 0.423024
0.015962 0.478209 0.423024
0.046615 0.478209 0.423024
0.165311 0.478209 0.423024
0.306556 0.478209 0.423024
0.471676 0.478209 0.423024
0.763113 0.478209 0.423024
0.951815 0.478209 0.423024
1.000000 0.478209 0.423024
0.000000 0.663312 0.423024
0.015962 0.663312 0.423024
0.046615 0.663312 0.423024
0.165311 0.663312 0.423024
0.306556 0.663312 0.423024
0.471676 0.663312 0.423024
0.763113 0.663312 0.423024
0.951815 0.663312 0.423024
1.000000 0.663312 0.423024
0.000000 0.863059 0.423024
0.015962 0.863059 0.423024
0.046615 0.863059 0.423024
0.165311 0.863059 0.423024
0.306556 0.863059 0.423024
0.471676 0.863059 0.423024
0.763113 0.863059 0.423024
0.951815 0.863059 0.423024
1.000000 0.863059 0.423024
0.000000 1.000000 0.423024
0.015962 1.000000 0.423024
0.046615 1.000000 0.423024
0.165311 1.000000 0.423024
0.306556 1.000000 0.423024
0.471676 1.000000 0.423024
0.763113 1.000000 0.423024
0.951815 1.000000 0.423024
1.000000 1.000000 0.423024
0.000000 0.000000 0.616468
0.015962 0.000000 0.616468
0.046615 0.000000 0.616468
0.165311 0.000000 0.616468
0.306556 0.000000 0.616468
0.471676 0.000000 0.616468
0.763113 0.000000 0.616468
0.951815 0.000000 0.616468
1.000000 0.000000 0.616468
0.000000 0.003378 0.616468
0.015962 0.003378 0.616468
0.046615 0.003378 0.616468
0.165311 0.003378 0.616468
0.306556 0.003378 0.616468
0.471676 0.003378 0.616468
0.763113 0.003378 0.616468
0.951815 0.003378 0.616468
1.000000 0.003378 0.616468
0.000000 0.051670 0.616468
0.015962 0.051670 0.616468
0.046615 0.051670 0.616468
0.165311 0.051670 0.616468
0.306556 0.051670 0.616468
0.471676 0.051670 0.616468
0.763113 0.051670 0.616468
0.951815 0.051670 0.616468
1.000000 0.051670 0.616468
0.000000 0.177367 0.616468
0.015962 0.177367 0.616468
0.046615 0.177367 0.616468
0.165311 0.177367 0.616468
0.306556 0.177367 0.616468
0.471676 0.177367 0.616468
0.763113 0.177367 0.616468
0.951815 0.177367 0.616468
1.000000 0.177367 0.616468
0.000000 0.320711 0.616468
0.015962 0.320711 0.616468
0.046615 0.320711 0.616468
0.165311 0.320711 0.616468
0.306556 0.320711 0.616468
0.471676 0.320711 0.616468
0.763113 0.320711 0.616468
0.951815 0.320711 0.616468
1.000000 0.320711 0.616468
0.000000 0.478209 0.616468
0.015962 0.478209 0.616468
0.046615 0.478209 0.616468
0.165311 0.478209 0.616468
0.306556 0.478209 0.616468
0.471676 0.478209 0.616468
0.763113 0.478209 0.616468
0.951815 0.478209 0.616468
1.000000 0.478209 0.616468
0.000000 0.663312 0.616468
0.015962 0.663312 0.616468
0.046615 0.663312 0.616468
0.165311 0.663312 0.616468
0.306556 0.663312 0.616468
0.471676 0.663312 0.616468
0.763113 0.663312 0.616468
0.951815 0.663312 0.616468
1.000000 0.663312 0.616468
0.000000 0.863059 0.616468
0.015962 0.863059 0.616468
0.046615 0.863059 0.616468
0.165311 0.863059 0.616468
0.306556 0.863059 0.616468
0.471676 0.863059 0.616468
0.763113 0.863059 0.616468
0.951815 0.863059 0.616468
1.000000 0.863059 0.616468
0.000000 1.000000 0.616468
0.015962 1.000000 0.616468
0.046615 1.000000 0.616468
0.165311 1.000000 0.616468
0.306556 1.000000 0.616468
0.471676 1.000000 0.616468
0.763113 1.000000 0.616468
0.951815 1.000000 0.616468
1.000000 1.000000 0.616468
0.000000 0.000000 0.870849
0.015962 0.000000 0.870849
0.046615 0.000000 0.870849
0.165311 0.000000 0.870849
0.306556 0.000000 0.870849
0.471676 0.000000 0.870849
0.763113 0.000000 0.870849
0.951815 0.000000 0.870849
1.000000 0.000000 0.870849
0.000000 0.003378 0.870849
0.015962 0.003378 0.870849
0.046615 0.003378 0.870849
0.165311 0.003378 0.870849
0.306556 0.003378 0.870849
0.471676 0.003378 0.870849
0.763113 0.003378 0.870849
0.951815 0.003378 0.870849
1.000000 0.003378 0.870849
0.000000 0.051670 0.870849
0.015962 0.051670 0.870849
0.046615 0.051670 0.870849
0.165311 0.051670 0.870849
0.306556 0.051670 0.870849
0.471676 0.051670 0.870849
0.763113 0.051670 0.870849
0.951815 0.051670 0.870849
1.000000 0.051670 0.870849
0.000000 0.177367 0.870849
0.015962 0.177367 0.870849
0.046615 0.177367 0.870849
0.165311 0.177367 0.870849
0.306556 0.177367 0.870849
0.471676 0.177367 0.870849
0.763113 0.177367 0.870849
0.951815 0.177367 0.870849
1.000000 0.177367 0.870849
0.000000 0.320711 0.870849
0.015962 0.320711 0.870849
0.046615 0.320711 0.870849
0.165311 0.320711 0.870849
0.306556 0.320711 0.870849
0.471676 0.320711 0.870849
0.763113 0.320711 0.870849
0.951815 0.320711 0.870849
1.000000 0.320711 0.870849
0.000000 0.478209 0.870849
0.015962 0.478209 0.870849
0.046615 0.478209 0.870849
0.165311 0.478209 0.870849
0.306556 0.478209 0.870849
0.471676 0.478209 0.870849
0.763113 0.478209 0.870849
0.951815 0.478209 0.870849
1.000000 0.478209 0.870849
0.000000 0.663312 0.870849
0.015962 0.663312 0.870849
0.046615 0.663312 0.870849
0.165311 0.663312 0.870849
0.306556 0.663312 0.870849
0.471676 0.663312 0.870849
0.763113 0.663312 0.870849
0.951815 0.663312 0.870849
1.000000 0.663312 0.870849
0.000000 0.863059 0.870849
0.015962 0.863059 0.870849
0.046615 0.863059 0.870849
0.165311 0.863059 0.870849
0.306556 0.863059 0.870849
0.471676 0.863059 0.870849
0.763113 0.863059 0.870849
0.951815 0.863059 0.870849
1.000000 0.863059 0.870849
0.000000 1.000000 0.870849
0.015962 1.000000 0.870849
0.046615 1.000000 0.870849
0.165311 1.000000 0.870849
0.306556 1.000000 0.870849
0.471676 1.000000 0.870849
0.763113 1.000000 0.870849
0.951815 1.000000 0.870849
1.000000 1.000000 0.870849
0.000000 0.000000 1.000000
0.015962 0.000000 1.000000
0.046615 0.000000 1.000000
0.165311 0.000000 1.000000
0.306556 0.000000 1.000000
0.471676 0.000000 1.000000
0.763113 0.000000 1.000000
0.951815 0.000000 1.000000
1.000000 0.000000 1.000000
0.000000 0.003378 1.000000
0.015962 0.003378 1.000000
0.046615 0.003378 1.000000
0.165311 0.003378 1.000000
0.306556 0.003378 1.000000
0.471676 0.003378 1.000000
0.763113 0.003378 1.000000
0.951815 0.003378 1.000000
1.000000 0.003378 1.000000
0.000000 0.051670 1.000000
0.015962 0.051670 1.000000
0.046615 0.051670 1.000000
0.165311 0.051670 1.000000
0.306556 0.051670 1.000000
0.471676 0.051670 1.000000
0.763113 0.051670 1.000000
0.951815 0.051670 1.000000
1.000000 0.051670 1.000000
0.000000 0.177367 1.000000
0.015962 0.177367 1.000000
0.046615 0.177367 1.000000
0.165311 0.177367 1.000000
0.306556 0.177367 1.000000
0.471676 0.177367 1.000000
0.763113 0.177367 1.000000
0.951815 0.177367 1.000000
1.000000 0.177367 1.000000
0.000000 0.320711 1.000000
0.015962 0.320711 1.000000
0.046615 0.320711 1.000000
0.165311 0.320711 1.000000
0.306556 0.320711 1.000000
0.471676 0.320711 1.000000
0.763113 0.320711 1.000000
0.951815 0.320711 1.000000
1.000000 0.320711 1.000000
0.000000 0.478209 1.000000
0.015962 0.478209 1.000000
0.046615 0.478209 1.000000
0.165311 0.478209 1.000000
0.306556 0.478209 1.000000
0.471676 0.478209 1.000000
0.763113 0.478209 1.000000
0.951815 0.478209 1.000000
1.000000 0.478209 1.000000
0.000000 0.663312 1.000000
0.015962 0.663312 1.000000
0.046615 0.663312 1.000000
0.165311 0.663312 1.000000
0.306556 0.663312 1.000000
0.471676 0.663312 1.000000
0.763113 0.663312 1.000000
0.951815 0.663312 1.000000
1.000000 0.663312 1.000000
0.000000 0.863059 1.000000
0.015962 0.863059 1.000000
0.046615 0.863059 1.000000
0.165311 0.863059 1.000000
0.306556 0.863059 1.000000
0.471676 0.863059 1.000000
0.763113 0.863059 1.000000
0.951815 0.863059 1.000000
1.000000 0.863059 1.000000
0.000000 1.000000 1.000000
0.015962 1.000000 1.000000
0.046615 1.000000 1.000000
0.165311 1.000000 1.000000
0.306556 1.000000 1.000000
0.471676 1.000000 1.000000
0.763113 1.000000 1.000000
0.951815 1.000000 1.000000
1.000000 1.000000 1.000000
