supercar-experience/09-campaign-ads/_grade/luts/AK_NQ_Signature.cube
# AK_NQ_Signature
# Grade copied from a reference by per-channel histogram matching.
TITLE "AK_NQ_Signature"
LUT_3D_SIZE 33
DOMAIN_MIN 0.0 0.0 0.0
DOMAIN_MAX 1.0 1.0 1.0
0.000000 0.000000 0.000000
0.000000 0.000000 0.000000
0.000000 0.000000 0.000000
0.001712 0.000000 0.000000
0.015962 0.000000 0.000000
0.019608 0.000000 0.000000
0.022928 0.000000 0.000000
0.027786 0.000000 0.000000
0.046615 0.000000 0.000000
0.066312 0.000000 0.000000
0.098051 0.000000 0.000000
0.133038 0.000000 0.000000
0.165311 0.000000 0.000000
0.197361 0.000000 0.000000
0.234034 0.000000 0.000000
0.270866 0.000000 0.000000
0.306556 0.000000 0.000000
0.343909 0.000000 0.000000
0.375391 0.000000 0.000000
0.418168 0.000000 0.000000
0.471676 0.000000 0.000000
0.523910 0.000000 0.000000
0.599318 0.000000 0.000000
0.680584 0.000000 0.000000
0.763113 0.000000 0.000000
0.843446 0.000000 0.000000
0.890116 0.000000 0.000000
0.921601 0.000000 0.000000
0.951815 0.000000 0.000000
0.962247 0.000000 0.000000
0.970136 0.000000 0.000000
0.987316 0.000000 0.000000
1.000000 0.000000 0.000000
0.000000 0.000000 0.000000
0.000000 0.000000 0.000000
0.000000 0.000000 0.000000
0.001712 0.000000 0.000000
0.015962 0.000000 0.000000
0.019608 0.000000 0.000000
0.022928 0.000000 0.000000
0.027786 0.000000 0.000000
0.046615 0.000000 0.000000
0.066312 0.000000 0.000000
0.098051 0.000000 0.000000
0.133038 0.000000 0.000000
0.165311 0.000000 0.000000
0.197361 0.000000 0.000000
0.234034 0.000000 0.000000
0.270866 0.000000 0.000000
0.306556 0.000000 0.000000
0.343909 0.000000 0.000000
0.375391 0.000000 0.000000
0.418168 0.000000 0.000000
0.471676 0.000000 0.000000
0.523910 0.000000 0.000000
0.599318 0.000000 0.000000
0.680584 0.000000 0.000000
0.763113 0.000000 0.000000
0.843446 0.000000 0.000000
0.890116 0.000000 0.000000
0.921601 0.000000 0.000000
0.951815 0.000000 0.000000
0.962247 0.000000 0.000000
0.970136 0.000000 0.000000
0.987316 0.000000 0.000000
1.000000 0.000000 0.000000
0.000000 0.000000 0.000000
0.000000 0.000000 0.000000
0.000000 0.000000 0.000000
0.001712 0.000000 0.000000
0.015962 0.000000 0.000000
0.019608 0.000000 0.000000
0.022928 0.000000 0.000000
0.027786 0.000000 0.000000
0.046615 0.000000 0.000000
0.066312 0.000000 0.000000
0.098051 0.000000 0.000000
0.133038 0.000000 0.000000
0.165311 0.000000 0.000000
0.197361 0.000000 0.000000
0.234034 0.000000 0.000000
0.270866 0.000000 0.000000
0.306556 0.000000 0.000000
0.343909 0.000000 0.000000
0.375391 0.000000 0.000000
0.418168 0.000000 0.000000
0.471676 0.000000 0.000000
0.523910 0.000000 0.000000
0.599318 0.000000 0.000000
0.680584 0.000000 0.000000
0.763113 0.000000 0.000000
0.843446 0.000000 0.000000
0.890116 0.000000 0.000000
0.921601 0.000000 0.000000
0.951815 0.000000 0.000000
0.962247 0.000000 0.000000
0.970136 0.000000 0.000000
0.987316 0.000000 0.000000
1.000000 0.000000 0.000000
0.000000 0.000000 0.000000
0.000000 0.000000 0.000000
0.000000 0.000000 0.000000
0.001712 0.000000 0.000000
0.015962 0.000000 0.000000
0.019608 0.000000 0.000000
0.022928 0.000000 0.000000
0.027786 0.000000 0.000000
0.046615 0.000000 0.000000
0.066312 0.000000 0.000000
0.098051 0.000000 0.000000
0.133038 0.000000 0.000000
0.165311 0.000000 0.000000
0.197361 0.000000 0.000000
0.234034 0.000000 0.000000
0.270866 0.000000 0.000000
0.306556 0.000000 0.000000
0.343909 0.000000 0.000000
0.375391 0.000000 0.000000
0.418168 0.000000 0.000000
0.471676 0.000000 0.000000
0.523910 0.000000 0.000000
0.599318 0.000000 0.000000
0.680584 0.000000 0.000000
0.763113 0.000000 0.000000
0.843446 0.000000 0.000000
0.890116 0.000000 0.000000
0.921601 0.000000 0.000000
0.951815 0.000000 0.000000
0.962247 0.000000 0.000000
0.970136 0.000000 0.000000
0.987316 0.000000 0.000000
1.000000 0.000000 0.000000
0.000000 0.003378 0.000000
0.000000 0.003378 0.000000
0.000000 0.003378 0.000000
0.001712 0.003378 0.000000
0.015962 0.003378 0.000000
0.019608 0.003378 0.000000
0.022928 0.003378 0.000000
0.027786 0.003378 0.000000
0.046615 0.003378 0.000000
0.066312 0.003378 0.000000
0.098051 0.003378 0.000000
0.133038 0.003378 0.000000
0.165311 0.003378 0.000000
0.197361 0.003378 0.000000
0.234034 0.003378 0.000000
0.270866 0.003378 0.000000
0.306556 0.003378 0.000000
0.343909 0.003378 0.000000
0.375391 0.003378 0.000000
0.418168 0.003378 0.000000
0.471676 0.003378 0.000000
0.523910 0.003378 0.000000
0.599318 0.003378 0.000000
0.680584 0.003378 0.000000
0.763113 0.003378 0.000000
0.843446 0.003378 0.000000
0.890116 0.003378 0.000000
0.921601 0.003378 0.000000
0.951815 0.003378 0.000000
0.962247 0.003378 0.000000
0.970136 0.003378 0.000000
0.987316 0.003378 0.000000
1.000000 0.003378 0.000000
0.000000 0.003922 0.000000
0.000000 0.003922 0.000000
0.000000 0.003922 0.000000
0.001712 0.003922 0.000000
0.015962 0.003922 0.000000
0.019608 0.003922 0.000000
0.022928 0.003922 0.000000
0.027786 0.003922 0.000000
0.046615 0.003922 0.000000
0.066312 0.003922 0.000000
0.098051 0.003922 0.000000
0.133038 0.003922 0.000000
0.165311 0.003922 0.000000
0.197361 0.003922 0.000000
0.234034 0.003922 0.000000
0.270866 0.003922 0.000000
0.306556 0.003922 0.000000
0.343909 0.003922 0.000000
0.375391 0.003922 0.000000
0.418168 0.003922 0.000000
0.471676 0.003922 0.000000
0.523910 0.003922 0.000000
0.599318 0.003922 0.000000
0.680584 0.003922 0.000000
0.763113 0.003922 0.000000
0.843446 0.003922 0.000000
0.890116 0.003922 0.000000
0.921601 0.003922 0.000000
0.951815 0.003922 0.000000
0.962247 0.003922 0.000000
0.970136 0.003922 0.000000
0.987316 0.003922 0.000000
1.000000 0.003922 0.000000
0.000000 0.015192 0.000000
0.000000 0.015192 0.000000
0.000000 0.015192 0.000000
0.001712 0.015192 0.000000
0.015962 0.015192 0.000000
0.019608 0.015192 0.000000
0.022928 0.015192 0.000000
0.027786 0.015192 0.000000
0.046615 0.015192 0.000000
0.066312 0.015192 0.000000
0.098051 0.015192 0.000000
0.133038 0.015192 0.000000
0.165311 0.015192 0.000000
0.197361 0.015192 0.000000
0.234034 0.015192 0.000000
0.270866 0.015192 0.000000
0.306556 0.015192 0.000000
0.343909 0.015192 0.000000
0.375391 0.015192 0.000000
0.418168 0.015192 0.000000
0.471676 0.015192 0.000000
0.523910 0.015192 0.000000
0.599318 0.015192 0.000000
0.680584 0.015192 0.000000
0.763113 0.015192 0.000000
0.843446 0.015192 0.000000
0.890116 0.015192 0.000000
0.921601 0.015192 0.000000
0.951815 0.015192 0.000000
0.962247 0.015192 0.000000
0.970136 0.015192 0.000000
0.987316 0.015192 0.000000
1.000000 0.015192 0.000000
0.000000 0.030011 0.000000
0.000000 0.030011 0.000000
0.000000 0.030011 0.000000
0.001712 0.030011 0.000000
0.015962 0.030011 0.000000
0.019608 0.030011 0.000000
0.022928 0.030011 0.000000
0.027786 0.030011 0.000000
0.046615 0.030011 0.000000
0.066312 0.030011 0.000000
0.098051 0.030011 0.000000
0.133038 0.030011 0.000000
0.165311 0.030011 0.000000
0.197361 0.030011 0.000000
0.234034 0.030011 0.000000
0.270866 0.030011 0.000000
0.306556 0.030011 0.000000
0.343909 0.030011 0.000000
0.375391 0.030011 0.000000
0.418168 0.030011 0.000000
0.471676 0.030011 0.000000
0.523910 0.030011 0.000000
0.599318 0.030011 0.000000
0.680584 0.030011 0.000000
0.763113 0.030011 0.000000
0.843446 0.030011 0.000000
0.890116 0.030011 0.000000
0.921601 0.030011 0.000000
0.951815 0.030011 0.000000
0.962247 0.030011 0.000000
0.970136 0.030011 0.000000
0.987316 0.030011 0.000000
1.000000 0.030011 0.000000
0.000000 0.051670 0.000000
0.000000 0.051670 0.000000
0.000000 0.051670 0.000000
0.001712 0.051670 0.000000
0.015962 0.051670 0.000000
0.019608 0.051670 0.000000
0.022928 0.051670 0.000000
0.027786 0.051670 0.000000
0.046615 0.051670 0.000000
0.066312 0.051670 0.000000
0.098051 0.051670 0.000000
0.133038 0.051670 0.000000
0.165311 0.051670 0.000000
0.197361 0.051670 0.000000
0.234034 0.051670 0.000000
0.270866 0.051670 0.000000
0.306556 0.051670 0.000000
0.343909 0.051670 0.000000
0.375391 0.051670 0.000000
0.418168 0.051670 0.000000
0.471676 0.051670 0.000000
0.523910 0.051670 0.000000
0.599318 0.051670 0.000000
0.680584 0.051670 0.000000
0.763113 0.051670 0.000000
0.843446 0.051670 0.000000
0.890116 0.051670 0.000000
0.921601 0.051670 0.000000
0.951815 0.051670 0.000000
0.962247 0.051670 0.000000
0.970136 0.051670 0.000000
0.987316 0.051670 0.000000
1.000000 0.051670 0.000000
0.000000 0.076323 0.000000
0.000000 0.076323 0.000000
0.000000 0.076323 0.000000
0.001712 0.076323 0.000000
0.015962 0.076323 0.000000
0.019608 0.076323 0.000000
0.022928 0.076323 0.000000
0.027786 0.076323 0.000000
0.046615 0.076323 0.000000
0.066312 0.076323 0.000000
0.098051 0.076323 0.000000
0.133038 0.076323 0.000000
0.165311 0.076323 0.000000
0.197361 0.076323 0.000000
0.234034 0.076323 0.000000
0.270866 0.076323 0.000000
0.306556 0.076323 0.000000
0.343909 0.076323 0.000000
0.375391 0.076323 0.000000
0.418168 0.076323 0.000000
0.471676 0.076323 0.000000
0.523910 0.076323 0.000000
0.599318 0.076323 0.000000
0.680584 0.076323 0.000000
0.763113 0.076323 0.000000
0.843446 0.076323 0.000000
0.890116 0.076323 0.000000
0.921601 0.076323 0.000000
0.951815 0.076323 0.000000
0.962247 0.076323 0.000000
0.970136 0.076323 0.000000
0.987316 0.076323 0.000000
1.000000 0.076323 0.000000
0.000000 0.108081 0.000000
0.000000 0.108081 0.000000
0.000000 0.108081 0.000000
0.001712 0.108081 0.000000
0.015962 0.108081 0.000000
0.019608 0.108081 0.000000
0.022928 0.108081 0.000000
0.027786 0.108081 0.000000
0.046615 0.108081 0.000000
0.066312 0.108081 0.000000
0.098051 0.108081 0.000000
0.133038 0.108081 0.000000
0.165311 0.108081 0.000000
0.197361 0.108081 0.000000
0.234034 0.108081 0.000000
0.270866 0.108081 0.000000
0.306556 0.108081 0.000000
0.343909 0.108081 0.000000
0.375391 0.108081 0.000000
0.418168 0.108081 0.000000
0.471676 0.108081 0.000000
0.523910 0.108081 0.000000
0.599318 0.108081 0.000000
0.680584 0.108081 0.000000
0.763113 0.108081 0.000000
0.843446 0.108081 0.000000
0.890116 0.108081 0.000000
0.921601 0.108081 0.000000
0.951815 0.108081 0.000000
0.962247 0.108081 0.000000
0.970136 0.108081 0.000000
0.987316 0.108081 0.000000
1.000000 0.108081 0.000000
0.000000 0.143624 0.000000
0.000000 0.143624 0.000000
0.000000 0.143624 0.000000
0.001712 0.143624 0.000000
0.015962 0.143624 0.000000
0.019608 0.143624 0.000000
0.022928 0.143624 0.000000
0.027786 0.143624 0.000000
0.046615 0.143624 0.000000
0.066312 0.143624 0.000000
0.098051 0.143624 0.000000
0.133038 0.143624 0.000000
0.165311 0.143624 0.000000
0.197361 0.143624 0.000000
0.234034 0.143624 0.000000
0.270866 0.143624 0.000000
0.306556 0.143624 0.000000
0.343909 0.143624 0.000000
0.375391 0.143624 0.000000
0.418168 0.143624 0.000000
0.471676 0.143624 0.000000
0.523910 0.143624 0.000000
0.599318 0.143624 0.000000
0.680584 0.143624 0.000000
0.763113 0.143624 0.000000
0.843446 0.143624 0.000000
0.890116 0.143624 0.000000
0.921601 0.143624 0.000000
0.951815 0.143624 0.000000
0.962247 0.143624 0.000000
0.970136 0.143624 0.000000
0.987316 0.143624 0.000000
1.000000 0.143624 0.000000
0.000000 0.177367 0.000000
0.000000 0.177367 0.000000
0.000000 0.177367 0.000000
0.001712 0.177367 0.000000
0.015962 0.177367 0.000000
0.019608 0.177367 0.000000
0.022928 0.177367 0.000000
0.027786 0.177367 0.000000
0.046615 0.177367 0.000000
0.066312 0.177367 0.000000
0.098051 0.177367 0.000000
0.133038 0.177367 0.000000
0.165311 0.177367 0.000000
0.197361 0.177367 0.000000
0.234034 0.177367 0.000000
0.270866 0.177367 0.000000
0.306556 0.177367 0.000000
0.343909 0.177367 0.000000
0.375391 0.177367 0.000000
0.418168 0.177367 0.000000
0.471676 0.177367 0.000000
0.523910 0.177367 0.000000
0.599318 0.177367 0.000000
0.680584 0.177367 0.000000
0.763113 0.177367 0.000000
0.843446 0.177367 0.000000
0.890116 0.177367 0.000000
0.921601 0.177367 0.000000
0.951815 0.177367 0.000000
0.962247 0.177367 0.000000
0.970136 0.177367 0.000000
0.987316 0.177367 0.000000
1.000000 0.177367 0.000000
0.000000 0.214578 0.000000
0.000000 0.214578 0.000000
0.000000 0.214578 0.000000
0.001712 0.214578 0.000000
0.015962 0.214578 0.000000
0.019608 0.214578 0.000000
0.022928 0.214578 0.000000
0.027786 0.214578 0.000000
0.046615 0.214578 0.000000
0.066312 0.214578 0.000000
0.098051 0.214578 0.000000
0.133038 0.214578 0.000000
0.165311 0.214578 0.000000
0.197361 0.214578 0.000000
0.234034 0.214578 0.000000
0.270866 0.214578 0.000000
0.306556 0.214578 0.000000
0.343909 0.214578 0.000000
0.375391 0.214578 0.000000
0.418168 0.214578 0.000000
0.471676 0.214578 0.000000
0.523910 0.214578 0.000000
0.599318 0.214578 0.000000
0.680584 0.214578 0.000000
0.763113 0.214578 0.000000
0.843446 0.214578 0.000000
0.890116 0.214578 0.000000
0.921601 0.214578 0.000000
0.951815 0.214578 0.000000
0.962247 0.214578 0.000000
0.970136 0.214578 0.000000
0.987316 0.214578 0.000000
1.000000 0.214578 0.000000
0.000000 0.252095 0.000000
0.000000 0.252095 0.000000
0.000000 0.252095 0.000000
0.001712 0.252095 0.000000
0.015962 0.252095 0.000000
0.019608 0.252095 0.000000
0.022928 0.252095 0.000000
0.027786 0.252095 0.000000
0.046615 0.252095 0.000000
0.066312 0.252095 0.000000
0.098051 0.252095 0.000000
0.133038 0.252095 0.000000
0.165311 0.252095 0.000000
0.197361 0.252095 0.000000
0.234034 0.252095 0.000000
0.270866 0.252095 0.000000
0.306556 0.252095 0.000000
0.343909 0.252095 0.000000
0.375391 0.252095 0.000000
0.418168 0.252095 0.000000
0.471676 0.252095 0.000000
0.523910 0.252095 0.000000
0.599318 0.252095 0.000000
0.680584 0.252095 0.000000
0.763113 0.252095 0.000000
0.843446 0.252095 0.000000
0.890116 0.252095 0.000000
0.921601 0.252095 0.000000
0.951815 0.252095 0.000000
0.962247 0.252095 0.000000
0.970136 0.252095 0.000000
0.987316 0.252095 0.000000
1.000000 0.252095 0.000000
0.000000 0.286613 0.000000
0.000000 0.286613 0.000000
0.000000 0.286613 0.000000
0.001712 0.286613 0.000000
0.015962 0.286613 0.000000
0.019608 0.286613 0.000000
0.022928 0.286613 0.000000
0.027786 0.286613 0.000000
0.046615 0.286613 0.000000
0.066312 0.286613 0.000000
0.098051 0.286613 0.000000
0.133038 0.286613 0.000000
0.165311 0.286613 0.000000
0.197361 0.286613 0.000000
0.234034 0.286613 0.000000
0.270866 0.286613 0.000000
0.306556 0.286613 0.000000
0.343909 0.286613 0.000000
0.375391 0.286613 0.000000
0.418168 0.286613 0.000000
0.471676 0.286613 0.000000
0.523910 0.286613 0.000000
0.599318 0.286613 0.000000
0.680584 0.286613 0.000000
0.763113 0.286613 0.000000
0.843446 0.286613 0.000000
0.890116 0.286613 0.000000
0.921601 0.286613 0.000000
0.951815 0.286613 0.000000
0.962247 0.286613 0.000000
0.970136 0.286613 0.000000
0.987316 0.286613 0.000000
1.000000 0.286613 0.000000
0.000000 0.320711 0.000000
0.000000 0.320711 0.000000
0.000000 0.320711 0.000000
0.001712 0.320711 0.000000
0.015962 0.320711 0.000000
0.019608 0.320711 0.000000
0.022928 0.320711 0.000000
0.027786 0.320711 0.000000
0.046615 0.320711 0.000000
0.066312 0.320711 0.000000
0.098051 0.320711 0.000000
0.133038 0.320711 0.000000
0.165311 0.320711 0.000000
0.197361 0.320711 0.000000
0.234034 0.320711 0.000000
0.270866 0.320711 0.000000
0.306556 0.320711 0.000000
0.343909 0.320711 0.000000
0.375391 0.320711 0.000000
0.418168 0.320711 0.000000
0.471676 0.320711 0.000000
0.523910 0.320711 0.000000
0.599318 0.320711 0.000000
0.680584 0.320711 0.000000
0.763113 0.320711 0.000000
0.843446 0.320711 0.000000
0.890116 0.320711 0.000000
0.921601 0.320711 0.000000
0.951815 0.320711 0.000000
0.962247 0.320711 0.000000
0.970136 0.320711 0.000000
0.987316 0.320711 0.000000
1.000000 0.320711 0.000000
0.000000 0.357587 0.000000
0.000000 0.357587 0.000000
0.000000 0.357587 0.000000
0.001712 0.357587 0.000000
0.015962 0.357587 0.000000
0.019608 0.357587 0.000000
0.022928 0.357587 0.000000
0.027786 0.357587 0.000000
0.046615 0.357587 0.000000
0.066312 0.357587 0.000000
0.098051 0.357587 0.000000
0.133038 0.357587 0.000000
0.165311 0.357587 0.000000
0.197361 0.357587 0.000000
0.234034 0.357587 0.000000
0.270866 0.357587 0.000000
0.306556 0.357587 0.000000
0.343909 0.357587 0.000000
0.375391 0.357587 0.000000
0.418168 0.357587 0.000000
0.471676 0.357587 0.000000
0.523910 0.357587 0.000000
0.599318 0.357587 0.000000
0.680584 0.357587 0.000000
0.763113 0.357587 0.000000
0.843446 0.357587 0.000000
0.890116 0.357587 0.000000
0.921601 0.357587 0.000000
0.951815 0.357587 0.000000
0.962247 0.357587 0.000000
0.970136 0.357587 0.000000
0.987316 0.357587 0.000000
1.000000 0.357587 0.000000
0.000000 0.388404 0.000000
0.000000 0.388404 0.000000
0.000000 0.388404 0.000000
0.001712 0.388404 0.000000
0.015962 0.388404 0.000000
0.019608 0.388404 0.000000
0.022928 0.388404 0.000000
0.027786 0.388404 0.000000
0.046615 0.388404 0.000000
0.066312 0.388404 0.000000
0.098051 0.388404 0.000000
0.133038 0.388404 0.000000
0.165311 0.388404 0.000000
0.197361 0.388404 0.000000
0.234034 0.388404 0.000000
0.270866 0.388404 0.000000
0.306556 0.388404 0.000000
0.343909 0.388404 0.000000
0.375391 0.388404 0.000000
0.418168 0.388404 0.000000
0.471676 0.388404 0.000000
0.523910 0.388404 0.000000
0.599318 0.388404 0.000000
0.680584 0.388404 0.000000
0.763113 0.388404 0.000000
0.843446 0.388404 0.000000
0.890116 0.388404 0.000000
0.921601 0.388404 0.000000
0.951815 0.388404 0.000000
0.962247 0.388404 0.000000
0.970136 0.388404 0.000000
0.987316 0.388404 0.000000
1.000000 0.388404 0.000000
0.000000 0.430187 0.000000
0.000000 0.430187 0.000000
0.000000 0.430187 0.000000
0.001712 0.430187 0.000000
0.015962 0.430187 0.000000
0.019608 0.430187 0.000000
0.022928 0.430187 0.000000
0.027786 0.430187 0.000000
0.046615 0.430187 0.000000
0.066312 0.430187 0.000000
0.098051 0.430187 0.000000
0.133038 0.430187 0.000000
0.165311 0.430187 0.000000
0.197361 0.430187 0.000000
0.234034 0.430187 0.000000
0.270866 0.430187 0.000000
0.306556 0.430187 0.000000
0.343909 0.430187 0.000000
0.375391 0.430187 0.000000
0.418168 0.430187 0.000000
0.471676 0.430187 0.000000
0.523910 0.430187 0.000000
0.599318 0.430187 0.000000
0.680584 0.430187 0.000000
0.763113 0.430187 0.000000
0.843446 0.430187 0.000000
0.890116 0.430187 0.000000
0.921601 0.430187 0.000000
0.951815 0.430187 0.000000
0.962247 0.430187 0.000000
0.970136 0.430187 0.000000
0.987316 0.430187 0.000000
1.000000 0.430187 0.000000
0.000000 0.478209 0.000000
0.000000 0.478209 0.000000
0.000000 0.478209 0.000000
0.001712 0.478209 0.000000
0.015962 0.478209 0.000000
0.019608 0.478209 0.000000
0.022928 0.478209 0.000000
0.027786 0.478209 0.000000
0.046615 0.478209 0.000000
0.066312 0.478209 0.000000
0.098051 0.478209 0.000000
0.133038 0.478209 0.000000
0.165311 0.478209 0.000000
0.197361 0.478209 0.000000
0.234034 0.478209 0.000000
0.270866 0.478209 0.000000
0.306556 0.478209 0.000000
0.343909 0.478209 0.000000
0.375391 0.478209 0.000000
0.418168 0.478209 0.000000
0.471676 0.478209 0.000000
0.523910 0.478209 0.000000
0.599318 0.478209 0.000000
0.680584 0.478209 0.000000
0.763113 0.478209 0.000000
0.843446 0.478209 0.000000
0.890116 0.478209 0.000000
0.921601 0.478209 0.000000
0.951815 0.478209 0.000000
0.962247 0.478209 0.000000
0.970136 0.478209 0.000000
0.987316 0.478209 0.000000
1.000000 0.478209 0.000000
0.000000 0.521019 0.000000
0.000000 0.521019 0.000000
0.000000 0.521019 0.000000
0.001712 0.521019 0.000000
0.015962 0.521019 0.000000
0.019608 0.521019 0.000000
0.022928 0.521019 0.000000
0.027786 0.521019 0.000000
0.046615 0.521019 0.000000
0.066312 0.521019 0.000000
0.098051 0.521019 0.000000
0.133038 0.521019 0.000000
0.165311 0.521019 0.000000
0.197361 0.521019 0.000000
0.234034 0.521019 0.000000
0.270866 0.521019 0.000000
0.306556 0.521019 0.000000
0.343909 0.521019 0.000000
0.375391 0.521019 0.000000
0.418168 0.521019 0.000000
0.471676 0.521019 0.000000
0.523910 0.521019 0.000000
0.599318 0.521019 0.000000
0.680584 0.521019 0.000000
0.763113 0.521019 0.000000
0.843446 0.521019 0.000000
0.890116 0.521019 0.000000
0.921601 0.521019 0.000000
0.951815 0.521019 0.000000
0.962247 0.521019 0.000000
0.970136 0.521019 0.000000
0.987316 0.521019 0.000000
1.000000 0.521019 0.000000
0.000000 0.561156 0.000000
0.000000 0.561156 0.000000
0.000000 0.561156 0.000000
0.001712 0.561156 0.000000
0.015962 0.561156 0.000000
0.019608 0.561156 0.000000
0.022928 0.561156 0.000000
0.027786 0.561156 0.000000
0.046615 0.561156 0.000000
0.066312 0.561156 0.000000
0.098051 0.561156 0.000000
0.133038 0.561156 0.000000
0.165311 0.561156 0.000000
0.197361 0.561156 0.000000
0.234034 0.561156 0.000000
0.270866 0.561156 0.000000
0.306556 0.561156 0.000000
0.343909 0.561156 0.000000
0.375391 0.561156 0.000000
0.418168 0.561156 0.000000
0.471676 0.561156 0.000000
0.523910 0.561156 0.000000
0.599318 0.561156 0.000000
0.680584 0.561156 0.000000
0.763113 0.561156 0.000000
0.843446 0.561156 0.000000
0.890116 0.561156 0.000000
0.921601 0.561156 0.000000
0.951815 0.561156 0.000000
0.962247 0.561156 0.000000
0.970136 0.561156 0.000000
0.987316 0.561156 0.000000
1.000000 0.561156 0.000000
0.000000 0.600119 0.000000
0.000000 0.600119 0.000000
0.000000 0.600119 0.000000
0.001712 0.600119 0.000000
0.015962 0.600119 0.000000
0.019608 0.600119 0.000000
0.022928 0.600119 0.000000
0.027786 0.600119 0.000000
0.046615 0.600119 0.000000
0.066312 0.600119 0.000000
0.098051 0.600119 0.000000
0.133038 0.600119 0.000000
0.165311 0.600119 0.000000
0.197361 0.600119 0.000000
0.234034 0.600119 0.000000
0.270866 0.600119 0.000000
0.306556 0.600119 0.000000
0.343909 0.600119 0.000000
0.375391 0.600119 0.000000
0.418168 0.600119 0.000000
0.471676 0.600119 0.000000
0.523910 0.600119 0.000000
0.599318 0.600119 0.000000
0.680584 0.600119 0.000000
0.763113 0.600119 0.000000
0.843446 0.600119 0.000000
0.890116 0.600119 0.000000
0.921601 0.600119 0.000000
0.951815 0.600119 0.000000
0.962247 0.600119 0.000000
0.970136 0.600119 0.000000
0.987316 0.600119 0.000000
1.000000 0.600119 0.000000
0.000000 0.663312 0.000000
0.000000 0.663312 0.000000
0.000000 0.663312 0.000000
0.001712 0.663312 0.000000
0.015962 0.663312 0.000000
0.019608 0.663312 0.000000
0.022928 0.663312 0.000000
0.027786 0.663312 0.000000
0.046615 0.663312 0.000000
0.066312 0.663312 0.000000
0.098051 0.663312 0.000000
0.133038 0.663312 0.000000
0.165311 0.663312 0.000000
0.197361 0.663312 0.000000
0.234034 0.663312 0.000000
0.270866 0.663312 0.000000
0.306556 0.663312 0.000000
0.343909 0.663312 0.000000
0.375391 0.663312 0.000000
0.418168 0.663312 0.000000
0.471676 0.663312 0.000000
0.523910 0.663312 0.000000
0.599318 0.663312 0.000000
0.680584 0.663312 0.000000
0.763113 0.663312 0.000000
0.843446 0.663312 0.000000
0.890116 0.663312 0.000000
0.921601 0.663312 0.000000
0.951815 0.663312 0.000000
0.962247 0.663312 0.000000
0.970136 0.663312 0.000000
0.987316 0.663312 0.000000
1.000000 0.663312 0.000000
0.000000 0.725578 0.000000
0.000000 0.725578 0.000000
0.000000 0.725578 0.000000
0.001712 0.725578 0.000000
0.015962 0.725578 0.000000
0.019608 0.725578 0.000000
0.022928 0.725578 0.000000
0.027786 0.725578 0.000000
0.046615 0.725578 0.000000
0.066312 0.725578 0.000000
0.098051 0.725578 0.000000
0.133038 0.725578 0.000000
0.165311 0.725578 0.000000
0.197361 0.725578 0.000000
0.234034 0.725578 0.000000
0.270866 0.725578 0.000000
0.306556 0.725578 0.000000
0.343909 0.725578 0.000000
0.375391 0.725578 0.000000
0.418168 0.725578 0.000000
0.471676 0.725578 0.000000
0.523910 0.725578 0.000000
0.599318 0.725578 0.000000
0.680584 0.725578 0.000000
0.763113 0.725578 0.000000
0.843446 0.725578 0.000000
0.890116 0.725578 0.000000
0.921601 0.725578 0.000000
0.951815 0.725578 0.000000
0.962247 0.725578 0.000000
0.970136 0.725578 0.000000
0.987316 0.725578 0.000000
1.000000 0.725578 0.000000
0.000000 0.773081 0.000000
0.000000 0.773081 0.000000
0.000000 0.773081 0.000000
0.001712 0.773081 0.000000
0.015962 0.773081 0.000000
0.019608 0.773081 0.000000
0.022928 0.773081 0.000000
0.027786 0.773081 0.000000
0.046615 0.773081 0.000000
0.066312 0.773081 0.000000
0.098051 0.773081 0.000000
0.133038 0.773081 0.000000
0.165311 0.773081 0.000000
0.197361 0.773081 0.000000
0.234034 0.773081 0.000000
0.270866 0.773081 0.000000
0.306556 0.773081 0.000000
0.343909 0.773081 0.000000
0.375391 0.773081 0.000000
0.418168 0.773081 0.000000
0.471676 0.773081 0.000000
0.523910 0.773081 0.000000
0.599318 0.773081 0.000000
0.680584 0.773081 0.000000
