supercar-experience/09-campaign-ads/_grade/luts/AK_NQ_Signature.cube
# AK_NQ_Signature
# Grade copied from a reference by per-channel histogram matching.
TITLE "AK_NQ_Signature"
LUT_3D_SIZE 5
DOMAIN_MIN 0.0 0.0 0.0
DOMAIN_MAX 1.0 1.0 1.0
0.000000 0.000000 0.000000
0.046615 0.000000 0.000000
0.306556 0.000000 0.000000
0.763113 0.000000 0.000000
1.000000 0.000000 0.000000
0.000000 0.051670 0.000000
0.046615 0.051670 0.000000
0.306556 0.051670 0.000000
0.763113 0.051670 0.000000
1.000000 0.051670 0.000000
0.000000 0.320711 0.000000
0.046615 0.320711 0.000000
0.306556 0.320711 0.000000
0.763113 0.320711 0.000000
1.000000 0.320711 0.000000
0.000000 0.663312 0.000000
0.046615 0.663312 0.000000
0.306556 0.663312 0.000000
0.763113 0.663312 0.000000
1.000000 0.663312 0.000000
0.000000 1.000000 0.000000
0.046615 1.000000 0.000000
0.306556 1.000000 0.000000
0.763113 1.000000 0.000000
1.000000 1.000000 0.000000
0.000000 0.000000 0.056235
0.046615 0.000000 0.056235
0.306556 0.000000 0.056235
0.763113 0.000000 0.056235
1.000000 0.000000 0.056235
0.000000 0.051670 0.056235
0.046615 0.051670 0.056235
0.306556 0.051670 0.056235
0.763113 0.051670 0.056235
1.000000 0.051670 0.056235
0.000000 0.320711 0.056235
0.046615 0.320711 0.056235
0.306556 0.320711 0.056235
0.763113 0.320711 0.056235
1.000000 0.320711 0.056235
0.000000 0.663312 0.056235
0.046615 0.663312 0.056235
0.306556 0.663312 0.056235
0.763113 0.663312 0.056235
1.000000 0.663312 0.056235
0.000000 1.000000 0.056235
0.046615 1.000000 0.056235
0.306556 1.000000 0.056235
0.763113 1.000000 0.056235
1.000000 1.000000 0.056235
0.000000 0.000000 0.317616
0.046615 0.000000 0.317616
0.306556 0.000000 0.317616
0.763113 0.000000 0.317616
1.000000 0.000000 0.317616
0.000000 0.051670 0.317616
0.046615 0.051670 0.317616
0.306556 0.051670 0.317616
0.763113 0.051670 0.317616
1.000000 0.051670 0.317616
0.000000 0.320711 0.317616
0.046615 0.320711 0.317616
0.306556 0.320711 0.317616
0.763113 0.320711 0.317616
1.000000 0.320711 0.317616
0.000000 0.663312 0.317616
0.046615 0.663312 0.317616
0.306556 0.663312 0.317616
0.763113 0.663312 0.317616
1.000000 0.663312 0.317616
0.000000 1.000000 0.317616
0.046615 1.000000 0.317616
0.306556 1.000000 0.317616
0.763113 1.000000 0.317616
1.000000 1.000000 0.317616
0.000000 0.000000 0.616468
0.046615 0.000000 0.616468
0.306556 0.000000 0.616468
0.763113 0.000000 0.616468
1.000000 0.000000 0.616468
0.000000 0.051670 0.616468
0.046615 0.051670 0.616468
0.306556 0.051670 0.616468
0.763113 0.051670 0.616468
1.000000 0.051670 0.616468
0.000000 0.320711 0.616468
0.046615 0.320711 0.616468
0.306556 0.320711 0.616468
0.763113 0.320711 0.616468
1.000000 0.320711 0.616468
0.000000 0.663312 0.616468
0.046615 0.663312 0.616468
0.306556 0.663312 0.616468
0.763113 0.663312 0.616468
1.000000 0.663312 0.616468
0.000000 1.000000 0.616468
0.046615 1.000000 0.616468
0.306556 1.000000 0.616468
0.763113 1.000000 0.616468
1.000000 1.000000 0.616468
0.000000 0.000000 1.000000
0.046615 0.000000 1.000000
0.306556 0.000000 1.000000
0.763113 0.000000 1.000000
1.000000 0.000000 1.000000
0.000000 0.051670 1.000000
0.046615 0.051670 1.000000
0.306556 0.051670 1.000000
0.763113 0.051670 1.000000
1.000000 0.051670 1.000000
0.000000 0.320711 1.000000
0.046615 0.320711 1.000000
0.306556 0.320711 1.000000
0.763113 0.320711 1.000000
1.000000 0.320711 1.000000
0.000000 0.663312 1.000000
0.046615 0.663312 1.000000
0.306556 0.663312 1.000000
0.763113 0.663312 1.000000
1.000000 0.663312 1.000000
0.000000 1.000000 1.000000
0.046615 1.000000 1.000000
0.306556 1.000000 1.000000
0.763113 1.000000 1.000000
1.000000 1.000000 1.000000
