creator-kit/luts/AK_Film_Halation.cube
# AK_Film_Halation
# Faded film emulation. Lifted matte blacks, cool shadows, warm highlights, gentle contrast. The most 'edited' look in the pack.
# Best for: Montages, B-roll, transitions, anything cut to music.
# Apply AFTER a D-Log M -> Rec.709 conversion, not instead of one.
TITLE "AK_Film_Halation"
LUT_3D_SIZE 9
DOMAIN_MIN 0.0 0.0 0.0
DOMAIN_MAX 1.0 1.0 1.0
0.042000 0.043923 0.067121
0.133259 0.043776 0.066020
0.252996 0.044125 0.065089
0.379566 0.045141 0.064717
0.508973 0.046904 0.065029
0.622801 0.050288 0.066866
0.719866 0.055027 0.070101
0.833058 0.061287 0.074944
0.893040 0.066440 0.078998
0.042000 0.144062 0.063750
0.134434 0.144037 0.062594
0.255168 0.144114 0.062352
0.382780 0.144831 0.062802
0.513239 0.146287 0.063984
0.628988 0.149213 0.067330
0.728748 0.153411 0.072194
0.846939 0.159152 0.078873
0.904167 0.163789 0.083937
0.042000 0.264186 0.061294
0.137109 0.264508 0.060214
0.257833 0.264754 0.059284
0.386486 0.265167 0.060681
0.518016 0.266293 0.062978
0.636230 0.268663 0.068278
0.739204 0.272223 0.075158
0.862712 0.277308 0.084093
0.917191 0.281385 0.090333
0.043412 0.392853 0.060741
0.142444 0.393500 0.059867
0.262146 0.394110 0.059270
0.390918 0.394793 0.058637
0.523594 0.395570 0.062037
0.644696 0.397299 0.069573
0.751146 0.400165 0.078649
0.879831 0.404514 0.090041
0.931248 0.408021 0.097459
0.052448 0.526285 0.062512
0.150666 0.527215 0.061994
0.269290 0.528203 0.061755
0.396901 0.529291 0.061512
0.529863 0.530452 0.061273
0.658114 0.531532 0.066646
0.778122 0.533200 0.072455
0.897751 0.537156 0.096619
0.945912 0.540109 0.105180
0.063744 0.655985 0.066590
0.161287 0.657139 0.066566
0.278850 0.658494 0.066689
0.405316 0.659975 0.066836
0.537083 0.661546 0.067007
0.665776 0.663096 0.067337
0.786835 0.664420 0.074329
0.942440 0.666210 0.081414
0.995893 0.668108 0.087729
0.076961 0.778997 0.072875
0.173775 0.780394 0.073259
0.290319 0.782096 0.073734
0.415685 0.783952 0.074265
0.546303 0.785912 0.074838
0.673883 0.787854 0.075421
0.795506 0.789701 0.076379
0.950782 0.791186 0.084527
0.999387 0.792829 0.091727
0.091407 0.938111 0.080891
0.187430 0.939695 0.081552
0.303019 0.941584 0.082365
0.427356 0.943593 0.083261
0.556899 0.945662 0.084220
0.683427 0.947658 0.085183
0.804076 0.949538 0.086127
0.958041 0.951223 0.087699
1.000000 0.952372 0.095733
0.104897 0.995573 0.089083
0.200259 0.996245 0.089981
0.315050 0.997043 0.091082
0.438526 0.997888 0.092291
0.567170 0.998755 0.093580
0.692817 0.999588 0.094871
0.817957 1.000000 0.096133
0.963681 1.000000 0.097335
1.000000 1.000000 0.099317
0.042000 0.043894 0.166812
0.133184 0.043813 0.166012
0.253186 0.044166 0.164360
0.379848 0.045273 0.162920
0.509350 0.047130 0.162119
0.623363 0.050665 0.162184
0.720697 0.055568 0.163444
0.834392 0.062008 0.166180
0.894138 0.067264 0.168802
0.042000 0.144007 0.163767
0.134524 0.144010 0.163011
0.256008 0.143979 0.161701
0.384477 0.144581 0.160860
0.515853 0.145909 0.160690
0.632246 0.148804 0.162014
0.732774 0.152976 0.164687
0.852758 0.158763 0.169075
0.907151 0.163264 0.172497
0.042000 0.264265 0.160408
0.136710 0.264815 0.159034
0.258102 0.264908 0.157717
0.387746 0.265163 0.157840
0.520314 0.266130 0.158748
0.639369 0.268433 0.161984
0.743197 0.271946 0.166663
0.868153 0.277051 0.173289
0.920015 0.280998 0.177910
0.043764 0.393034 0.158810
0.141427 0.394205 0.156821
0.261727 0.394694 0.155745
0.391415 0.395139 0.154846
0.525125 0.395753 0.156894
0.647218 0.397402 0.162328
0.754586 0.400214 0.169213
0.884344 0.404562 0.178281
0.933706 0.407956 0.184132
0.052908 0.526569 0.159496
0.148879 0.528386 0.156872
0.268153 0.529232 0.156192
0.396679 0.530082 0.155681
0.530594 0.530995 0.155165
0.659856 0.531918 0.159192
0.780828 0.533437 0.163708
0.901383 0.537532 0.183853
0.948026 0.540383 0.190906
0.064307 0.656370 0.162518
0.158619 0.658815 0.159280
0.277010 0.659957 0.159132
0.404390 0.661200 0.159013
0.537110 0.662523 0.158907
0.666735 0.663832 0.158951
0.788758 0.665007 0.164650
0.944978 0.666658 0.170532
0.997138 0.668441 0.175848
0.077418 0.779558 0.167595
0.170414 0.782492 0.164050
0.287807 0.783973 0.164278
0.414087 0.785591 0.164542
0.545658 0.787303 0.164839
0.674168 0.789003 0.165151
0.796680 0.790622 0.165813
0.952475 0.791968 0.172758
1.000000 0.793496 0.178960
0.091547 0.938888 0.174264
0.183444 0.942005 0.170579
0.299882 0.943646 0.171144
0.425133 0.945399 0.171775
0.555628 0.947211 0.172457
0.683085 0.948965 0.173151
0.804620 0.950624 0.173838
0.959064 0.952117 0.175110
1.000000 0.953160 0.182147
0.104691 0.995949 0.181254
0.195752 0.997217 0.177543
0.311392 0.997918 0.178398
0.435781 0.998664 0.179342
0.565377 0.999431 0.180356
0.691952 1.000000 0.181378
0.818002 1.000000 0.182385
0.964261 1.000000 0.183353
1.000000 1.000000 0.185057
0.042000 0.044032 0.284653
0.132776 0.044177 0.284202
0.253017 0.044388 0.283375
0.380191 0.045435 0.281134
0.509807 0.047405 0.278994
0.624044 0.051123 0.276915
0.721703 0.056222 0.275796
0.835999 0.062880 0.275987
0.895460 0.068260 0.276896
0.042000 0.143863 0.282436
0.134828 0.144020 0.282917
0.256022 0.144053 0.281931
0.384778 0.144686 0.280043
0.516267 0.146127 0.278535
0.632917 0.149209 0.277629
0.733775 0.153579 0.277897
0.854276 0.159583 0.279676
0.908437 0.164206 0.281460
0.042000 0.264298 0.279640
0.137071 0.264806 0.279291
0.258281 0.264926 0.278338
0.388999 0.265021 0.276980
0.522728 0.265818 0.276242
0.642791 0.268060 0.276915
0.747641 0.271529 0.278910
0.873998 0.276651 0.282679
0.923121 0.280443 0.285416
0.044189 0.393252 0.276870
0.141785 0.394351 0.275874
0.261171 0.395185 0.274147
0.391850 0.395387 0.272831
0.526805 0.395805 0.273245
0.650115 0.397365 0.276071
0.758596 0.400116 0.280274
0.889426 0.404460 0.286480
0.936507 0.407717 0.290490
0.053464 0.526913 0.276251
0.149367 0.528656 0.274620
0.266714 0.530266 0.272131
0.396249 0.530866 0.271210
0.531312 0.531481 0.270359
0.661790 0.532215 0.272762
0.783924 0.533553 0.275720
0.905500 0.537826 0.290864
0.950454 0.540553 0.296135
0.064987 0.656835 0.278002
0.159231 0.659206 0.275757
0.274633 0.661550 0.272583
0.403114 0.662508 0.272143
0.536980 0.663532 0.271702
0.667726 0.664551 0.271398
0.790910 0.665546 0.275540
0.947797 0.667030 0.279975
0.998523 0.668674 0.284088
0.078214 0.780138 0.281870
0.170872 0.783107 0.279046
0.284621 0.786065 0.275442
0.412002 0.787396 0.275385
0.544718 0.788810 0.275348
0.674348 0.790218 0.275335
0.797931 0.791563 0.275635
0.954337 0.792741 0.281134
1.000000 0.794131 0.286134
0.092448 0.939538 0.287419
0.183627 0.942804 0.284062
0.295944 0.945918 0.280184
0.422293 0.947378 0.280495
0.553934 0.948895 0.280845
0.682510 0.950372 0.281214
0.805111 0.951776 0.281593
0.960157 0.953044 0.282498
1.000000 0.953965 0.288336
0.105679 0.996224 0.293481
0.195626 0.997598 0.289688
0.306826 0.998887 0.285675
0.432314 0.999519 0.286301
0.563054 1.000000 0.286984
0.690748 1.000000 0.287684
0.817693 1.000000 0.288385
0.964842 1.000000 0.289069
1.000000 1.000000 0.290436
0.042000 0.044391 0.408774
0.132546 0.044778 0.408696
0.251710 0.045290 0.408184
0.379962 0.045860 0.407622
0.510303 0.047704 0.404716
0.634587 0.050439 0.401913
0.722791 0.056930 0.396637
0.837730 0.063822 0.394083
0.896883 0.069335 0.393162
0.042000 0.143918 0.407452
0.135361 0.144240 0.409262
0.255469 0.144566 0.408687
0.384753 0.144947 0.407845
0.516716 0.146363 0.405300
0.642822 0.148578 0.403119
0.734859 0.154231 0.399663
0.855912 0.160471 0.398630
0.909821 0.165222 0.398663
0.042000 0.263982 0.405745
0.138600 0.264655 0.406729
0.258633 0.264973 0.407380
0.389137 0.265115 0.406283
0.523117 0.265978 0.404266
0.643497 0.268428 0.402428
0.748713 0.272112 0.401800
0.875541 0.277470 0.402699
0.924468 0.281389 0.403762
0.044913 0.393419 0.403798
0.142344 0.394464 0.403895
0.261551 0.395229 0.403479
0.392125 0.395449 0.402383
0.528365 0.395671 0.401057
0.652993 0.397146 0.400991
0.762693 0.399834 0.402253
0.894474 0.404168 0.405302
0.939344 0.407267 0.407377
0.054064 0.527284 0.401854
0.149895 0.528949 0.401291
0.267155 0.530464 0.400087
0.395610 0.531497 0.398151
0.531885 0.531799 0.396920
0.663673 0.532329 0.397569
0.787056 0.533475 0.398851
0.909641 0.537949 0.408426
0.952938 0.540543 0.411817
0.065720 0.657337 0.402238
0.159892 0.659629 0.401062
0.275153 0.661899 0.399121
0.401542 0.663709 0.396482
0.536642 0.664412 0.395682
0.668595 0.665120 0.394999
0.793027 0.665921 0.397465
0.950562 0.667226 0.400342
0.999885 0.668720 0.403163
0.079072 0.780764 0.404807
0.171656 0.783653 0.403052
0.285006 0.786641 0.400416
0.409560 0.789133 0.397265
0.543509 0.790226 0.396869
0.674343 0.791320 0.396505
0.799079 0.792371 0.396411
0.956137 0.793369 0.400354
1.000000 0.794610 0.404062
0.093419 0.940234 0.409151
0.184525 0.943403 0.406865
0.296092 0.946644 0.403591
0.419041 0.949283 0.400091
0.551913 0.950499 0.400083
0.681692 0.951691 0.400103
0.805441 0.952831 0.400150
0.961172 0.953867 0.400657
1.000000 0.954661 0.405204
0.106743 0.996517 0.414216
0.196616 0.997853 0.411494
0.306699 0.999234 0.407699
0.428386 1.000000 0.404003
0.560357 1.000000 0.404330
0.689253 1.000000 0.404684
0.816918 1.000000 0.405056
0.965327 1.000000 0.405437
1.000000 1.000000 0.406436
0.042000 0.044996 0.535186
0.132535 0.045635 0.535493
0.250576 0.046461 0.535310
0.377619 0.047367 0.535103
0.510055 0.048331 0.534878
0.635232 0.050877 0.531437
0.751616 0.054238 0.528007
0.839535 0.064809 0.517101
0.898366 0.070458 0.514288
0.042000 0.144206 0.534799
0.136145 0.144701 0.537995
0.255119 0.145331 0.537844
0.383192 0.146048 0.537360
0.516697 0.146812 0.536848
0.643416 0.148950 0.533731
0.761532 0.151815 0.530900
0.857618 0.161400 0.522546
0.911264 0.166285 0.520766
0.043323 0.263883 0.534230
0.140420 0.264728 0.536602
0.259225 0.265252 0.538925
0.388511 0.265724 0.538253
0.523292 0.266242 0.537402
0.651935 0.267855 0.534767
0.772127 0.270117 0.532663
0.877152 0.278328 0.527731
0.925873 0.282377 0.527059
0.048862 0.392902 0.533516
0.145272 0.394119 0.535003
0.263250 0.395089 0.536262
0.392502 0.395531 0.536967
0.528644 0.395777 0.535791
0.659448 0.396779 0.533796
0.781864 0.398392 0.532485
0.896003 0.404947 0.531569
0.940717 0.408174 0.531974
0.054870 0.527625 0.532681
0.150560 0.529226 0.533250
0.267669 0.530657 0.533403
0.395986 0.531594 0.532919
0.532264 0.531905 0.531700
0.665417 0.532224 0.530518
0.790101 0.533168 0.530054
0.913668 0.537863 0.533626
0.955397 0.540318 0.535094
0.066487 0.657862 0.531691
0.160583 0.660071 0.531629
0.275753 0.662242 0.531029
0.401957 0.663979 0.529744
0.536071 0.665103 0.527774
0.669282 0.665487 0.526689
0.795015 0.666086 0.527410
0.953168 0.667204 0.528665
1.000000 0.668542 0.530138
0.079968 0.781418 0.532906
0.172476 0.784224 0.532266
0.285734 0.787112 0.530972
0.409880 0.789622 0.528943
0.542031 0.791476 0.526399
0.674119 0.792243 0.525671
0.800056 0.792987 0.525159
0.957802 0.793798 0.527481
1.000000 0.794883 0.529843
0.094434 0.940956 0.535996
0.185462 0.944025 0.534825
0.296937 0.947156 0.532894
0.419164 0.949900 0.530184
0.549589 0.951953 0.527235
0.680621 0.952860 0.526893
0.805565 0.953735 0.526595
0.962058 0.954538 0.526679
1.000000 0.955203 0.529883
0.107853 0.996820 0.540022
0.197649 0.998117 0.538416
0.307638 0.999455 0.535965
0.428265 1.000000 0.532700
0.557327 1.000000 0.529513
0.687475 1.000000 0.529506
0.815615 1.000000 0.529537
0.965680 1.000000 0.529602
1.000000 1.000000 0.530214
0.042000 0.045815 0.655793
0.132750 0.046701 0.656472
0.249694 0.047832 0.656611
0.375555 0.049068 0.656751
0.506759 0.050373 0.656890
0.634981 0.051665 0.657017
0.752364 0.054784 0.653156
0.898894 0.058571 0.649263
0.977053 0.062125 0.646443
0.042000 0.144715 0.656322
0.137133 0.145377 0.660873
0.255002 0.146306 0.661130
0.381890 0.147351 0.660996
0.514162 0.148455 0.660850
0.643423 0.149549 0.660702
0.762229 0.152296 0.657112
0.913688 0.155620 0.653778
0.983675 0.158788 0.651424
0.046319 0.264014 0.656865
0.142420 0.265026 0.660594
0.260026 0.265752 0.664550
0.388122 0.266547 0.664288
0.521668 0.267405 0.663805
0.652173 0.268257 0.663329
0.772759 0.270519 0.660157
0.927868 0.273283 0.657503
0.989994 0.275985 0.655717
0.052941 0.392625 0.657358
0.148354 0.394008 0.660204
0.265131 0.395179 0.663098
0.393092 0.395837 0.665563
0.527995 0.396421 0.664785
0.659828 0.397010 0.663961
0.782425 0.398708 0.661359
0.939637 0.400867 0.659446
0.995231 0.403066 0.658277
0.060072 0.526921 0.657790
0.154763 0.528688 0.659718
0.270671 0.530320 0.661509
0.397696 0.531473 0.662787
0.532627 0.532008 0.663398
0.665808 0.532331 0.662189
0.790643 0.533378 0.660352
0.948899 0.534905 0.659220
0.999367 0.536579 0.658702
0.067239 0.658376 0.658146
0.161261 0.660505 0.659172
0.276341 0.662578 0.659882
0.402449 0.664211 0.660006
0.536394 0.665254 0.659431
0.669738 0.665624 0.658187
0.796741 0.666026 0.657203
0.955464 0.666961 0.656873
1.000000 0.668147 0.657030
0.080846 0.782058 0.658040
0.173279 0.784784 0.658488
0.286447 0.787575 0.658505
0.410496 0.789980 0.657886
0.542294 0.791826 0.656540
0.673684 0.792921 0.654709
0.800795 0.793367 0.653784
0.959234 0.793996 0.654522
1.000000 0.794928 0.655569
0.095426 0.941657 0.659905
0.186380 0.944629 0.659823
0.297764 0.947655 0.659205
0.419893 0.950295 0.657906
0.549688 0.952424 0.655856
0.679359 0.953809 0.653610
0.805469 0.954433 0.652975
0.962762 0.955014 0.652643
1.000000 0.955557 0.654534
0.108940 0.997114 0.662916
0.198660 0.998373 0.662401
0.308558 0.999669 0.661264
0.429086 1.000000 0.659412
0.557212 1.000000 0.656792
0.685522 1.000000 0.654303
0.813846 1.000000 0.654001
0.965878 1.000000 0.653759
1.000000 1.000000 0.653989
0.042000 0.046806 0.768162
0.133163 0.047927 0.769193
0.249059 0.049350 0.769639
0.373793 0.050898 0.770111
0.503822 0.052530 0.770596
0.630895 0.054140 0.771064
0.752129 0.055690 0.771504
0.900007 0.059196 0.767391
0.977548 0.062834 0.763567
0.042498 0.145409 0.769566
0.138282 0.146231 0.775409
0.255096 0.147445 0.776053
0.380855 0.148802 0.776253
0.511950 0.150232 0.776456
0.640061 0.151644 0.776649
0.762283 0.153003 0.776829
0.914616 0.156182 0.772921
0.984084 0.159434 0.769563
0.049382 0.264347 0.771173
0.144533 0.265519 0.776195
0.260994 0.266437 0.781710
0.387956 0.267540 0.781834
0.520324 0.268723 0.781702
0.649677 0.269892 0.781569
0.773081 0.271019 0.781440
0.928617 0.273770 0.777869
0.990321 0.276556 0.775079
0.057035 0.392569 0.772818
0.151498 0.394111 0.776959
0.267130 0.395474 0.781414
0.393858 0.396338 0.785557
0.527580 0.397245 0.785152
0.658262 0.398150 0.784673
0.782931 0.399024 0.784216
0.940235 0.401271 0.781129
0.995490 0.403555 0.778957
0.065236 0.526458 0.774458
0.158976 0.528383 0.777684
0.273738 0.530207 0.781036
0.399530 0.531565 0.783994
0.533178 0.532316 0.786345
0.665235 0.532944 0.785513
0.791108 0.533595 0.784616
0.949373 0.535223 0.782277
0.999572 0.536981 0.780758
0.073433 0.657517 0.776005
0.166464 0.659816 0.778339
0.280371 0.662087 0.780619
0.405243 0.663926 0.782425
0.537930 0.665176 0.783596
0.670079 0.665743 0.783996
0.797213 0.666138 0.782783
0.955979 0.667147 0.781220
1.000000 0.668392 0.780347
0.081685 0.782670 0.777375
0.174047 0.785319 0.778861
0.287129 0.788017 0.780128
0.411085 0.790322 0.780854
0.542787 0.792065 0.780910
0.673941 0.793118 0.780276
0.801301 0.793525 0.779077
0.960429 0.793979 0.778306
1.000000 0.794766 0.778100
0.096375 0.942321 0.778072
0.187257 0.945203 0.779029
0.298554 0.948130 0.779662
0.420590 0.950672 0.779710
0.550288 0.952706 0.779064
0.679482 0.954131 0.777750
0.805180 0.954933 0.776136
0.963287 0.955306 0.775400
1.000000 0.955735 0.776041
0.109978 0.997393 0.780116
0.199626 0.998616 0.780641
0.309436 0.999873 0.780757
0.429870 1.000000 0.780253
0.557897 1.000000 0.779040
0.685455 1.000000 0.777180
0.811690 1.000000 0.775336
0.965932 1.000000 0.774803
1.000000 1.000000 0.774665
0.042000 0.047911 0.913869
0.133728 0.049250 0.915499
0.248650 0.050944 0.916371
0.372335 0.052784 0.917295
0.501272 0.054718 0.918241
0.627277 0.056623 0.919151
0.747492 0.058455 0.920007
0.899720 0.060170 0.920792
0.978005 0.063495 0.916428
0.044628 0.146237 0.916528
0.139530 0.147209 0.924572
0.255363 0.148687 0.925666
0.380073 0.150335 0.926221
0.510073 0.152067 0.926791
0.637115 0.153774 0.927340
0.758317 0.155414 0.927857
0.914747 0.156951 0.928333
0.984462 0.160038 0.924364
0.052409 0.264840 0.919562
0.146676 0.266160 0.926510
0.262074 0.267257 0.933765
0.387982 0.268646 0.934245
0.519254 0.270131 0.934439
0.647537 0.271595 0.934625
0.769920 0.273003 0.934800
0.929054 0.274322 0.934962
0.990624 0.277089 0.931451
0.061020 0.392699 0.922651
0.154598 0.394389 0.928476
0.269166 0.395931 0.934544
0.394750 0.396986 0.940062
0.527374 0.398194 0.940003
0.656984 0.399393 0.939855
0.780631 0.400548 0.939714
0.940789 0.401650 0.939540
0.995730 0.404011 0.936561
0.070215 0.526209 0.925704
0.163070 0.528283 0.930418
0.276767 0.530284 0.935289
0.401413 0.531834 0.939654
0.533868 0.532785 0.943315
0.664853 0.533707 0.942853
0.789811 0.534597 0.942411
0.949814 0.535521 0.941802
0.999762 0.537357 0.939517
0.079379 0.656899 0.928551
0.171524 0.659345 0.932233
0.284366 0.661794 0.935969
0.408091 0.663824 0.939219
0.539583 0.665272 0.941834
0.670569 0.666037 0.943608
0.796800 0.666667 0.942882
0.956330 0.667367 0.941981
1.000000 0.668689 0.940308
0.088262 0.781776 0.931168
0.179726 0.784575 0.933911
0.291748 0.787450 0.936599
0.414590 0.789937 0.938796
0.545161 0.791861 0.940370
0.675239 0.793084 0.941237
0.801618 0.793651 0.941408
0.960809 0.794088 0.940337
1.000000 0.794920 0.939233
0.097259 0.942935 0.933377
0.188073 0.945734 0.935297
0.299290 0.948569 0.937056
0.421239 0.951021 0.938308
0.550846 0.952969 0.938937
0.679952 0.954314 0.938900
0.805373 0.955109 0.938269
0.963652 0.955437 0.937231
1.000000 0.955761 0.936725
0.110944 0.997650 0.934526
0.200525 0.998840 0.936001
0.310254 1.000000 0.937249
0.430601 1.000000 0.937972
0.558536 1.000000 0.938062
0.686003 1.000000 0.937503
0.811745 1.000000 0.936370
0.965865 1.000000 0.935093
1.000000 1.000000 0.934616
0.042000 0.048963 0.981244
0.134330 0.050484 0.982061
0.248443 0.052403 0.982545
0.371257 0.054484 0.983056
0.499285 0.056670 0.983581
0.624403 0.058821 0.984085
0.743771 0.060886 0.984559
0.893444 0.062819 0.984993
0.977862 0.064432 0.985350
0.046530 0.147059 0.982696
0.140699 0.148154 0.986504
0.255718 0.149853 0.987087
0.379555 0.151742 0.987430
0.508646 0.153725 0.987783
0.634800 0.155677 0.988123
0.755154 0.157552 0.988444
0.909895 0.159305 0.988739
0.984504 0.160769 0.988981
0.055055 0.265384 0.984354
0.148588 0.266827 0.987670
0.263102 0.268071 0.991128
0.388135 0.269699 0.991440
0.518497 0.271435 0.991627
0.645890 0.273144 0.991807
0.767425 0.274785 0.991978
0.925535 0.276321 0.992136
0.990801 0.277604 0.992267
0.064462 0.392941 0.986042
0.157305 0.394755 0.988859
0.270989 0.396444 0.991801
0.395621 0.397658 0.994492
0.527334 0.399116 0.994574
0.656054 0.400560 0.994614
0.778852 0.401948 0.994652
0.938408 0.403249 0.994688
0.995929 0.404391 0.994667
0.074481 0.526137 0.987707
0.166601 0.528333 0.990038
0.279413 0.530483 0.992468
0.403108 0.532191 0.994679
0.534572 0.533308 0.996579
0.664667 0.534475 0.996495
0.788775 0.535598 0.996415
0.948461 0.536651 0.996342
0.999919 0.537671 0.996162
0.084449 0.656518 0.989254
0.175859 0.659087 0.991141
0.287815 0.661683 0.993094
0.410588 0.663872 0.994849
0.541087 0.665486 0.996340
0.671106 0.666416 0.997455
0.796487 0.667278 0.997270
0.955689 0.668089 0.997099
1.000000 0.668937 0.996820
0.094095 0.781102 0.990667
0.184824 0.784024 0.992157
0.295959 0.787045 0.993677
0.417849 0.789691 0.995009
0.547426 0.791781 0.996096
0.676533 0.793164 0.996885
0.801992 0.793890 0.997358
0.960653 0.794470 0.997097
1.000000 0.795106 0.996770
0.103166 0.942228 0.991939
0.193258 0.945155 0.993082
0.303627 0.948127 0.994217
0.424689 0.950709 0.995168
0.553402 0.952776 0.995882
0.681663 0.954226 0.996324
0.806305 0.955111 0.996520
0.963836 0.955521 0.996485
1.000000 0.955828 0.996154
0.111748 0.997863 0.992878
0.201273 0.999026 0.993756
0.310935 1.000000 0.994596
0.431208 1.000000 0.995252
0.559067 1.000000 0.995678
0.686459 1.000000 0.995850
0.812616 1.000000 0.995796
0.965947 1.000000 0.995558
1.000000 1.000000 0.995272
