creator-kit/luts/AK_Forest_LARP.cube
# AK_Forest_LARP
# Fantasy woodland grade. Rolls harsh yellow-green foliage toward a deeper cinematic green, cools the shadows, and protects skin tones so faces stay warm against the forest.
# Best for: Outdoor LARP, woodland, costume and character work under tree cover.
# Apply AFTER a D-Log M -> Rec.709 conversion, not instead of one.
TITLE "AK_Forest_LARP"
LUT_3D_SIZE 5
DOMAIN_MIN 0.0 0.0 0.0
DOMAIN_MAX 1.0 1.0 1.0
0.014000 0.018146 0.043913
0.218314 0.014000 0.038767
0.510990 0.014000 0.038677
0.740392 0.017466 0.041968
0.897440 0.022492 0.046743
0.044410 0.226636 0.075293
0.205438 0.228822 0.025040
0.517469 0.210566 0.014000
0.758914 0.203085 0.020664
0.917694 0.201288 0.027979
0.092396 0.509750 0.147937
0.198096 0.505799 0.105794
0.497169 0.522202 0.020739
0.795735 0.506110 0.014000
0.947361 0.494288 0.037106
0.138657 0.775119 0.224100
0.228068 0.769005 0.170193
0.468572 0.782848 0.108659
0.776989 0.801366 0.026201
1.000000 0.785069 0.014000
0.185262 0.984574 0.284390
0.257641 0.981454 0.220412
0.479754 0.987062 0.183538
0.751125 0.995813 0.100901
0.995901 1.000000 0.046532
0.014000 0.016979 0.279411
0.215834 0.014000 0.274774
0.507805 0.014000 0.263856
0.738356 0.017719 0.254875
0.898052 0.025177 0.251904
0.014000 0.231584 0.262209
0.210598 0.228719 0.258100
0.515630 0.220138 0.249129
0.763822 0.215466 0.244213
0.923411 0.217111 0.245550
0.030380 0.522187 0.265191
0.240910 0.513397 0.296055
0.499377 0.521745 0.234790
0.786847 0.490553 0.202854
0.946982 0.468319 0.202015
0.072709 0.789360 0.319484
0.294967 0.781405 0.369846
0.475282 0.778685 0.312517
0.780715 0.802632 0.232097
1.000000 0.774950 0.196274
0.124987 0.991574 0.375897
0.339760 0.988316 0.428559
0.492810 0.984973 0.369340
0.750024 0.994171 0.297658
0.996928 1.000000 0.241421
0.014000 0.016917 0.575989
0.210797 0.015501 0.573890
0.504927 0.014000 0.569466
0.772523 0.017638 0.555607
0.900929 0.034147 0.534435
0.014000 0.229204 0.565607
0.210749 0.227487 0.570990
0.511193 0.224057 0.565728
0.788572 0.225033 0.554703
0.926090 0.236763 0.542686
0.014000 0.524502 0.552022
0.205926 0.525160 0.551686
0.505775 0.522134 0.547198
0.801100 0.515824 0.540738
0.953633 0.511403 0.536016
0.020970 0.800374 0.542557
0.225787 0.801819 0.550396
0.525791 0.787150 0.576995
0.784569 0.802321 0.526022
1.000000 0.771572 0.491029
0.065077 0.996920 0.569176
0.261604 0.997293 0.578814
0.561381 0.989104 0.627797
0.750424 0.989699 0.572275
0.998105 1.000000 0.521811
0.014000 0.018389 0.830820
0.207607 0.018546 0.831012
0.493441 0.018952 0.829055
0.768971 0.019371 0.827273
0.984610 0.024959 0.815057
0.014000 0.228535 0.826724
0.212361 0.227879 0.840880
0.504483 0.226654 0.838559
0.786178 0.225586 0.835338
0.995128 0.229153 0.824646
0.016250 0.520869 0.821755
0.214915 0.522591 0.830173
0.505764 0.521043 0.837839
0.795953 0.517899 0.833182
1.000000 0.518381 0.825345
0.023088 0.800246 0.817879
0.216668 0.804249 0.820881
0.500421 0.805881 0.821050
0.790151 0.803137 0.816819
1.000000 0.798107 0.811184
0.046354 0.998626 0.814802
0.232375 1.000000 0.815063
0.510280 0.999243 0.816716
0.789016 0.995170 0.817918
0.999619 1.000000 0.799897
0.014000 0.020139 0.995513
0.206289 0.021323 0.996120
0.486719 0.023190 0.995992
0.757044 0.025017 0.995905
0.983646 0.026408 0.995862
0.014406 0.228890 0.995510
0.214173 0.228926 1.000000
0.500875 0.229139 1.000000
0.777372 0.229481 1.000000
0.994778 0.229762 1.000000
0.027094 0.519293 0.995743
0.221539 0.521708 1.000000
0.506524 0.521125 1.000000
0.791498 0.519367 1.000000
1.000000 0.518122 1.000000
0.038543 0.796834 0.996252
0.227905 0.801531 0.999220
0.505798 0.804128 1.000000
0.789881 0.802315 1.000000
1.000000 0.799643 1.000000
0.047125 0.998808 0.996741
0.232803 1.000000 0.998405
0.505461 1.000000 0.999310
0.784373 1.000000 0.998761
0.999999 1.000000 0.997395
