creator-kit/luts/AK_Film_Test_Match.cube
# FILM_test
TITLE "FILM_test"
LUT_3D_SIZE 33
DOMAIN_MIN 0.0 0.0 0.0
DOMAIN_MAX 1.0 1.0 1.0
0.015660 0.007971 0.000000
0.015660 0.007971 0.000000
0.080115 0.019354 0.003419
0.124970 0.027304 0.011271
0.164486 0.034334 0.018185
0.200889 0.040841 0.024550
0.235137 0.046995 0.030533
0.267759 0.052895 0.036227
0.299084 0.058603 0.041689
0.329337 0.064163 0.046957
0.358681 0.069609 0.052060
0.387237 0.074968 0.057018
0.415099 0.080261 0.061846
0.442342 0.085505 0.066558
0.469027 0.090713 0.071164
0.495205 0.095897 0.075672
0.520918 0.101064 0.080091
0.546204 0.106217 0.084428
0.571093 0.111358 0.088689
0.595615 0.116484 0.092882
0.619795 0.121590 0.097011
0.643654 0.126668 0.101084
0.667214 0.131711 0.105107
0.690492 0.136707 0.109085
0.713506 0.141648 0.113024
0.736269 0.146525 0.116929
0.758794 0.151329 0.120805
0.781092 0.156054 0.124656
0.803174 0.160698 0.128485
0.825047 0.165259 0.132296
0.846717 0.169735 0.136092
0.868190 0.174130 0.139873
0.889471 0.178447 0.143643
0.015660 0.007971 0.000000
0.015660 0.007971 0.000000
0.080115 0.019354 0.003419
0.124970 0.027304 0.011271
0.164486 0.034334 0.018185
0.200889 0.040841 0.024550
0.235137 0.046995 0.030533
0.267759 0.052895 0.036227
0.299084 0.058603 0.041689
0.329337 0.064163 0.046957
0.358681 0.069609 0.052060
0.387237 0.074968 0.057018
0.415099 0.080261 0.061846
0.442342 0.085505 0.066558
0.469027 0.090713 0.071164
0.495205 0.095897 0.075672
0.520918 0.101064 0.080091
0.546204 0.106217 0.084428
0.571093 0.111358 0.088689
0.595615 0.116484 0.092882
0.619795 0.121590 0.097011
0.643654 0.126668 0.101084
0.667214 0.131711 0.105107
0.690492 0.136707 0.109085
0.713506 0.141648 0.113024
0.736269 0.146525 0.116929
0.758794 0.151329 0.120805
0.781092 0.156054 0.124656
0.803174 0.160698 0.128485
0.825047 0.165259 0.132296
0.846717 0.169735 0.136092
0.868190 0.174130 0.139873
0.889471 0.178447 0.143643
0.044024 0.076426 0.020495
0.044024 0.076426 0.020495
0.087544 0.080362 0.026687
0.127265 0.084608 0.032561
0.164220 0.089002 0.038168
0.199107 0.093476 0.043558
0.232368 0.098000 0.048766
0.264304 0.102556 0.053815
0.295129 0.107140 0.058726
0.325003 0.111749 0.063512
0.354050 0.116383 0.068185
0.382367 0.121042 0.072756
0.410033 0.125727 0.077232
0.437111 0.130437 0.081622
0.463656 0.135170 0.085932
0.489714 0.139919 0.090168
0.515325 0.144678 0.094337
0.540524 0.149438 0.098446
0.565341 0.154188 0.102501
0.589804 0.158918 0.106507
0.613937 0.163614 0.110471
0.637760 0.168265 0.114398
0.661293 0.172863 0.118292
0.684553 0.177398 0.122159
0.707552 0.181864 0.126002
0.730305 0.186257 0.129825
0.752821 0.190576 0.133630
0.775109 0.194819 0.137420
0.797176 0.198989 0.141197
0.819029 0.203089 0.144963
0.840672 0.207122 0.148719
0.862110 0.211094 0.152467
0.883343 0.215008 0.156208
0.063704 0.124400 0.040174
0.063704 0.124400 0.040174
0.101531 0.127774 0.045474
0.137452 0.131368 0.050621
0.171712 0.135117 0.055618
0.204595 0.138991 0.060482
0.236312 0.142967 0.065226
0.267024 0.147034 0.069861
0.296856 0.151179 0.074396
0.325909 0.155395 0.078840
0.354268 0.159674 0.083200
0.381999 0.164006 0.087482
0.409162 0.168382 0.091693
0.435807 0.172790 0.095840
0.461976 0.177217 0.099928
0.487707 0.181650 0.103965
0.513034 0.186075 0.107955
0.537986 0.190479 0.111905
0.562588 0.194848 0.115819
0.586863 0.199173 0.119703
0.610830 0.203445 0.123561
0.634508 0.207656 0.127396
0.657910 0.211803 0.131212
0.681049 0.215884 0.135011
0.703937 0.219898 0.138796
0.726581 0.223847 0.142569
0.748991 0.227734 0.146331
0.771172 0.231561 0.150084
0.793130 0.235335 0.153829
0.814869 0.239058 0.157568
0.836390 0.242736 0.161302
0.857698 0.246374 0.165033
0.878793 0.249977 0.168762
0.080952 0.167150 0.057423
0.080952 0.167150 0.057423
0.115568 0.170361 0.062222
0.148975 0.173756 0.066925
0.181225 0.177296 0.071523
0.212465 0.180962 0.076024
0.242817 0.184738 0.080437
0.272377 0.188610 0.084767
0.301227 0.192563 0.089023
0.329436 0.196584 0.093210
0.357061 0.200656 0.097335
0.384154 0.204763 0.101404
0.410759 0.208891 0.105422
0.436913 0.213022 0.109397
0.462651 0.217142 0.113333
0.488001 0.221238 0.117236
0.512991 0.225298 0.121110
0.537642 0.229313 0.124959
0.561974 0.233276 0.128787
0.586005 0.237184 0.132597
0.609749 0.241033 0.136391
0.633218 0.244824 0.140171
0.656425 0.248557 0.143940
0.679377 0.252236 0.147698
0.702083 0.255863 0.151448
0.724549 0.259442 0.155191
0.746780 0.262979 0.158928
0.768781 0.266476 0.162661
0.790555 0.269939 0.166391
0.812105 0.273371 0.170119
0.833430 0.276777 0.173849
0.854533 0.280162 0.177581
0.875411 0.283528 0.181317
0.096720 0.207201 0.073190
0.096720 0.207201 0.073190
0.129142 0.210407 0.077641
0.160708 0.213770 0.082023
0.191399 0.217258 0.086325
0.221305 0.220852 0.090555
0.250504 0.224533 0.094719
0.279063 0.228283 0.098822
0.307036 0.232084 0.102872
0.334475 0.235916 0.106874
0.361422 0.239764 0.110834
0.387914 0.243609 0.114758
0.413985 0.247439 0.118650
0.439664 0.251242 0.122514
0.464975 0.255007 0.126355
0.489941 0.258729 0.130176
0.514580 0.262403 0.133980
0.538910 0.266026 0.137769
0.562946 0.269599 0.141545
0.586698 0.273122 0.145309
0.610178 0.276597 0.149065
0.633396 0.280029 0.152812
0.656359 0.283419 0.156552
0.679073 0.286772 0.160288
0.701543 0.290092 0.164019
0.723775 0.293382 0.167748
0.745770 0.296648 0.171477
0.767533 0.299892 0.175207
0.789063 0.303118 0.178940
0.810361 0.306329 0.182679
0.831427 0.309530 0.186425
0.852259 0.312722 0.190182
0.872855 0.315910 0.193952
0.111419 0.245641 0.087890
0.111419 0.245641 0.087890
0.142201 0.248880 0.092078
0.172339 0.252238 0.096219
0.201785 0.255680 0.100303
0.230599 0.259185 0.104334
0.258836 0.262733 0.108321
0.286542 0.266305 0.112267
0.313760 0.269885 0.116178
0.340524 0.273456 0.120060
0.366867 0.277008 0.123915
0.392816 0.280531 0.127748
0.418395 0.284017 0.131563
0.443625 0.287463 0.135361
0.468524 0.290867 0.139145
0.493109 0.294227 0.142916
0.517393 0.297544 0.146678
0.541389 0.300821 0.150430
0.565106 0.304061 0.154174
0.588554 0.307266 0.157913
0.611740 0.310439 0.161647
0.634671 0.313586 0.165377
0.657351 0.316708 0.169106
0.679786 0.319809 0.172835
0.701978 0.322893 0.176566
0.723929 0.325963 0.180301
0.745642 0.329022 0.184042
0.767115 0.332073 0.187792
0.788348 0.335118 0.191553
0.809341 0.338162 0.195328
0.830090 0.341205 0.199120
0.850593 0.344251 0.202932
0.870845 0.347302 0.206768
0.125321 0.282866 0.101792
0.125321 0.282866 0.101792
0.154820 0.286074 0.105791
0.183821 0.289347 0.109762
0.212257 0.292652 0.113695
0.240172 0.295973 0.117594
0.267604 0.299293 0.121466
0.294589 0.302601 0.125313
0.321154 0.305887 0.129139
0.347326 0.309145 0.132947
0.373129 0.312369 0.136740
0.398581 0.315557 0.140519
0.423701 0.318710 0.144287
0.448503 0.321827 0.148045
0.473001 0.324910 0.151794
0.497206 0.327962 0.155536
0.521128 0.330986 0.159273
0.544777 0.333983 0.163005
0.568159 0.336959 0.166735
0.591281 0.339915 0.170463
0.614147 0.342855 0.174193
0.636763 0.345782 0.177925
0.659130 0.348698 0.181662
0.681251 0.351606 0.185406
0.703127 0.354509 0.189159
0.724759 0.357409 0.192925
0.746145 0.360309 0.196706
0.767283 0.363211 0.200505
0.788173 0.366117 0.204326
0.808809 0.369029 0.208172
0.829188 0.371950 0.212045
0.849304 0.374883 0.215952
0.869153 0.377829 0.219894
0.138663 0.318821 0.115133
0.138663 0.318821 0.115133
0.167135 0.321878 0.119007
0.195212 0.324954 0.122869
0.222815 0.328025 0.126708
0.249977 0.331081 0.130527
0.276725 0.334114 0.134330
0.303083 0.337122 0.138117
0.329072 0.340101 0.141892
0.354712 0.343051 0.145656
0.380019 0.345972 0.149410
0.405007 0.348866 0.153157
0.429689 0.351734 0.156897
0.454077 0.354580 0.160632
0.478179 0.357406 0.164363
0.502004 0.360214 0.168092
0.525559 0.363007 0.171821
0.548851 0.365788 0.175551
0.571884 0.368560 0.179285
0.594662 0.371324 0.183024
0.617187 0.374083 0.186771
0.639463 0.376840 0.190529
0.661488 0.379596 0.194300
0.683265 0.382353 0.198087
0.704791 0.385114 0.201894
0.726066 0.387880 0.205723
0.747085 0.390654 0.209578
0.767846 0.393437 0.213464
0.788344 0.396232 0.217383
0.808575 0.399041 0.221339
0.828532 0.401865 0.225338
0.848208 0.404708 0.229382
0.867596 0.407571 0.233477
0.151645 0.353293 0.128116
0.151645 0.353293 0.128116
0.179275 0.356113 0.131914
0.206580 0.358929 0.135710
0.233478 0.361726 0.139493
0.259990 0.364500 0.143264
0.286136 0.367253 0.147024
0.311936 0.369982 0.150775
0.337403 0.372691 0.154519
0.362551 0.375380 0.158257
0.387394 0.378051 0.161991
0.411941 0.380708 0.165721
0.436201 0.383351 0.169450
0.460183 0.385984 0.173179
0.483893 0.388609 0.176910
0.507338 0.391227 0.180645
0.530522 0.393841 0.184387
0.553447 0.396453 0.188138
0.576118 0.399065 0.191900
0.598536 0.401678 0.195677
0.620701 0.404293 0.199471
0.642613 0.406914 0.203285
0.664272 0.409541 0.207123
0.685674 0.412177 0.210989
0.706818 0.414822 0.214886
0.727699 0.417479 0.218818
0.748312 0.420150 0.222790
0.768654 0.422836 0.226804
0.788717 0.425540 0.230867
0.808495 0.428264 0.234981
0.827980 0.431010 0.239152
0.847166 0.433781 0.243383
0.866044 0.436578 0.247679
0.164411 0.386193 0.140882
0.164411 0.386193 0.140882
0.191325 0.388758 0.144634
0.217966 0.391317 0.148391
0.244245 0.393859 0.152139
0.270180 0.396387 0.155881
0.295786 0.398900 0.159617
0.321074 0.401401 0.163349
0.346058 0.403891 0.167078
0.370746 0.406373 0.170807
0.395148 0.408848 0.174537
0.419271 0.411318 0.178269
0.443123 0.413786 0.182007
0.466707 0.416252 0.185751
0.490030 0.418718 0.189506
0.513093 0.421185 0.193273
0.535900 0.423656 0.197056
0.558452 0.426131 0.200857
0.580749 0.428612 0.204680
0.602791 0.431101 0.208527
0.624576 0.433598 0.212404
0.646103 0.436105 0.216314
0.667367 0.438624 0.220259
0.688366 0.441156 0.224246
0.709095 0.443704 0.228278
0.729547 0.446269 0.232358
0.749718 0.448852 0.236493
0.769600 0.451457 0.240685
0.789186 0.454084 0.244939
0.808470 0.456737 0.249260
0.827443 0.459418 0.253652
0.846097 0.462129 0.258119
0.864424 0.464873 0.262663
0.177046 0.417615 0.153517
0.177046 0.417615 0.153517
0.203335 0.419956 0.157241
0.229387 0.422297 0.160976
0.255113 0.424630 0.164707
0.280526 0.426957 0.168436
0.305635 0.429280 0.172165
0.330451 0.431600 0.175895
0.354982 0.433918 0.179629
0.379235 0.436236 0.183369
0.403217 0.438555 0.187117
0.426933 0.440877 0.190876
0.450386 0.443202 0.194648
0.473580 0.445531 0.198437
0.496517 0.447866 0.202246
0.519198 0.450208 0.206077
0.541623 0.452558 0.209935
0.563791 0.454917 0.213823
0.585702 0.457286 0.217746
0.607352 0.459666 0.221706
0.628738 0.462060 0.225708
0.649856 0.464468 0.229757
0.670701 0.466892 0.233857
0.691268 0.469334 0.238012
0.711551 0.471796 0.242226
0.731542 0.474280 0.246504
0.751236 0.476787 0.250851
0.770625 0.479321 0.255269
0.789702 0.481883 0.259764
0.808459 0.484476 0.264338
0.826889 0.487102 0.268995
0.844984 0.489763 0.273737
0.862740 0.492463 0.278567
0.189609 0.447749 0.166079
0.189609 0.447749 0.166079
0.215341 0.449908 0.169793
0.240864 0.452074 0.173522
0.266088 0.454241 0.177254
0.291022 0.456409 0.180990
0.315673 0.458580 0.184732
0.340048 0.460753 0.188484
0.364154 0.462931 0.192248
0.387995 0.465115 0.196026
0.411574 0.467303 0.199821
0.434895 0.469499 0.203638
0.457960 0.471702 0.207479
0.480768 0.473913 0.211347
0.503320 0.476133 0.215247
0.525616 0.478364 0.219183
0.547653 0.480606 0.223158
0.569428 0.482860 0.227177
0.590939 0.485128 0.231244
0.612180 0.487410 0.235363
0.633147 0.489710 0.239539
0.653835 0.492028 0.243776
0.674237 0.494366 0.248079
0.694346 0.496727 0.252451
0.714157 0.499111 0.256897
0.733662 0.501523 0.261420
0.752854 0.503963 0.266024
0.771726 0.506434 0.270711
0.790271 0.508939 0.275485
0.808484 0.511480 0.280348
0.826360 0.514060 0.285300
0.843892 0.516681 0.290342
0.861079 0.519346 0.295475
0.202157 0.476780 0.178628
0.202157 0.476780 0.178628
0.227389 0.478792 0.182351
0.252434 0.480816 0.186097
0.277200 0.482846 0.189853
0.301693 0.484882 0.193621
0.325919 0.486924 0.197405
0.349883 0.488973 0.201208
0.373587 0.491029 0.205033
0.397034 0.493094 0.208884
0.420227 0.495166 0.212763
0.443164 0.497248 0.216676
0.465846 0.499340 0.220625
0.488272 0.501442 0.224616
0.510439 0.503556 0.228652
0.532346 0.505682 0.232737
0.553986 0.507823 0.236877
0.575358 0.509979 0.241074
0.596455 0.512151 0.245335
0.617272 0.514343 0.249662
0.637803 0.516554 0.254061
0.658041 0.518789 0.258534
0.677980 0.521047 0.263086
0.697613 0.523333 0.267720
0.716933 0.525648 0.272439
0.735935 0.527994 0.277245
0.754611 0.530375 0.282140
0.772957 0.532793 0.287125
0.790969 0.535250 0.292200
0.808642 0.537749 0.297366
0.825974 0.540292 0.302620
0.842964 0.542881 0.307962
0.859612 0.545519 0.313387
0.214767 0.504842 0.191238
0.214767 0.504842 0.191238
0.239548 0.506729 0.194997
0.264158 0.508631 0.198788
0.288504 0.510540 0.202598
0.312591 0.512458 0.206432
0.336422 0.514383 0.210292
0.359999 0.516317 0.214184
0.383323 0.518260 0.218109
0.406393 0.520212 0.222073
0.429211 0.522175 0.226080
0.451773 0.524147 0.230133
0.474078 0.526132 0.234238
0.496123 0.528129 0.238398
0.517903 0.530139 0.242618
0.539414 0.532165 0.246902
0.560652 0.534208 0.251255
0.581609 0.536270 0.255680
0.602280 0.538352 0.260182
0.622659 0.540456 0.264764
0.642740 0.542586 0.269428
0.662515 0.544742 0.274179
0.681978 0.546929 0.279017
0.701124 0.549147 0.283944
0.719948 0.551401 0.288962
0.738443 0.553693 0.294071
0.756607 0.556024 0.299269
0.774438 0.558399 0.304555
0.791932 0.560819 0.309927
0.809091 0.563286 0.315382
0.825916 0.565803 0.320915
0.842410 0.568372 0.326522
0.858576 0.570992 0.332195
0.227535 0.532012 0.204006
0.227535 0.532012 0.204006
0.251909 0.533784 0.207834
0.276124 0.535571 0.211705
0.300086 0.537366 0.215609
0.323797 0.539170 0.219548
0.347259 0.540982 0.223527
0.370471 0.542803 0.227550
0.393431 0.544634 0.231621
0.416139 0.546475 0.235746
0.438592 0.548327 0.239927
0.460785 0.550191 0.244170
0.482716 0.552069 0.248479
0.504378 0.553962 0.252858
0.525768 0.555871 0.257310
0.546878 0.557799 0.261841
0.567704 0.559748 0.266452
0.588237 0.561719 0.271148
0.608473 0.563716 0.275930
0.628405 0.565741 0.280800
0.648027 0.567796 0.285761
0.667333 0.569884 0.290812
0.686319 0.572008 0.295953
0.704980 0.574172 0.301183
0.723313 0.576377 0.306501
0.741316 0.578626 0.311904
0.758989 0.580922 0.317387
0.776333 0.583268 0.322948
0.793349 0.585665 0.328580
0.810034 0.588108 0.334271
0.826365 0.590575 0.339986
0.842347 0.593064 0.345717
0.857991 0.595577 0.351454
0.240583 0.558319 0.217054
0.240583 0.558319 0.217054
0.264590 0.559976 0.220991
0.288444 0.561648 0.224986
0.312053 0.563327 0.229026
0.335416 0.565015 0.233116
0.358531 0.566711 0.237261
0.381395 0.568417 0.241464
0.404007 0.570134 0.245731
0.426362 0.571862 0.250065
0.448456 0.573603 0.254470
0.470283 0.575359 0.258950
0.491838 0.577131 0.263510
0.513116 0.578922 0.268152
0.534110 0.580734 0.272879
0.554813 0.582569 0.277693
0.575219 0.584429 0.282596
0.595323 0.586319 0.287589
0.615118 0.588240 0.292673
0.634599 0.590196 0.297847
0.653761 0.592190 0.303109
0.672602 0.594224 0.308458
0.691118 0.596302 0.313891
0.709308 0.598427 0.319403
0.727173 0.600600 0.324991
0.744713 0.602825 0.330647
0.761913 0.605087 0.336349
0.778758 0.607371 0.342071
0.795255 0.609679 0.347805
0.811413 0.612013 0.353542
0.827242 0.614372 0.359274
0.842751 0.616758 0.364992
0.857954 0.619171 0.370688
0.254055 0.583752 0.230525
0.254055 0.583752 0.230525
0.277729 0.585289 0.234619
0.301255 0.586840 0.238784
0.324537 0.588398 0.243010
0.347571 0.589966 0.247301
0.370356 0.591542 0.251660
0.392887 0.593130 0.256092
0.415158 0.594731 0.260601
0.437165 0.596345 0.265190
0.458901 0.597977 0.269863
0.480360 0.599627 0.274621
0.501537 0.601298 0.279467
0.522424 0.602994 0.284403
0.543015 0.604717 0.289429
0.563304 0.606470 0.294546
0.583286 0.608256 0.299752
0.602955 0.610079 0.305047
0.622307 0.611941 0.310427
0.641339 0.613847 0.315889
0.660050 0.615799 0.321429
0.678437 0.617801 0.327042
0.696500 0.619852 0.332720
0.714213 0.621930 0.338431
0.731572 0.624032 0.344158
0.748582 0.626160 0.349894
0.765252 0.628315 0.355630
0.781589 0.630498 0.361358
0.797603 0.632710 0.367069
0.813305 0.634951 0.372755
0.828707 0.637222 0.378408
0.843821 0.639520 0.384021
0.858659 0.641847 0.389586
0.268111 0.608275 0.244581
0.268111 0.608275 0.244581
0.291482 0.609686 0.248880
0.314702 0.611110 0.253265
0.337675 0.612543 0.257725
0.360396 0.613986 0.262262
0.382860 0.615442 0.266882
0.405061 0.616912 0.271585
0.426993 0.618398 0.276375
0.448649 0.619905 0.281254
0.470022 0.621433 0.286223
0.491107 0.622988 0.291282
0.511895 0.624571 0.296431
0.532382 0.626186 0.301670
0.552562 0.627837 0.306996
0.572430 0.629527 0.312406
0.591981 0.631261 0.317897
0.611214 0.633040 0.323464
0.630127 0.634869 0.329103
0.648708 0.636742 0.334797
0.666934 0.638638 0.340514
0.684805 0.640559 0.346246
0.702327 0.642507 0.351983
0.719504 0.644484 0.357717
0.736346 0.646493 0.363440
0.752859 0.648533 0.369142
0.769055 0.650605 0.374817
0.784943 0.652710 0.380456
0.800536 0.654846 0.386053
0.815844 0.657013 0.391599
0.830881 0.659210 0.397091
0.845659 0.661435 0.402521
0.860190 0.663687 0.407885
0.282915 0.631845 0.259385
0.282915 0.631845 0.259385
0.306000 0.633124 0.263934
0.328928 0.634419 0.268584
0.351600 0.635725 0.273319
0.374010 0.637047 0.278141
0.396152 0.638387 0.283052
0.418018 0.639747 0.288054
0.439601 0.641131 0.293146
0.460894 0.642543 0.298328
0.481891 0.643986 0.303599
0.502586 0.645464 0.308956
0.522972 0.646982 0.314396
0.543046 0.648542 0.319915
0.562803 0.650148 0.325509
0.582241 0.651805 0.331172
0.601337 0.653496 0.336876
0.620075 0.655210 0.342600
0.638457 0.656950 0.348334
0.656487 0.658720 0.354071
0.674169 0.660522 0.359802
0.691510 0.662358 0.365518
0.708518 0.664228 0.371212
0.725200 0.666134 0.376875
0.741568 0.668075 0.382499
0.757632 0.670052 0.388078
0.773402 0.672063 0.393605
0.788891 0.674107 0.399075
0.804110 0.676184 0.404482
0.819072 0.678290 0.409821
0.833788 0.680425 0.415088
0.848271 0.682586 0.420281
0.862531 0.684770 0.425395
0.298612 0.654422 0.275083
0.298612 0.654422 0.275083
0.321417 0.655572 0.279919
0.344050 0.656743 0.284863
0.366414 0.657933 0.289897
0.388501 0.659146 0.295022
0.410304 0.660386 0.300237
0.431815 0.661656 0.305539
0.453028 0.662961 0.310927
0.473937 0.664304 0.316396
0.494535 0.665691 0.321944
0.514817 0.667125 0.327563
0.534778 0.668606 0.333246
0.554386 0.670114 0.338958
0.573635 0.671646 0.344687
0.592526 0.673208 0.350423
0.611061 0.674801 0.356159
0.629243 0.676429 0.361885
0.647078 0.678094 0.367594
0.664574 0.679797 0.373277
0.681737 0.681538 0.378927
0.698576 0.683319 0.384536
0.715103 0.685139 0.390097
0.731326 0.686996 0.395604
0.747258 0.688892 0.401051
0.762910 0.690822 0.406433
0.778293 0.692787 0.411747
0.793419 0.694784 0.416987
0.808300 0.696811 0.422152
0.822948 0.698865 0.427238
0.837374 0.700944 0.432244
0.851588 0.703046 0.437167
0.865601 0.705168 0.442008
0.315302 0.675996 0.291773
0.315302 0.675996 0.291773
0.337809 0.677032 0.296910
0.360127 0.678098 0.302157
0.382156 0.679194 0.307491
0.403891 0.680325 0.312909
0.425324 0.681494 0.318407
0.446448 0.682707 0.323981
0.467257 0.683968 0.329626
0.487735 0.685270 0.335323
0.507855 0.686596 0.341042
0.527613 0.687948 0.346775
0.547010 0.689332 0.352512
0.566046 0.690751 0.358245
0.584723 0.692207 0.363966
0.603047 0.693703 0.369667
0.621024 0.695241 0.375339
0.638660 0.696820 0.380974
0.655964 0.698443 0.386566
0.672944 0.700109 0.392108
0.689612 0.701816 0.397594
0.705978 0.703565 0.403018
0.722052 0.705353 0.408376
0.737847 0.707179 0.413663
0.753374 0.709041 0.418876
0.768644 0.710937 0.424013
0.783669 0.712864 0.429070
0.798460 0.714820 0.434046
0.813028 0.716802 0.438939
0.827383 0.718807 0.443750
0.841537 0.720833 0.448478
0.855497 0.722877 0.453122
0.869275 0.724937 0.457683
0.333004 0.696605 0.309475
0.333004 0.696605 0.309475
0.355176 0.697557 0.314901
0.377135 0.698552 0.320428
0.398786 0.699591 0.326028
0.420122 0.700680 0.331697
0.441113 0.701799 0.337403
0.461743 0.702943 0.343128
0.482008 0.704116 0.348863
0.501907 0.705324 0.354600
0.521439 0.706570 0.360330
0.540607 0.707856 0.366044
0.559413 0.709186 0.371735
0.577864 0.710561 0.377395
0.595966 0.711982 0.383015
0.613725 0.713449 0.388590
0.631152 0.714963 0.394112
0.648255 0.716523 0.399576
0.665044 0.718128 0.404977
0.681532 0.719777 0.410309
0.697729 0.721468 0.415570
0.713646 0.723198 0.420755
0.729295 0.724966 0.425863
0.744687 0.726769 0.430891
0.759834 0.728605 0.435837
0.774746 0.730470 0.440700
0.789435 0.732362 0.445481
0.803911 0.734278 0.450178
0.818183 0.736215 0.454792
0.832261 0.738171 0.459323
0.846154 0.740143 0.463773
0.859870 0.742128 0.468142
0.873417 0.744124 0.472431
0.351636 0.716347 0.328107
0.351636 0.716347 0.328107
0.373408 0.717255 0.333771
0.394911 0.718191 0.339486
0.416049 0.719155 0.345215
0.436818 0.720151 0.350952
0.457214 0.721185 0.356687
0.477238 0.722259 0.362413
0.496890 0.723378 0.368119
0.516173 0.724544 0.373800
0.535090 0.725758 0.379446
0.553649 0.727023 0.385051
0.571856 0.728338 0.390607
0.589719 0.729704 0.396108
0.607248 0.731120 0.401550
0.624453 0.732585 0.406926
0.641344 0.734097 0.412233
0.657932 0.735655 0.417467
0.674230 0.737257 0.422624
0.690248 0.738900 0.427703
0.705997 0.740582 0.432701
0.721490 0.742300 0.437617
0.736738 0.744051 0.442450
0.751750 0.745832 0.447201
0.766539 0.747641 0.451867
0.781114 0.749474 0.456451
0.795484 0.751329 0.460953
0.809659 0.753203 0.465373
0.823648 0.755093 0.469713
0.837459 0.756996 0.473973
0.851099 0.758911 0.478157
0.864577 0.760834 0.482264
0.877897 0.762763 0.486298
0.370855 0.735237 0.347326
0.370855 0.735237 0.347326
0.392040 0.736054 0.353041
0.412930 0.736915 0.358773
0.433440 0.737820 0.364493
0.453569 0.738774 0.370191
0.473321 0.739778 0.375860
0.492698 0.740835 0.381492
0.511705 0.741946 0.387079
0.530351 0.743112 0.392616
0.548642 0.744333 0.398097
0.566587 0.745607 0.403515
0.584197 0.746935 0.408866
0.601482 0.748314 0.414147
0.618452 0.749743 0.419353
0.635120 0.751219 0.424482
0.651497 0.752741 0.429532
0.667594 0.754305 0.434500
0.683424 0.755908 0.439386
0.698996 0.757548 0.444189
0.714324 0.759221 0.448909
0.729416 0.760925 0.453546
0.744285 0.762657 0.458100
0.758939 0.764413 0.462571
0.773389 0.766191 0.466962
0.787643 0.767988 0.471273
0.801709 0.769801 0.475505
0.815597 0.771627 0.479661
0.829313 0.773465 0.483741
0.842865 0.775311 0.487748
0.856259 0.777164 0.491683
0.869501 0.779021 0.495548
0.882597 0.780881 0.499345
0.390122 0.753257 0.366593
0.390122 0.753257 0.366593
0.410641 0.754045 0.372259
0.430854 0.754890 0.377915
0.450682 0.755793 0.383531
0.470130 0.756753 0.389101
0.489205 0.757773 0.394618
0.507914 0.758851 0.400077
0.526266 0.759987 0.405471
0.544271 0.761181 0.410797
0.561940 0.762430 0.416051
0.579282 0.763733 0.421230
0.596311 0.765087 0.426330
0.613037 0.766490 0.431350
0.629472 0.767938 0.436289
0.645628 0.769430 0.441145
0.661517 0.770961 0.445917
0.677150 0.772530 0.450607
0.692538 0.774132 0.455213
0.707692 0.775764 0.459737
0.722622 0.777424 0.464179
0.737337 0.779109 0.468541
0.751849 0.780815 0.472823
0.766164 0.782540 0.477027
0.780292 0.784280 0.481155
0.794240 0.786034 0.485208
0.808017 0.787799 0.489189
0.821628 0.789572 0.493098
0.835081 0.791352 0.496938
0.848381 0.793136 0.500711
0.861534 0.794922 0.504418
0.874545 0.796709 0.508062
0.887419 0.798495 0.511644
0.409116 0.770636 0.385587
0.409116 0.770636 0.385587
0.428917 0.771445 0.391116
0.448413 0.772321 0.396613
0.467531 0.773261 0.402048
0.486280 0.774262 0.407418
0.504671 0.775325 0.412719
0.522713 0.776447 0.417945
0.540418 0.777626 0.423096
0.557797 0.778861 0.428167
0.574862 0.780148 0.433158
0.591626 0.781485 0.438066
0.608099 0.782867 0.442892
0.624295 0.784293 0.447634
0.640224 0.785759 0.452293
0.655899 0.787262 0.456870
0.671329 0.788798 0.461364
0.686527 0.790364 0.465776
0.701501 0.791958 0.470109
0.716262 0.793575 0.474362
0.730819 0.795213 0.478539
0.745180 0.796870 0.482639
0.759354 0.798542 0.486666
0.773349 0.800227 0.490620
0.787172 0.801923 0.494504
0.800829 0.803627 0.498319
0.814328 0.805337 0.502068
