creator-kit/luts/AK_Film_Test_Match.cube
# FILM_test
TITLE "FILM_test"
LUT_3D_SIZE 5
DOMAIN_MIN 0.0 0.0 0.0
DOMAIN_MAX 1.0 1.0 1.0
0.015660 0.007971 0.000000
0.299084 0.058603 0.041689
0.520918 0.101064 0.080091
0.713506 0.141648 0.113024
0.889471 0.178447 0.143643
0.138663 0.318821 0.115133
0.329072 0.340101 0.141892
0.525559 0.363007 0.171821
0.704791 0.385114 0.201894
0.867596 0.407571 0.233477
0.240583 0.558319 0.217054
0.404007 0.570134 0.245731
0.575219 0.584429 0.282596
0.727173 0.600600 0.324991
0.857954 0.619171 0.370688
0.370855 0.735237 0.347326
0.511705 0.741946 0.387079
0.651497 0.752741 0.429532
0.773389 0.766191 0.466962
0.882597 0.780881 0.499345
0.506932 0.868803 0.483403
0.613284 0.877455 0.510034
0.723873 0.888106 0.536864
0.825453 0.898672 0.560606
0.919709 0.908638 0.581863
0.037508 0.030053 0.317073
0.295468 0.071633 0.271939
0.516545 0.113287 0.278163
0.709011 0.153114 0.293605
0.884940 0.188413 0.312554
0.147859 0.326122 0.294795
0.334919 0.347063 0.311389
0.529017 0.369599 0.332216
0.706192 0.391699 0.354518
0.866505 0.414471 0.378755
0.250044 0.562285 0.366078
0.411816 0.574261 0.388287
0.580854 0.588971 0.417172
0.730243 0.605943 0.450520
0.858368 0.625006 0.485825
0.384477 0.737253 0.467801
0.522026 0.744805 0.498496
0.658592 0.756520 0.531643
0.778263 0.770486 0.561548
0.885995 0.785298 0.588087
0.516349 0.871613 0.574942
0.620513 0.880581 0.596984
0.729291 0.891283 0.619576
0.829485 0.901709 0.639806
0.922585 0.911440 0.658024
0.054625 0.047576 0.572108
0.295572 0.085989 0.506521
0.513807 0.127137 0.490278
0.705427 0.165677 0.490822
0.880817 0.199386 0.498752
0.158226 0.334406 0.491180
0.341814 0.354843 0.498164
0.533239 0.377095 0.509710
0.707962 0.399302 0.523457
0.865222 0.422565 0.538985
0.261194 0.566876 0.530822
0.421148 0.579089 0.545166
0.587671 0.594415 0.564142
0.733973 0.612230 0.586468
0.859341 0.631839 0.610372
0.399935 0.739878 0.598060
0.533597 0.748445 0.619198
0.666589 0.761085 0.643060
0.783834 0.775483 0.665614
0.889917 0.790325 0.686394
0.526639 0.875001 0.676020
0.628476 0.884207 0.693497
0.735296 0.894882 0.711767
0.833958 0.905105 0.728317
0.925765 0.914546 0.743278
0.069518 0.063136 0.794654
0.298067 0.100081 0.721146
0.512809 0.140712 0.690401
0.703164 0.177631 0.679635
0.877582 0.210016 0.678235
0.168484 0.342503 0.679317
0.348899 0.362476 0.678158
0.537705 0.384588 0.681157
0.709867 0.407024 0.686337
0.863887 0.430928 0.692549
0.272781 0.571539 0.689268
0.430958 0.584073 0.695072
0.594920 0.600183 0.703409
0.737973 0.618709 0.714444
0.860857 0.638809 0.727966
0.415117 0.742891 0.720745
0.544860 0.752448 0.733460
0.674430 0.765851 0.749469
0.789368 0.780526 0.765839
0.893844 0.795301 0.781671
0.536455 0.878519 0.773694
0.636135 0.887851 0.787199
0.741103 0.898426 0.801596
0.838287 0.908410 0.814757
0.928825 0.917543 0.826658
0.083123 0.077782 0.998836
0.301933 0.114058 0.921616
0.513119 0.153826 0.880896
0.701944 0.189032 0.861155
0.875031 0.220411 0.851501
0.178671 0.350390 0.860267
0.356152 0.370015 0.851897
0.542384 0.392118 0.846658
0.711879 0.414913 0.842905
0.862522 0.439612 0.838992
0.284888 0.576296 0.841035
0.441288 0.589266 0.837558
0.602577 0.606287 0.834781
0.742277 0.625380 0.834878
0.862889 0.645872 0.839360
0.429891 0.746305 0.836498
0.555767 0.756767 0.842054
0.682090 0.770761 0.851526
0.794836 0.785577 0.862682
0.897745 0.800204 0.874216
0.545831 0.882117 0.868340
0.643507 0.891483 0.878344
0.746716 0.901900 0.889227
0.842469 0.911615 0.899235
0.931765 0.920428 0.908235
