creator-kit/luts/AK_Forest_LARP.cube
# AK_Forest_LARP
# Fantasy woodland grade. Rolls harsh yellow-green foliage toward a deeper cinematic green, cools the shadows, and protects skin tones so faces stay warm against the forest.
# Best for: Outdoor LARP, woodland, costume and character work under tree cover.
# Apply AFTER a D-Log M -> Rec.709 conversion, not instead of one.
TITLE "AK_Forest_LARP"
LUT_3D_SIZE 33
DOMAIN_MIN 0.0 0.0 0.0
DOMAIN_MAX 1.0 1.0 1.0
0.014000 0.018146 0.043913
0.014000 0.017833 0.043480
0.036575 0.017388 0.042814
0.062415 0.016905 0.042009
0.090572 0.016090 0.041105
0.120536 0.015025 0.040031
0.151968 0.014000 0.038998
0.184622 0.014000 0.038853
0.218314 0.014000 0.038767
0.252902 0.014000 0.038716
0.288268 0.014000 0.038689
0.324318 0.014000 0.038569
0.360967 0.014000 0.038438
0.398140 0.014000 0.038380
0.435772 0.014000 0.038399
0.473704 0.014000 0.038499
0.510990 0.014000 0.038677
0.547411 0.014000 0.038786
0.579031 0.014378 0.039120
0.609061 0.014821 0.039516
0.637813 0.015298 0.039950
0.665308 0.015806 0.040417
0.691562 0.016339 0.040911
0.716588 0.016894 0.041430
0.740392 0.017466 0.041968
0.762974 0.018051 0.042520
0.784324 0.018643 0.043082
0.818198 0.019664 0.044032
0.847849 0.020647 0.044953
0.867942 0.021363 0.045635
0.881709 0.021878 0.046133
0.891153 0.022243 0.046493
0.897440 0.022492 0.046743
0.014000 0.033875 0.042268
0.014000 0.033571 0.041813
0.035932 0.033126 0.041156
0.061919 0.032446 0.040352
0.090291 0.031242 0.039231
0.120430 0.029857 0.037937
0.152005 0.028408 0.036578
0.184786 0.026937 0.035196
0.218596 0.025468 0.033817
0.253298 0.024015 0.032457
0.288777 0.022592 0.031128
0.324936 0.021209 0.029842
0.361694 0.019874 0.028606
0.398978 0.018597 0.027430
0.436724 0.017384 0.026319
0.474773 0.016244 0.025285
0.512177 0.015209 0.024354
0.548711 0.014280 0.023527
0.580252 0.014391 0.023701
0.610343 0.014834 0.024202
0.639152 0.015312 0.024738
0.666700 0.015820 0.025305
0.693003 0.016354 0.025897
0.718075 0.016910 0.026511
0.741922 0.017483 0.027142
0.764543 0.018069 0.027784
0.785913 0.018662 0.028432
0.821189 0.019729 0.029533
0.849998 0.020688 0.030530
0.869515 0.021385 0.031272
0.882883 0.021886 0.031821
0.892050 0.022240 0.032223
0.898150 0.022482 0.032507
0.014494 0.055698 0.040515
0.014514 0.055408 0.040062
0.036525 0.054290 0.041333
0.061638 0.054190 0.037023
0.090522 0.050449 0.033859
0.120665 0.048003 0.031910
0.152252 0.045880 0.030108
0.185064 0.043839 0.028327
0.218918 0.041834 0.026556
0.253671 0.039857 0.024803
0.289205 0.037913 0.023079
0.325423 0.036007 0.021394
0.362241 0.034148 0.019756
0.399586 0.032344 0.018176
0.437393 0.030602 0.016660
0.475502 0.028933 0.015219
0.512964 0.027485 0.014000
0.549553 0.027234 0.014000
0.581114 0.027382 0.014430
0.611311 0.027584 0.014902
0.640217 0.027829 0.015407
0.667855 0.028114 0.015940
0.694240 0.028433 0.016498
0.719386 0.028782 0.017076
0.743300 0.029157 0.017670
0.765983 0.029551 0.018276
0.787423 0.029961 0.018887
0.823563 0.030872 0.020011
0.851985 0.031648 0.020981
0.871229 0.032177 0.021683
0.884403 0.032527 0.022185
0.893430 0.032747 0.022539
0.899432 0.032877 0.022778
0.017451 0.080151 0.042193
0.017531 0.079873 0.041824
0.039930 0.078297 0.046354
0.056979 0.077841 0.040996
0.088975 0.078456 0.032574
0.120231 0.073691 0.027676
0.152272 0.069541 0.024520
0.185268 0.066393 0.022275
0.219219 0.063781 0.020388
0.254040 0.061451 0.018661
0.289634 0.059287 0.017024
0.325910 0.057237 0.015454
0.362788 0.055326 0.014000
0.400194 0.054743 0.014000
0.438066 0.054209 0.014000
0.476243 0.053712 0.014000
0.513773 0.053252 0.014000
0.550384 0.052829 0.014006
0.582115 0.052797 0.014504
0.612523 0.052828 0.015037
0.641632 0.052913 0.015600
0.669464 0.053046 0.016190
0.696036 0.053223 0.016802
0.721360 0.053437 0.017433
0.745444 0.053683 0.018078
0.768288 0.053956 0.018732
0.789882 0.054251 0.019389
0.827127 0.055067 0.020624
0.855192 0.055718 0.021640
0.874189 0.056138 0.022371
0.887186 0.056392 0.022891
0.896087 0.056530 0.023257
0.902003 0.056594 0.023504
0.022086 0.106517 0.046962
0.022207 0.106258 0.046654
0.043830 0.104650 0.052152
0.056870 0.103523 0.045890
0.082862 0.105067 0.037820
0.117892 0.105858 0.029251
0.151067 0.100214 0.022563
0.184755 0.095016 0.018201
0.219127 0.090692 0.015101
0.254206 0.088030 0.014000
0.289973 0.086532 0.014000
0.326377 0.085329 0.014000
0.363360 0.084317 0.014000
0.400859 0.083434 0.014000
0.438818 0.082641 0.014000
0.477078 0.081915 0.014000
0.514688 0.081253 0.014000
0.551280 0.080656 0.014022
0.583252 0.080433 0.014588
0.613892 0.080286 0.015187
0.643223 0.080205 0.015815
0.671267 0.080182 0.016467
0.698042 0.080210 0.017139
0.723561 0.080283 0.017828
0.747831 0.080396 0.018528
0.770851 0.080542 0.019235
0.792612 0.080718 0.019944
0.831051 0.081434 0.021303
0.858716 0.081953 0.022366
0.877434 0.082259 0.023127
0.890234 0.082413 0.023666
0.898995 0.082465 0.024044
0.904814 0.082459 0.024298
0.027361 0.134547 0.053166
0.027504 0.134312 0.052887
0.047008 0.132781 0.057519
0.057710 0.131421 0.049958
0.080254 0.132196 0.044369
0.111336 0.134018 0.034254
0.148470 0.134758 0.025576
0.183105 0.128771 0.017943
0.218141 0.123697 0.014000
0.253744 0.120810 0.014000
0.289891 0.118580 0.014000
0.326572 0.116805 0.014000
0.363764 0.115340 0.014000
0.401430 0.114091 0.014000
0.439529 0.112991 0.014000
0.477912 0.112000 0.014000
0.515632 0.111110 0.014000
0.552234 0.110319 0.014042
0.584475 0.109889 0.014683
0.615369 0.109552 0.015353
0.644943 0.109295 0.016049
0.673219 0.109107 0.016768
0.700215 0.108980 0.017505
0.725944 0.108906 0.018255
0.750414 0.108880 0.019015
0.773624 0.108895 0.019779
0.795565 0.108945 0.020542
0.835255 0.109556 0.022038
0.862488 0.109938 0.023149
0.880905 0.110125 0.023939
0.893492 0.110175 0.024498
0.902102 0.110140 0.024887
0.907817 0.110061 0.025149
0.032908 0.164024 0.060101
0.033064 0.163817 0.059833
0.050103 0.162383 0.062972
0.058703 0.160933 0.053767
0.080217 0.161054 0.050752
0.106934 0.162558 0.041621
0.141400 0.164358 0.030993
0.180357 0.165250 0.022090
0.216267 0.159013 0.014000
0.252428 0.155585 0.014000
0.289107 0.152697 0.014000
0.326228 0.150305 0.014000
0.363770 0.148308 0.014000
0.401715 0.146610 0.014000
0.440041 0.145132 0.014000
0.478614 0.143820 0.014000
0.516495 0.142657 0.014000
0.553161 0.141635 0.014067
0.585712 0.140971 0.014786
0.616895 0.140421 0.015532
0.646740 0.139969 0.016302
0.675271 0.139601 0.017091
0.702509 0.139306 0.017896
0.728466 0.139075 0.018712
0.753153 0.138901 0.019535
0.776568 0.138776 0.020360
0.799422 0.138712 0.021209
0.839671 0.139191 0.022825
0.866454 0.139432 0.023982
0.884558 0.139495 0.024802
0.896922 0.139438 0.025379
0.905374 0.139310 0.025780
0.910981 0.139157 0.026048
0.038607 0.194769 0.067510
0.038773 0.194591 0.067244
0.053492 0.193249 0.068825
0.059808 0.191764 0.057602
0.081215 0.191446 0.056519
0.105406 0.192491 0.049332
0.135901 0.194193 0.038859
0.172825 0.196003 0.027908
0.213403 0.197125 0.018831
0.250456 0.191493 0.014000
0.287584 0.188389 0.014000
0.325201 0.185565 0.014000
0.363197 0.183079 0.014000
0.401533 0.180908 0.014000
0.440188 0.179003 0.014000
0.479037 0.177314 0.014000
0.517149 0.175825 0.014000
0.553961 0.174526 0.014093
0.586875 0.173588 0.014895
0.618392 0.172793 0.015722
0.648545 0.172119 0.016569
0.677363 0.171549 0.017433
0.704869 0.171067 0.018310
0.731079 0.170663 0.019196
0.756003 0.170327 0.020085
0.779641 0.170051 0.020974
0.804642 0.169889 0.021966
0.844236 0.170197 0.023658
0.870568 0.170289 0.024862
0.888355 0.170223 0.025711
0.900493 0.170053 0.026306
0.908784 0.169829 0.026718
0.914279 0.169597 0.026993
0.044410 0.226636 0.075293
0.044587 0.226489 0.075025
0.057182 0.225223 0.075069
0.061591 0.223728 0.062124
0.082634 0.223123 0.061902
0.105639 0.223714 0.056771
0.133111 0.225231 0.047224
0.166537 0.226951 0.036356
0.205438 0.228822 0.025040
0.247494 0.230228 0.015834
0.285590 0.224898 0.014000
0.323564 0.222072 0.014000
0.362004 0.219335 0.014000
0.400784 0.216798 0.014000
0.439845 0.214492 0.014000
0.479053 0.212411 0.014000
0.517469 0.210566 0.014000
0.554525 0.208947 0.014116
0.587870 0.207696 0.015008
0.619775 0.206621 0.015920
0.650283 0.205693 0.016849
0.679428 0.204892 0.017792
0.707237 0.204199 0.018745
0.733728 0.203601 0.019704
0.758914 0.203085 0.020664
0.782797 0.202641 0.021620
0.809913 0.202363 0.022765
0.848884 0.202488 0.024534
0.874782 0.202423 0.025784
0.892261 0.202219 0.026662
0.904178 0.201930 0.027274
0.912310 0.201603 0.027697
0.917694 0.201288 0.027979
0.050295 0.259511 0.083406
0.050483 0.259396 0.083134
0.061177 0.258188 0.081698
0.065800 0.256697 0.069113
0.084288 0.255900 0.067131
0.106836 0.256118 0.063778
0.132324 0.257310 0.055826
0.162833 0.259049 0.045058
0.198846 0.260997 0.033244
0.239113 0.262710 0.022428
0.282539 0.264499 0.014000
0.321596 0.259189 0.014000
0.360322 0.256590 0.014000
0.399492 0.253943 0.014000
0.438972 0.251380 0.014000
0.478583 0.248973 0.014000
0.517364 0.246789 0.014000
0.554758 0.244841 0.014134
0.588603 0.243254 0.015120
0.620959 0.241870 0.016122
0.651876 0.240660 0.017139
0.681394 0.239601 0.018165
0.709545 0.238671 0.019199
0.736353 0.237854 0.020235
0.761831 0.237137 0.021268
0.785986 0.236508 0.022295
0.815137 0.236090 0.023603
0.853551 0.236020 0.025449
0.879052 0.235785 0.026746
0.896243 0.235433 0.027653
0.907951 0.235016 0.028283
0.915930 0.234580 0.028716
0.921207 0.234175 0.029004
0.056246 0.293298 0.091829
0.056445 0.293216 0.091553
0.065483 0.292047 0.088711
0.070267 0.290567 0.076413
0.086136 0.289641 0.072362
0.108578 0.289569 0.070465
0.132919 0.290423 0.064199
0.161084 0.291987 0.054438
0.194176 0.293825 0.043095
0.232165 0.295843 0.030991
0.273752 0.297581 0.020108
0.318460 0.299861 0.014000
0.358410 0.294325 0.014000
0.397813 0.291905 0.014000
0.437635 0.289335 0.014000
0.477634 0.286765 0.014000
0.516797 0.284333 0.014000
0.554598 0.282097 0.014140
0.589003 0.280186 0.015226
0.621869 0.278488 0.016325
0.653250 0.276982 0.017434
0.683191 0.275645 0.018549
0.711730 0.274457 0.019667
0.738893 0.273402 0.020784
0.764699 0.272463 0.021895
0.789156 0.271628 0.022996
0.820223 0.271045 0.024472
0.858176 0.270767 0.026399
0.883335 0.270349 0.027745
0.900271 0.269839 0.028681
0.911789 0.269283 0.029329
0.919627 0.268728 0.029773
0.924805 0.268228 0.030066
0.062251 0.327920 0.100550
0.062462 0.327871 0.100268
0.070107 0.326721 0.096108
0.075016 0.325257 0.084048
0.088180 0.324243 0.077701
0.110674 0.323949 0.076978
0.134407 0.324500 0.072268
0.160931 0.325812 0.063876
0.191624 0.327602 0.053012
0.226873 0.329469 0.042027
0.266546 0.331573 0.030348
0.309295 0.333355 0.020132
0.355202 0.335993 0.014000
0.395156 0.332550 0.014000
0.436000 0.327834 0.014000
0.476295 0.325476 0.014000
0.515805 0.322960 0.014000
0.554032 0.320540 0.014133
0.589035 0.318365 0.015324
0.622457 0.316384 0.016524
0.654350 0.314593 0.017729
0.684762 0.312977 0.018938
0.713732 0.311523 0.020145
0.741291 0.310215 0.021348
0.767461 0.309040 0.022541
0.792253 0.307985 0.023720
0.825084 0.307213 0.025368
0.862700 0.306713 0.027379
0.887591 0.306102 0.028777
0.904317 0.305421 0.029744
0.915671 0.304717 0.030411
0.923386 0.304034 0.030866
0.928474 0.303430 0.031166
0.068296 0.363309 0.109561
0.068521 0.363295 0.109274
0.075057 0.362143 0.103891
0.080066 0.360698 0.092037
0.090437 0.359624 0.083214
0.113046 0.359161 0.083444
0.136493 0.359455 0.080096
0.161998 0.360488 0.073588
0.190805 0.362101 0.064345
0.223740 0.364019 0.053498
0.260742 0.365914 0.042568
0.301879 0.368140 0.030560
0.345657 0.369978 0.020261
0.392702 0.372999 0.014000
0.433291 0.369503 0.014000
0.474736 0.364387 0.014000
0.514497 0.362208 0.014000
0.553260 0.359934 0.014000
0.588710 0.357610 0.015409
0.622709 0.355418 0.016714
0.655147 0.353386 0.018022
0.686066 0.351517 0.019328
0.715507 0.349808 0.020630
0.743501 0.348250 0.021922
0.770072 0.346834 0.023202
0.795232 0.345550 0.024463
0.829648 0.344572 0.026283
0.867074 0.343842 0.028387
0.891785 0.343027 0.029840
0.908354 0.342167 0.030841
0.919579 0.341305 0.031527
0.927192 0.340486 0.031994
0.932203 0.339771 0.032300
0.074372 0.399409 0.118856
0.074611 0.399430 0.118564
0.080340 0.398255 0.112061
0.085430 0.396833 0.100391
0.092925 0.395718 0.088952
0.115712 0.395126 0.090225
0.139130 0.395193 0.088536
0.163977 0.395966 0.083523
0.191358 0.397370 0.075486
0.222263 0.399212 0.065256
0.257128 0.401227 0.054045
0.296018 0.403483 0.041909
0.338078 0.405502 0.030783
0.382781 0.407399 0.020402
0.430913 0.410824 0.014000
0.471972 0.407294 0.014000
0.513021 0.401803 0.014000
0.552003 0.399726 0.014000
0.589994 0.397651 0.014000
0.626961 0.395252 0.014000
0.655644 0.393214 0.018308
0.687092 0.391147 0.019716
0.717031 0.389218 0.021116
0.745490 0.387432 0.022504
0.772494 0.385787 0.023874
0.798055 0.384279 0.025221
0.833860 0.383087 0.027212
0.871258 0.382126 0.029415
0.895887 0.381105 0.030930
0.912362 0.380060 0.031967
0.923497 0.379034 0.032676
0.931032 0.378072 0.033156
0.935982 0.377241 0.033469
0.080468 0.436171 0.128431
0.080721 0.436227 0.128135
0.085964 0.435008 0.120621
0.091231 0.433616 0.109328
0.095725 0.432482 0.095377
0.118675 0.431784 0.097432
0.142094 0.431669 0.096746
0.166553 0.432212 0.092975
0.192946 0.433392 0.086186
0.222229 0.435088 0.076891
0.255082 0.437096 0.065986
0.291636 0.439175 0.054591
0.331966 0.441543 0.042173
0.375079 0.443613 0.031016
0.420619 0.445570 0.020557
0.469683 0.449432 0.014000
0.510194 0.445951 0.014000
0.550623 0.440041 0.014000
0.588804 0.438069 0.014000
0.625997 0.436078 0.014000
0.662166 0.433710 0.014000
0.687857 0.431717 0.020099
0.718306 0.429630 0.021601
0.747250 0.427661 0.023087
0.774709 0.425817 0.024552
0.800696 0.424104 0.025990
0.837686 0.422704 0.028146
0.875223 0.421520 0.030461
0.899877 0.420297 0.032043
0.916324 0.419069 0.033121
0.927412 0.417878 0.033855
0.934896 0.416772 0.034349
0.939802 0.415822 0.034670
0.086524 0.473250 0.138204
0.086793 0.473342 0.137903
0.092068 0.472073 0.129859
0.097530 0.470709 0.118973
0.101927 0.469554 0.105104
0.121821 0.468777 0.104503
0.145292 0.468519 0.104641
0.169546 0.468867 0.101948
0.195281 0.469834 0.096344
0.223345 0.471351 0.088108
0.254492 0.473274 0.077869
0.289133 0.475403 0.066521
0.327176 0.477525 0.055062
0.368817 0.480014 0.042350
0.412884 0.482135 0.031168
0.459068 0.484149 0.020667
0.508017 0.488520 0.014000
0.547734 0.485105 0.014000
0.587542 0.478720 0.014000
0.624897 0.476856 0.014000
0.661262 0.474857 0.014000
0.696594 0.472526 0.014000
0.730837 0.470184 0.014000
0.748780 0.468475 0.023666
0.776703 0.466483 0.025228
0.803129 0.464603 0.026759
0.841090 0.463017 0.029074
0.878929 0.461633 0.031510
0.903711 0.460224 0.033167
0.920197 0.458824 0.034291
0.931282 0.457477 0.035051
0.938745 0.456231 0.035562
0.943626 0.455163 0.035893
0.092396 0.509750 0.147937
0.092652 0.509876 0.147669
0.098272 0.508533 0.139095
0.103768 0.507192 0.128319
0.108350 0.506028 0.114783
0.125084 0.505198 0.111332
0.148623 0.504831 0.112133
0.172781 0.505020 0.110344
0.198096 0.505799 0.105794
0.225289 0.507137 0.098605
0.255093 0.508933 0.089199
0.288052 0.511031 0.078260
0.324351 0.513247 0.066638
0.363744 0.515394 0.055216
0.406641 0.518017 0.042177
0.451486 0.520182 0.031022
0.497169 0.522202 0.020739
0.545722 0.527079 0.014000
0.584623 0.523733 0.014000
0.622484 0.520799 0.014000
0.660287 0.515101 0.014000
0.695788 0.513016 0.014000
0.730233 0.510728 0.014000
0.763566 0.508411 0.014000
0.795735 0.506110 0.014000
0.805320 0.504715 0.027509
0.844037 0.502983 0.029971
0.882309 0.501434 0.032535
0.907307 0.499869 0.034271
0.923893 0.498321 0.035445
0.935016 0.496835 0.036236
0.942487 0.495463 0.036765
0.947361 0.494288 0.037106
0.098076 0.545593 0.157606
0.098854 0.545611 0.156609
0.104427 0.544302 0.148051
0.109937 0.542986 0.137360
0.114656 0.541825 0.124085
0.128459 0.540959 0.117954
0.152064 0.540511 0.119290
0.176187 0.540573 0.118254
0.201237 0.541192 0.114624
0.227812 0.542362 0.108413
0.256586 0.544016 0.099889
0.288146 0.546037 0.089562
0.322838 0.548269 0.078128
0.360667 0.550544 0.066374
0.401281 0.552702 0.055069
0.445278 0.555468 0.041689
0.489764 0.557624 0.030826
0.534646 0.559639 0.020813
0.582774 0.565016 0.014000
0.620835 0.561746 0.014000
0.657840 0.558870 0.014000
0.694944 0.552640 0.014000
0.729537 0.550491 0.014000
0.763044 0.548248 0.014000
0.795404 0.545967 0.014000
0.826552 0.543692 0.014000
0.846596 0.542427 0.030834
0.885398 0.540759 0.033532
0.910682 0.539074 0.035353
0.927418 0.537407 0.036579
0.938615 0.535806 0.037403
0.946116 0.534326 0.037952
0.951001 0.533059 0.038305
0.103565 0.580755 0.167198
0.105102 0.580641 0.165475
0.110524 0.579357 0.156724
0.116033 0.578068 0.146101
0.120852 0.576916 0.133034
0.131945 0.576029 0.124399
0.155605 0.575522 0.126169
0.179723 0.575483 0.125761
0.204606 0.575968 0.122925
0.230746 0.576987 0.117600
0.258739 0.578499 0.109942
0.289163 0.580418 0.100323
0.322452 0.582618 0.089297
0.358779 0.584949 0.077542
0.398011 0.587260 0.065773
0.440348 0.589997 0.052543
0.483625 0.592285 0.041163
0.527435 0.594422 0.030638
0.571474 0.596429 0.020887
0.619146 0.602303 0.014000
0.656337 0.599112 0.014000
0.692453 0.596300 0.014000
0.728829 0.589369 0.014000
0.762463 0.587270 0.014000
0.794973 0.585076 0.014000
0.826287 0.582840 0.014000
0.872076 0.580606 0.014000
0.918577 0.578412 0.014000
0.913865 0.577733 0.036410
0.930787 0.575981 0.037692
0.942085 0.574293 0.038551
0.949638 0.572730 0.039121
0.954475 0.571255 0.039478
0.108861 0.615207 0.176699
0.111539 0.614955 0.174568
0.116904 0.613700 0.165798
0.122270 0.612426 0.154962
0.127000 0.611276 0.141753
0.135536 0.610377 0.130685
0.159239 0.609827 0.132808
0.183365 0.609709 0.132925
0.208142 0.610083 0.130770
0.233972 0.610970 0.126236
0.261374 0.612349 0.119396
0.290893 0.614156 0.110511
0.322993 0.616292 0.100019
0.357954 0.618630 0.088488
0.395809 0.621030 0.076560
0.436208 0.623353 0.064905
0.478658 0.626167 0.051648
0.521397 0.628425 0.040654
0.564470 0.630543 0.030451
0.607626 0.632540 0.020960
0.654805 0.638904 0.014000
0.691094 0.635797 0.014000
0.726288 0.632927 0.014000
0.760357 0.630017 0.014000
0.794508 0.623337 0.014000
0.825952 0.621195 0.014000
0.871705 0.619014 0.014000
0.918524 0.616837 0.014000
0.949606 0.614705 0.014000
0.970451 0.612653 0.014000
0.945435 0.612198 0.039677
0.953054 0.610575 0.040270
0.957722 0.608637 0.040615
0.113966 0.648916 0.186094
0.118050 0.648513 0.183672
0.123396 0.647287 0.174955
0.128789 0.646038 0.164228
0.133625 0.644899 0.151245
0.139309 0.643983 0.137397
0.163025 0.643392 0.139656
0.187135 0.643208 0.140026
0.211807 0.643491 0.138237
0.237412 0.644265 0.134384
0.264366 0.645522 0.128296
0.293166 0.647218 0.120134
0.324275 0.649275 0.110236
0.358036 0.651585 0.099073
0.394594 0.654025 0.087207
0.433753 0.656463 0.075264
0.474204 0.658731 0.064059
0.516440 0.661623 0.050780
0.558558 0.663851 0.040154
0.600840 0.665949 0.030262
0.643069 0.667935 0.021030
0.689713 0.674782 0.014000
0.725064 0.671744 0.014000
0.759292 0.668749 0.014000
0.792347 0.665846 0.014000
0.825602 0.658670 0.014000
0.871244 0.656586 0.014000
0.918372 0.654470 0.014000
0.949623 0.652367 0.014000
0.970554 0.650322 0.014000
0.984677 0.648379 0.014000
0.994202 0.646596 0.014000
1.000000 0.644169 0.014000
0.118876 0.681844 0.195366
0.124614 0.681276 0.192765
0.129944 0.680079 0.184100
0.135360 0.678854 0.173477
0.140290 0.677727 0.160698
0.144256 0.676805 0.145306
0.166968 0.676181 0.146836
0.191111 0.675936 0.147669
0.215751 0.676132 0.146481
0.241161 0.676801 0.143108
0.267731 0.677948 0.137521
0.295918 0.679542 0.129836
0.326175 0.681519 0.120318
0.358876 0.683789 0.109359
0.394247 0.686239 0.097568
0.432204 0.688745 0.085547
0.471580 0.691144 0.073964
0.512491 0.693992 0.060916
0.553648 0.696323 0.049926
0.595073 0.698522 0.039655
0.636510 0.700599 0.030067
0.677768 0.702570 0.021096
0.723827 0.709891 0.014000
0.758200 0.706797 0.014000
0.791402 0.703808 0.014000
0.823376 0.700919 0.014000
0.870782 0.693238 0.014000
0.918182 0.691219 0.014000
0.949591 0.689182 0.014000
0.970608 0.687175 0.014000
0.984773 0.685250 0.014000
0.994317 0.683468 0.014000
1.000000 0.680715 0.014000
0.123591 0.713947 0.204495
0.131209 0.713202 0.201819
0.136525 0.712033 0.193207
0.141961 0.710832 0.182683
0.146973 0.709718 0.170091
0.151109 0.708793 0.155025
0.170992 0.708144 0.153970
0.195167 0.707850 0.155209
0.219794 0.707970 0.154553
0.245091 0.708544 0.151823
0.271392 0.709584 0.146954
0.299106 0.711070 0.140009
0.328663 0.712954 0.131185
0.360446 0.715163 0.120799
0.394731 0.717600 0.109271
0.431528 0.720151 0.097120
0.469810 0.722649 0.085141
0.508998 0.724994 0.073823
0.549681 0.727914 0.060589
0.590247 0.730213 0.049787
0.630910 0.732386 0.039672
0.671446 0.734442 0.030204
0.711681 0.736395 0.021323
0.757099 0.744148 0.014756
0.790438 0.741037 0.014000
0.822548 0.738062 0.014000
0.866222 0.735198 0.014000
0.915544 0.732443 0.014000
0.949546 0.725063 0.014000
0.970638 0.723123 0.014000
0.984843 0.721241 0.014000
0.994405 0.719485 0.014000
1.000000 0.716456 0.014000
0.131013 0.745015 0.214330
0.137811 0.744240 0.210806
0.143113 0.743097 0.202246
0.148568 0.741919 0.191817
0.153652 0.740821 0.179396
0.157937 0.739896 0.164623
0.175078 0.739228 0.161045
0.199283 0.738893 0.162642
0.223909 0.738950 0.162459
0.249126 0.739441 0.160306
0.275221 0.740383 0.156094
0.302559 0.741768 0.149844
0.331539 0.743561 0.141696
0.362544 0.745699 0.131906
0.395876 0.748102 0.120830
0.431612 0.750666 0.108930
0.468838 0.753227 0.096963
0.507069 0.755682 0.085425
0.545929 0.757965 0.074645
0.586305 0.760964 0.061435
0.626200 0.763232 0.051056
0.666039 0.765379 0.041327
0.705621 0.767414 0.032209
0.744781 0.769349 0.023649
0.789466 0.777541 0.017415
0.821704 0.774408 0.014000
0.864774 0.771460 0.014000
0.914723 0.768634 0.014000
0.947593 0.765936 0.014000
0.970667 0.758077 0.014000
0.984902 0.756262 0.014000
0.994479 0.754551 0.014000
1.000000 0.751279 0.014000
0.138657 0.775119 0.224100
0.144389 0.774329 0.219693
0.149681 0.773211 0.211185
0.155152 0.772056 0.200845
0.160299 0.770973 0.188582
0.164716 0.770051 0.174074
0.179207 0.769370 0.168041
0.203439 0.769002 0.169955
0.228068 0.769005 0.170193
0.253231 0.769424 0.168560
0.279168 0.770279 0.164945
0.306206 0.771572 0.159340
0.334712 0.773275 0.151840
0.365057 0.775340 0.142648
0.397558 0.777696 0.132064
0.432337 0.780251 0.120495
0.468572 0.782848 0.108659
0.505859 0.785383 0.097042
0.543888 0.787784 0.085987
0.583176 0.790732 0.073116
0.622304 0.793090 0.062516
0.661455 0.795325 0.052549
0.700406 0.797443 0.043201
0.738971 0.799454 0.034433
0.776989 0.801366 0.026201
0.820856 0.809980 0.020301
0.863290 0.806962 0.016185
0.913865 0.803937 0.014000
0.947104 0.801171 0.014000
0.969184 0.798556 0.014000
0.983969 0.796119 0.014000
0.994550 0.788568 0.014000
1.000000 0.785069 0.014000
0.146181 0.804201 0.233678
0.150913 0.803394 0.228441
0.156194 0.802300 0.219984
0.161680 0.801167 0.209730
0.166884 0.800100 0.197613
0.171418 0.799183 0.183344
0.183354 0.798492 0.174935
0.207608 0.798097 0.177130
0.232245 0.798056 0.177742
0.257369 0.798412 0.176575
0.283186 0.799190 0.173504
0.309984 0.800398 0.168494
0.338101 0.802016 0.161606
0.367889 0.804007 0.152999
0.399671 0.806310 0.142922
0.433598 0.808843 0.131737
0.468921 0.811455 0.120115
0.505305 0.814043 0.108529
0.542501 0.816535 0.097328
0.580197 0.818875 0.086782
0.619165 0.821892 0.073952
0.657632 0.824211 0.063780
0.695965 0.826410 0.054220
0.733961 0.828497 0.045249
0.771439 0.830478 0.036835
0.808235 0.832360 0.028941
0.861787 0.841379 0.023379
0.912989 0.838539 0.019581
0.946596 0.835601 0.016205
0.968893 0.832739 0.014000
0.983806 0.830246 0.014000
0.993784 0.827988 0.014000
1.000000 0.817706 0.014000
0.153330 0.832157 0.242828
0.157343 0.831340 0.237005
0.162615 0.830269 0.228598
0.168114 0.829158 0.218425
0.173369 0.828106 0.206442
0.178005 0.827196 0.192391
0.187491 0.826500 0.181693
0.211763 0.826083 0.184137
0.236409 0.826004 0.185083
0.261506 0.826305 0.184333
0.287230 0.827016 0.181754
0.313836 0.828147 0.177290
0.341632 0.829687 0.170975
0.370953 0.831606 0.162928
0.402116 0.833852 0.153360
