creator-kit/luts/AK_Film_Halation.cube
# AK_Film_Halation
# Faded film emulation. Lifted matte blacks, cool shadows, warm highlights, gentle contrast. The most 'edited' look in the pack.
# Best for: Montages, B-roll, transitions, anything cut to music.
# Apply AFTER a D-Log M -> Rec.709 conversion, not instead of one.
TITLE "AK_Film_Halation"
LUT_3D_SIZE 33
DOMAIN_MIN 0.0 0.0 0.0
DOMAIN_MAX 1.0 1.0 1.0
0.042000 0.043923 0.067121
0.053177 0.043867 0.066917
0.078270 0.043808 0.066627
0.105163 0.043778 0.066316
0.133259 0.043776 0.066020
0.162254 0.043808 0.065745
0.191956 0.043875 0.065495
0.222235 0.043980 0.065276
0.252996 0.044125 0.065089
0.284164 0.044312 0.064937
0.315679 0.044543 0.064824
0.347494 0.044819 0.064750
0.379566 0.045141 0.064717
0.411861 0.045511 0.064728
0.444349 0.045929 0.064783
0.476861 0.046396 0.064884
0.508973 0.046904 0.065029
0.540650 0.047451 0.065217
0.569479 0.048267 0.065641
0.596540 0.049245 0.066218
0.622801 0.050288 0.066866
0.648265 0.051392 0.067583
0.672933 0.052553 0.068364
0.696802 0.053766 0.069204
0.719866 0.055027 0.070101
0.742113 0.056329 0.071046
0.763522 0.057666 0.072036
0.801598 0.059515 0.073518
0.833058 0.061287 0.074944
0.855957 0.062860 0.076198
0.872703 0.064253 0.077296
0.884877 0.065472 0.078248
0.893040 0.066440 0.078998
0.042000 0.064565 0.066366
0.053280 0.064519 0.066146
0.078421 0.064451 0.065864
0.105393 0.064400 0.065577
0.133572 0.064377 0.065306
0.162651 0.064386 0.065057
0.192440 0.064429 0.064835
0.222808 0.064510 0.064644
0.253658 0.064632 0.064487
0.284913 0.064795 0.064366
0.316515 0.065002 0.064284
0.348416 0.065254 0.064243
0.380574 0.065552 0.064244
0.412955 0.065898 0.064290
0.445527 0.066293 0.064381
0.478123 0.066736 0.064518
0.510316 0.067221 0.064700
0.542072 0.067746 0.064924
0.570897 0.068544 0.065432
0.598122 0.069487 0.066090
0.624541 0.070496 0.066820
0.650159 0.071567 0.067617
0.674975 0.072696 0.068477
0.698986 0.073878 0.069396
0.722187 0.075109 0.070370
0.744565 0.076382 0.071392
0.766100 0.077691 0.072456
0.805707 0.079541 0.074082
0.836645 0.081263 0.075584
0.859162 0.082794 0.076900
0.875626 0.084152 0.078050
0.887592 0.085342 0.079045
0.895614 0.086288 0.079829
0.042000 0.089399 0.065467
0.053473 0.089378 0.065222
0.078577 0.089329 0.064928
0.105590 0.089268 0.064665
0.133819 0.089232 0.064439
0.162948 0.089227 0.064238
0.192787 0.089257 0.064065
0.223205 0.089324 0.063924
0.254106 0.089430 0.063819
0.285415 0.089578 0.063751
0.317072 0.089770 0.063722
0.349028 0.090006 0.063735
0.381241 0.090288 0.063792
0.413678 0.090618 0.063893
0.446307 0.090996 0.064040
0.478959 0.091422 0.064234
0.511208 0.091891 0.064472
0.543019 0.092400 0.064753
0.571902 0.093176 0.065368
0.599306 0.094084 0.066134
0.625901 0.095059 0.066970
0.651690 0.096096 0.067872
0.676673 0.097193 0.068836
0.700847 0.098343 0.069856
0.724206 0.099543 0.070929
0.746738 0.100785 0.072048
0.768421 0.102064 0.073208
0.809181 0.103895 0.074994
0.839846 0.105569 0.076598
0.862163 0.107060 0.077997
0.878478 0.108384 0.079218
0.890333 0.109546 0.080273
0.898280 0.110472 0.081103
0.042000 0.116093 0.064583
0.053791 0.116100 0.064310
0.078839 0.116072 0.064012
0.105829 0.116027 0.063725
0.134105 0.115981 0.063508
0.163288 0.115961 0.063358
0.193181 0.115976 0.063238
0.223655 0.116027 0.063152
0.254612 0.116117 0.063102
0.285978 0.116249 0.063090
0.317693 0.116423 0.063119
0.349708 0.116642 0.063191
0.381981 0.116907 0.063307
0.414477 0.117219 0.063468
0.447166 0.117579 0.063677
0.479879 0.117987 0.063932
0.512189 0.118438 0.064232
0.544059 0.118929 0.064573
0.573011 0.119680 0.065307
0.600609 0.120551 0.066190
0.627393 0.121489 0.067141
0.653366 0.122491 0.068156
0.678528 0.123552 0.069231
0.702878 0.124668 0.070361
0.726407 0.125833 0.071541
0.749104 0.127043 0.072765
0.770948 0.128290 0.074027
0.812934 0.130099 0.075990
0.843303 0.131722 0.077701
0.865401 0.133169 0.079189
0.881553 0.134458 0.080485
0.893288 0.135591 0.081602
0.901151 0.136494 0.082481
0.042000 0.144062 0.063750
0.054242 0.144097 0.063449
0.079236 0.144091 0.063151
0.106179 0.144064 0.062879
0.134434 0.144037 0.062594
0.163670 0.144008 0.062436
0.193621 0.144006 0.062372
0.224152 0.144040 0.062343
0.255168 0.144114 0.062352
0.286594 0.144228 0.062400
0.318369 0.144384 0.062490
0.350445 0.144585 0.062624
0.382780 0.144831 0.062802
0.415339 0.145124 0.063027
0.448091 0.145466 0.063300
0.480867 0.145855 0.063620
0.513239 0.146287 0.063984
0.545171 0.146759 0.064389
0.574206 0.147483 0.065253
0.602006 0.148314 0.066258
0.628988 0.149213 0.067330
0.655155 0.150177 0.068464
0.680506 0.151201 0.069656
0.705039 0.152281 0.070901
0.728748 0.153411 0.072194
0.751618 0.154586 0.073529
0.775218 0.155834 0.074949
0.816886 0.157582 0.077052
0.846939 0.159152 0.078873
0.868805 0.160555 0.080452
0.884785 0.161806 0.081825
0.896391 0.162909 0.083008
0.904167 0.163789 0.083937
0.042000 0.173011 0.062990
0.054834 0.173075 0.062661
0.079776 0.173089 0.062369
0.106670 0.173081 0.062112
0.134874 0.173074 0.061843
0.164093 0.173068 0.061564
0.194103 0.173056 0.061478
0.224694 0.173073 0.061509
0.255771 0.173128 0.061578
0.287258 0.173224 0.061689
0.319095 0.173362 0.061842
0.351234 0.173543 0.062040
0.383633 0.173771 0.062283
0.416256 0.174044 0.062574
0.449073 0.174366 0.062914
0.481914 0.174736 0.063301
0.514351 0.175147 0.063732
0.546347 0.175600 0.064204
0.575478 0.176294 0.065207
0.603488 0.177084 0.066340
0.630676 0.177944 0.067538
0.657043 0.178868 0.068796
0.682590 0.179853 0.070110
0.707314 0.180895 0.071474
0.731207 0.181988 0.072884
0.754258 0.183127 0.074334
0.779785 0.184375 0.075929
0.820996 0.186059 0.078170
0.850718 0.187574 0.080103
0.872341 0.188932 0.081775
0.888139 0.190146 0.083226
0.899612 0.191217 0.084476
0.907296 0.192074 0.085457
0.042000 0.202758 0.062320
0.055575 0.202852 0.061961
0.080468 0.202885 0.061681
0.107312 0.202896 0.061440
0.135462 0.202908 0.061188
0.164626 0.202923 0.060927
0.194624 0.202939 0.060658
0.225278 0.202947 0.060655
0.256417 0.202983 0.060787
0.287967 0.203060 0.060962
0.319869 0.203179 0.061180
0.352072 0.203341 0.061444
0.384536 0.203548 0.061755
0.417225 0.203802 0.062114
0.450109 0.204103 0.062522
0.483017 0.204452 0.062979
0.515520 0.204844 0.063479
0.547582 0.205276 0.064019
0.576822 0.205937 0.065172
0.605049 0.206685 0.066437
0.632448 0.207503 0.067765
0.659021 0.208387 0.069151
0.684770 0.209332 0.070590
0.709690 0.210335 0.072078
0.733774 0.211390 0.073609
0.757011 0.212492 0.075177
0.784504 0.213737 0.076961
0.825239 0.215355 0.079340
0.854617 0.216815 0.081385
0.875986 0.218127 0.083151
0.891596 0.219302 0.084682
0.902929 0.220342 0.085999
0.910518 0.221175 0.087033
0.042000 0.233180 0.061751
0.056469 0.233305 0.061362
0.081318 0.233353 0.061100
0.108109 0.233384 0.060876
0.136205 0.233417 0.060641
0.165312 0.233452 0.060398
0.195251 0.233490 0.060149
0.225901 0.233531 0.059893
0.257107 0.233558 0.059982
0.288721 0.233615 0.060223
0.320688 0.233714 0.060508
0.352957 0.233856 0.060840
0.385488 0.234043 0.061220
0.418244 0.234276 0.061649
0.451196 0.234556 0.062128
0.484172 0.234884 0.062657
0.516743 0.235255 0.063227
0.548871 0.235667 0.063838
0.578236 0.236292 0.065150
0.606684 0.236997 0.066551
0.634300 0.237772 0.068011
0.661085 0.238614 0.069528
0.687040 0.239519 0.071097
0.712161 0.240481 0.072712
0.736442 0.241497 0.074367
0.759868 0.242561 0.076057
0.789356 0.243798 0.078041
0.829598 0.245350 0.080559
0.858619 0.246755 0.082716
0.879725 0.248021 0.084576
0.895141 0.249157 0.086187
0.906329 0.250165 0.087572
0.913819 0.250974 0.088659
0.042000 0.264186 0.061294
0.057522 0.264342 0.060874
0.082333 0.264405 0.060638
0.109070 0.264454 0.060431
0.137109 0.264508 0.060214
0.166157 0.264565 0.059990
0.196036 0.264625 0.059759
0.226625 0.264688 0.059524
0.257833 0.264754 0.059284
0.289518 0.264801 0.059475
0.321551 0.264879 0.059829
0.353887 0.265001 0.060231
0.386486 0.265167 0.060681
0.419311 0.265379 0.061182
0.452331 0.265638 0.061734
0.485377 0.265944 0.062335
0.518016 0.266293 0.062978
0.550199 0.266685 0.063666
0.579717 0.267271 0.065142
0.608393 0.267931 0.066681
0.636230 0.268663 0.068278
0.663231 0.269462 0.069930
0.689397 0.270325 0.071630
0.714723 0.271247 0.073375
0.739204 0.272223 0.075158
0.762825 0.273247 0.076972
0.794324 0.274473 0.079169
0.834058 0.275959 0.081824
0.862712 0.277308 0.084093
0.883548 0.278527 0.086047
0.898763 0.279625 0.087738
0.909803 0.280600 0.089192
0.917191 0.281385 0.090333
0.042000 0.295707 0.060957
0.058740 0.295894 0.060506
0.083516 0.295968 0.060303
0.110199 0.296038 0.060114
0.138180 0.296112 0.059915
0.167169 0.296191 0.059710
0.196987 0.296273 0.059500
0.227512 0.296359 0.059285
0.258656 0.296448 0.059065
0.290352 0.296540 0.058843
0.322458 0.296608 0.059145
0.354862 0.296708 0.059618
0.387529 0.296853 0.060141
0.420424 0.297043 0.060714
0.453514 0.297281 0.061340
0.486630 0.297565 0.062016
0.519339 0.297892 0.062733
0.551512 0.298267 0.063530
0.581266 0.298806 0.065150
0.610172 0.299422 0.066830
0.638235 0.300109 0.068567
0.665457 0.300865 0.070356
0.691837 0.301685 0.072191
0.717373 0.302565 0.074068
0.742058 0.303500 0.075981
0.765876 0.304484 0.077923
0.799398 0.305695 0.080344
0.838611 0.307114 0.083135
0.866887 0.308408 0.085516
0.887446 0.309581 0.087563
0.902454 0.310639 0.089334
0.913342 0.311582 0.090857
0.920626 0.312342 0.092051
0.042000 0.327687 0.060748
0.060125 0.327906 0.060266
0.084874 0.327989 0.060104
0.111501 0.328079 0.059932
0.139424 0.328175 0.059753
0.168351 0.328275 0.059568
0.198106 0.328380 0.059378
0.228567 0.328488 0.059183
0.259645 0.328601 0.058986
0.291274 0.328717 0.058785
0.323401 0.328836 0.058581
0.355881 0.328925 0.059004
0.388618 0.329048 0.059600
0.421582 0.329217 0.060249
0.454744 0.329432 0.060950
0.487931 0.329694 0.061701
0.520711 0.329999 0.062494
0.552888 0.330354 0.063409
0.582882 0.330846 0.065175
0.612023 0.331416 0.067000
0.640315 0.332058 0.068878
0.667760 0.332769 0.070807
0.694360 0.333546 0.072780
0.720109 0.334383 0.074792
0.745001 0.335276 0.076837
0.769020 0.336220 0.078908
0.804567 0.337411 0.081565
0.843247 0.338764 0.084490
0.871137 0.340003 0.086981
0.891411 0.341129 0.089121
0.906208 0.342148 0.090973
0.916939 0.343058 0.092564
0.924117 0.343794 0.093813
0.042000 0.360081 0.060674
0.061712 0.360321 0.060189
0.086411 0.360422 0.060047
0.112981 0.360533 0.059894
0.140843 0.360650 0.059735
0.169709 0.360772 0.059570
0.199400 0.360900 0.059400
0.229796 0.361032 0.059227
0.260807 0.361168 0.059051
0.292368 0.361308 0.058873
0.324425 0.361452 0.058692
0.356935 0.361599 0.058510
0.389750 0.361710 0.059062
0.422786 0.361856 0.059786
0.456019 0.362048 0.060563
0.489278 0.362288 0.061392
0.522129 0.362570 0.062261
0.554535 0.362895 0.063168
0.584564 0.363348 0.065219
0.613944 0.363870 0.067190
0.642469 0.364466 0.069213
0.670142 0.365132 0.071284
0.696963 0.365865 0.073397
0.722929 0.366659 0.075546
0.748031 0.367510 0.077726
0.772255 0.368412 0.079929
0.809823 0.369578 0.082833
0.847959 0.370867 0.085890
0.875453 0.372050 0.088490
0.895437 0.373129 0.090722
0.910018 0.374109 0.092653
0.920590 0.374988 0.094313
0.927659 0.375699 0.095616
0.043412 0.392853 0.060741
0.063485 0.393109 0.060265
0.088130 0.393230 0.060140
0.114642 0.393361 0.060006
0.142444 0.393500 0.059867
0.171247 0.393644 0.059722
0.200873 0.393795 0.059574
0.231202 0.393950 0.059423
0.262146 0.394110 0.059270
0.293638 0.394275 0.059114
0.325624 0.394444 0.058956
0.358063 0.394616 0.058797
0.390918 0.394793 0.058637
0.424033 0.394925 0.059327
0.457339 0.395095 0.060183
0.490671 0.395311 0.061090
0.523594 0.395570 0.062037
0.556072 0.395872 0.063021
0.588092 0.396215 0.064041
0.619640 0.396597 0.065095
0.644696 0.397299 0.069573
0.672600 0.397919 0.071788
0.699646 0.398607 0.074043
0.725831 0.399357 0.076332
0.751146 0.400165 0.078649
0.775578 0.401025 0.080986
0.815159 0.402163 0.084147
0.852739 0.403386 0.087334
0.879831 0.404514 0.090041
0.899519 0.405547 0.092364
0.913880 0.406489 0.094374
0.924290 0.407335 0.096103
0.931248 0.408021 0.097459
0.045410 0.425971 0.060955
0.065445 0.426241 0.060496
0.090035 0.426381 0.060389
0.116489 0.426532 0.060275
0.144229 0.426693 0.060155
0.172968 0.426860 0.060032
0.202528 0.427034 0.059905
0.232790 0.427213 0.059777
0.263665 0.427397 0.059646
0.295087 0.427586 0.059513
0.327002 0.427780 0.059380
0.359369 0.427978 0.059245
0.392151 0.428181 0.059109
0.425318 0.428387 0.058972
0.458704 0.428541 0.059810
0.492109 0.428734 0.060796
0.525105 0.428970 0.061822
0.557655 0.429249 0.062885
0.589746 0.429569 0.063982
0.621365 0.429928 0.065113
0.652496 0.430325 0.066275
0.683119 0.430759 0.067466
0.702408 0.431741 0.074719
0.728815 0.432447 0.077150
0.754347 0.433211 0.079606
0.778989 0.434029 0.082080
0.820568 0.435133 0.085507
0.857584 0.436292 0.088821
0.884266 0.437366 0.091633
0.903652 0.438353 0.094048
0.917790 0.439256 0.096136
0.928035 0.440070 0.097933
0.934881 0.440732 0.099343
0.047591 0.459407 0.061321
0.067595 0.459687 0.060888
0.092131 0.459847 0.060799
0.118524 0.460019 0.060705
0.146202 0.460202 0.060606
0.174877 0.460392 0.060504
0.204370 0.460589 0.060400
0.234564 0.460792 0.060294
0.265369 0.461001 0.060186
0.296720 0.461215 0.060077
0.328563 0.461434 0.059968
0.360856 0.461657 0.059857
0.393564 0.461886 0.059746
0.426656 0.462118 0.059634
0.460106 0.462355 0.059522
0.493592 0.462530 0.060512
0.526661 0.462743 0.061618
0.559284 0.462999 0.062760
0.591447 0.463295 0.063936
0.623137 0.463632 0.065145
0.654338 0.464006 0.066384
0.685030 0.464417 0.067651
0.715191 0.464863 0.068943
0.731882 0.465903 0.078002
0.757633 0.466623 0.080599
0.782487 0.467398 0.083210
0.826044 0.468465 0.086913
0.862486 0.469560 0.090352
0.888753 0.470580 0.093268
0.907833 0.471522 0.095771
0.921744 0.472387 0.097938
0.931821 0.473168 0.099802
0.938553 0.473807 0.101266
0.049948 0.492991 0.061842
0.069929 0.493278 0.061444
0.094409 0.493458 0.061374
0.120743 0.493651 0.061299
0.148358 0.493856 0.061221
0.176967 0.494069 0.061141
0.206393 0.494289 0.061059
0.236518 0.494517 0.060976
0.267253 0.494750 0.060892
0.298532 0.494989 0.060808
0.330302 0.495233 0.060722
0.362522 0.495482 0.060637
0.395155 0.495737 0.060551
0.428171 0.495996 0.060464
0.461545 0.496259 0.060378
0.495108 0.496526 0.060293
0.528255 0.496719 0.061426
0.560950 0.496951 0.062648
0.593186 0.497224 0.063903
0.624948 0.497538 0.065191
0.656219 0.497890 0.066508
0.686981 0.498278 0.067852
0.717211 0.498702 0.069220
0.746881 0.499158 0.070610
0.775957 0.499645 0.072017
0.786056 0.500965 0.084373
0.831557 0.501990 0.088359
0.867421 0.503022 0.091919
0.893268 0.503989 0.094937
0.912039 0.504886 0.097528
0.925721 0.505713 0.099771
0.935629 0.506463 0.101703
0.942247 0.507077 0.103221
0.052448 0.526285 0.062512
0.072415 0.526576 0.062157
0.096839 0.526775 0.062105
0.123113 0.526989 0.062050
0.150666 0.527215 0.061994
0.179210 0.527451 0.061935
0.208569 0.527695 0.061876
0.238625 0.527946 0.061816
0.269290 0.528203 0.061755
0.300498 0.528467 0.061695
0.332197 0.528737 0.061634
0.364343 0.529011 0.061573
0.396901 0.529291 0.061512
0.429841 0.529576 0.061451
0.463139 0.529866 0.061391
0.496626 0.530160 0.061331
0.529863 0.530452 0.061273
0.562633 0.530663 0.062551
0.594940 0.530913 0.063885
0.626772 0.531203 0.065251
0.658114 0.531532 0.066646
0.688945 0.531899 0.068066
0.719243 0.532300 0.069511
0.748980 0.532735 0.070975
0.778122 0.533200 0.072455
0.806627 0.533694 0.073948
0.837034 0.535270 0.089827
0.872322 0.536241 0.093503
0.897751 0.537156 0.096619
0.916215 0.538009 0.099295
0.929669 0.538799 0.101613
0.939409 0.539519 0.103610
0.945912 0.540109 0.105180
0.055084 0.559248 0.063325
0.075045 0.559539 0.063022
0.099414 0.559757 0.062989
0.125629 0.559992 0.062954
0.153119 0.560240 0.062919
0.181598 0.560498 0.062882
0.210892 0.560765 0.062845
0.240880 0.561040 0.062808
0.271475 0.561321 0.062771
0.302613 0.561610 0.062734
0.334239 0.561904 0.062698
0.366312 0.562204 0.062661
0.398796 0.562509 0.062626
0.431662 0.562820 0.062590
0.464884 0.563136 0.062556
0.498294 0.563456 0.062522
0.531456 0.563774 0.062490
0.564328 0.564091 0.062469
0.596706 0.564319 0.063882
0.628608 0.564586 0.065326
0.660019 0.564893 0.066798
0.690918 0.565237 0.068294
0.721284 0.565616 0.069814
0.751087 0.566029 0.071352
0.780294 0.566474 0.072906
0.809470 0.566947 0.074471
0.865145 0.567445 0.076041
0.905775 0.567966 0.077609
0.902195 0.570040 0.098312
0.920353 0.570851 0.101070
0.933582 0.571605 0.103460
0.943155 0.572294 0.105522
0.949544 0.572862 0.107143
0.057850 0.591864 0.064279
0.077813 0.592153 0.064036
0.102127 0.592390 0.064022
0.128283 0.592645 0.064007
0.155712 0.592915 0.063992
0.184127 0.593195 0.063977
0.213354 0.593485 0.063963
0.243275 0.593783 0.063948
0.273801 0.594088 0.063935
0.304868 0.594400 0.063922
0.336423 0.594719 0.063910
0.368424 0.595044 0.063898
0.400835 0.595375 0.063887
0.433626 0.595711 0.063878
0.466773 0.596053 0.063869
0.500107 0.596398 0.063861
0.533194 0.596743 0.063854
0.565993 0.597086 0.063849
0.598482 0.597424 0.063894
0.630454 0.597669 0.065415
0.661933 0.597954 0.066963
0.692899 0.598276 0.068536
0.723331 0.598633 0.070130
0.753200 0.599025 0.071742
0.782472 0.599448 0.073369
0.814570 0.599900 0.075005
0.869062 0.600378 0.076645
0.908803 0.600879 0.078282
0.937899 0.601397 0.079907
0.959260 0.601927 0.081506
0.937457 0.604113 0.105312
0.946865 0.604773 0.107436
0.953142 0.605319 0.109108
0.060739 0.624117 0.065369
0.080712 0.624399 0.065195
0.104972 0.624655 0.065199
0.131070 0.624931 0.065204
0.158437 0.625221 0.065210
0.186788 0.625523 0.065216
0.215950 0.625836 0.065224
0.245804 0.626157 0.065233
0.276262 0.626485 0.065242
0.307259 0.626822 0.065253
0.338743 0.627165 0.065265
0.370672 0.627515 0.065278
0.403010 0.627870 0.065293
0.435728 0.628232 0.065308
0.468800 0.628599 0.065325
0.502060 0.628970 0.065343
0.535072 0.629340 0.065362
0.567796 0.629709 0.065382
0.600216 0.630076 0.065403
0.632306 0.630433 0.065519
0.663852 0.630696 0.067143
0.694886 0.630996 0.068791
0.725384 0.631332 0.070459
0.755318 0.631702 0.072144
0.784654 0.632104 0.073843
0.819556 0.632536 0.075550
0.872888 0.632994 0.077260
0.911758 0.633474 0.078965
0.940199 0.633973 0.080656
0.961067 0.634485 0.082319
0.976378 0.635000 0.083933
0.987505 0.635502 0.085458
0.994948 0.635937 0.086743
0.063744 0.655985 0.066590
0.083735 0.656258 0.066492
0.107942 0.656532 0.066515
0.133981 0.656828 0.066539
0.161287 0.657139 0.066566
0.189576 0.657463 0.066594
0.218673 0.657798 0.066624
0.248460 0.658142 0.066656
0.278850 0.658494 0.066689
0.309779 0.658854 0.066723
0.341193 0.659221 0.066759
0.373050 0.659595 0.066797
0.405316 0.659975 0.066836
0.437961 0.660362 0.066877
0.470959 0.660754 0.066919
0.504144 0.661151 0.066963
0.537083 0.661546 0.067007
0.569734 0.661940 0.067053
0.602081 0.662331 0.067099
0.634106 0.662720 0.067146
0.665776 0.663096 0.067337
0.696875 0.663375 0.069059
0.727438 0.663689 0.070801
0.757436 0.664038 0.072559
0.786835 0.664420 0.074329
0.824427 0.664831 0.076107
0.876621 0.665269 0.077885
0.914639 0.665730 0.079658
0.942440 0.666210 0.081414
0.962826 0.666704 0.083141
0.977775 0.667201 0.084815
0.988633 0.667687 0.086397
0.995893 0.668108 0.087729
0.066857 0.687446 0.067937
0.086875 0.687706 0.067924
0.111027 0.687999 0.067964
0.137009 0.688314 0.068009
0.164256 0.688646 0.068056
0.192482 0.688991 0.068105
0.221515 0.689348 0.068157
0.251236 0.689714 0.068211
0.281559 0.690089 0.068268
0.312419 0.690472 0.068326
0.343764 0.690863 0.068386
0.375550 0.691261 0.068448
0.407745 0.691666 0.068512
0.440317 0.692077 0.068577
0.473242 0.692495 0.068645
0.506354 0.692916 0.068715
0.539219 0.693336 0.068785
0.571798 0.693755 0.068856
0.604073 0.694171 0.068927
0.636027 0.694584 0.068999
0.667638 0.694995 0.069071
0.698865 0.695387 0.069340
0.729492 0.695681 0.071155
0.759553 0.696009 0.072985
0.789015 0.696370 0.074826
0.829179 0.696761 0.076674
0.880260 0.697179 0.078521
0.917445 0.697621 0.080360
0.944620 0.698083 0.082181
0.964536 0.698558 0.083971
0.979132 0.699038 0.085705
0.989728 0.699508 0.087343
0.996810 0.699916 0.088721
0.070101 0.718459 0.069434
0.090121 0.718716 0.069482
0.114221 0.719026 0.069541
0.140146 0.719361 0.069605
0.167333 0.719714 0.069673
0.195497 0.720080 0.069744
0.224467 0.720458 0.069818
0.254123 0.720847 0.069894
0.284380 0.721244 0.069973
0.315172 0.721651 0.070055
0.346448 0.722065 0.070139
0.378165 0.722487 0.070225
0.410289 0.722916 0.070313
0.442790 0.723351 0.070404
0.475642 0.723793 0.070497
0.508681 0.724239 0.070592
0.541474 0.724684 0.070687
0.573981 0.725127 0.070783
0.606185 0.725567 0.070880
0.638069 0.726004 0.070976
0.669610 0.726438 0.071073
0.700784 0.726869 0.071170
0.731543 0.727276 0.071522
0.761666 0.727584 0.073423
0.791189 0.727925 0.075334
0.833808 0.728296 0.077250
0.883801 0.728694 0.079165
0.920173 0.729117 0.081071
0.946737 0.729560 0.082957
0.966195 0.730017 0.084808
0.980448 0.730480 0.086602
0.990790 0.730935 0.088295
0.997698 0.731329 0.089719
0.073488 0.748983 0.071098
0.093465 0.749255 0.071162
0.117513 0.749583 0.071238
0.143382 0.749937 0.071322
0.170510 0.750309 0.071410
0.198613 0.750697 0.071502
0.227520 0.751096 0.071597
0.257112 0.751506 0.071696
0.287303 0.751927 0.071798
0.318029 0.752356 0.071903
0.349237 0.752793 0.072011
0.380885 0.753238 0.072121
0.412939 0.753691 0.072234
0.445369 0.754150 0.072349
0.478150 0.754616 0.072467
0.511117 0.755087 0.072588
0.543839 0.755556 0.072708
0.576275 0.756022 0.072829
0.608409 0.756486 0.072950
0.640222 0.756947 0.073072
0.671695 0.757404 0.073193
0.702801 0.757858 0.073314
0.733513 0.758308 0.073435
0.763771 0.758728 0.073871
0.793354 0.759049 0.075852
0.838311 0.759401 0.077837
0.887243 0.759780 0.079818
0.922821 0.760184 0.081789
0.948792 0.760609 0.083739
0.967804 0.761048 0.085652
0.981723 0.761494 0.087504
0.991818 0.761933 0.089252
0.998557 0.762314 0.090721
0.076961 0.778997 0.072875
0.096895 0.779283 0.072953
0.120892 0.779629 0.073048
0.146706 0.780002 0.073150
0.173775 0.780394 0.073259
0.201819 0.780802 0.073372
0.230664 0.781222 0.073489
0.260192 0.781654 0.073610
0.290319 0.782096 0.073734
0.320978 0.782548 0.073862
0.352119 0.783008 0.073993
0.383700 0.783476 0.074127
0.415685 0.783952 0.074265
0.448045 0.784435 0.074405
0.480756 0.784925 0.074548
0.513652 0.785420 0.074693
0.546303 0.785912 0.074838
0.578669 0.786402 0.074984
0.610734 0.786889 0.075130
0.642479 0.787373 0.075276
0.673883 0.787854 0.075421
0.704923 0.788330 0.075566
0.735568 0.788802 0.075711
0.765787 0.789269 0.075855
0.795506 0.789701 0.076379
0.842682 0.790033 0.078431
0.890582 0.790393 0.080479
0.925389 0.790779 0.082515
0.950782 0.791186 0.084527
0.969361 0.791608 0.086501
0.982956 0.792037 0.088411
0.992810 0.792460 0.090212
0.999387 0.792829 0.091727
0.080507 0.808521 0.074755
0.100399 0.809215 0.074848
0.124345 0.810049 0.074960
0.150105 0.810946 0.075082
0.177117 0.811885 0.075210
0.205102 0.812857 0.075344
0.233885 0.813854 0.075482
0.263351 0.814874 0.075625
0.293414 0.815913 0.075772
0.324009 0.816968 0.075923
0.355084 0.818038 0.076077
0.386598 0.819121 0.076235
0.418515 0.820216 0.076396
0.450807 0.821322 0.076560
0.483448 0.822437 0.076728
0.516274 0.823557 0.076898
0.548856 0.824666 0.077068
0.581153 0.825763 0.077238
0.613150 0.826847 0.077408
0.644827 0.827919 0.077578
0.676165 0.828977 0.077748
0.707138 0.830020 0.077917
0.737719 0.831048 0.078085
0.767873 0.832060 0.078253
0.797560 0.833054 0.078419
0.846918 0.833959 0.079033
0.893813 0.834657 0.081146
0.927871 0.835405 0.083245
0.952705 0.836193 0.085319
0.970865 0.837011 0.087353
0.984145 0.837841 0.089321
0.993768 0.838658 0.091175
1.000000 0.839368 0.092734
0.084110 0.866083 0.076728
0.103961 0.866621 0.076835
0.127857 0.867267 0.076964
0.153563 0.867961 0.077105
0.180520 0.868688 0.077252
0.208446 0.869440 0.077407
0.237170 0.870211 0.077566
0.266575 0.870999 0.077731
0.296576 0.871802 0.077900
0.327107 0.872617 0.078073
0.358117 0.873443 0.078250
0.389565 0.874279 0.078431
0.421416 0.875124 0.078616
0.453640 0.875977 0.078804
0.486213 0.876837 0.078996
0.518971 0.877700 0.079191
0.551484 0.878554 0.079385
