creator-kit/luts/AK_Film_Test_Match.cube
# FILM_test
TITLE "FILM_test"
LUT_3D_SIZE 9
DOMAIN_MIN 0.0 0.0 0.0
DOMAIN_MAX 1.0 1.0 1.0
0.015660 0.007971 0.000000
0.164486 0.034334 0.018185
0.299084 0.058603 0.041689
0.415099 0.080261 0.061846
0.520918 0.101064 0.080091
0.619795 0.121590 0.097011
0.713506 0.141648 0.113024
0.803174 0.160698 0.128485
0.889471 0.178447 0.143643
0.080952 0.167150 0.057423
0.181225 0.177296 0.071523
0.301227 0.192563 0.089023
0.410759 0.208891 0.105422
0.512991 0.225298 0.121110
0.609749 0.241033 0.136391
0.702083 0.255863 0.151448
0.790555 0.269939 0.166391
0.875411 0.283528 0.181317
0.138663 0.318821 0.115133
0.222815 0.328025 0.126708
0.329072 0.340101 0.141892
0.429689 0.351734 0.156897
0.525559 0.363007 0.171821
0.617187 0.374083 0.186771
0.704791 0.385114 0.201894
0.788344 0.396232 0.217383
0.867596 0.407571 0.233477
0.189609 0.447749 0.166079
0.266088 0.454241 0.177254
0.364154 0.462931 0.192248
0.457960 0.471702 0.207479
0.547653 0.480606 0.223158
0.633147 0.489710 0.239539
0.714157 0.499111 0.256897
0.790271 0.508939 0.275485
0.861079 0.519346 0.295475
0.240583 0.558319 0.217054
0.312053 0.563327 0.229026
0.404007 0.570134 0.245731
0.491838 0.577131 0.263510
0.575219 0.584429 0.282596
0.653761 0.592190 0.303109
0.727173 0.600600 0.324991
0.795255 0.609679 0.347805
0.857954 0.619171 0.370688
0.298612 0.654422 0.275083
0.366414 0.657933 0.289897
0.453028 0.662961 0.310927
0.534778 0.668606 0.333246
0.611061 0.674801 0.356159
0.681737 0.681538 0.378927
0.747258 0.688892 0.401051
0.808300 0.696811 0.422152
0.865601 0.705168 0.442008
0.370855 0.735237 0.347326
0.433440 0.737820 0.364493
0.511705 0.741946 0.387079
0.584197 0.746935 0.408866
0.651497 0.752741 0.429532
0.714324 0.759221 0.448909
0.773389 0.766191 0.466962
0.829313 0.773465 0.483741
0.882597 0.780881 0.499345
0.445253 0.804193 0.421723
0.499346 0.807201 0.436740
0.567096 0.811988 0.455634
0.630455 0.817453 0.473214
0.690128 0.823381 0.489552
0.746700 0.829581 0.504757
0.800633 0.835899 0.518945
0.852278 0.842218 0.532231
0.901898 0.848449 0.544715
0.506932 0.868803 0.483403
0.553764 0.872372 0.495213
0.613284 0.877455 0.510034
0.669851 0.882744 0.523881
0.723873 0.888106 0.536864
0.775662 0.893440 0.549079
0.825453 0.898672 0.560606
0.873424 0.903750 0.571516
0.919709 0.908638 0.581863
0.027132 0.019540 0.162706
0.162636 0.040951 0.139107
0.296937 0.064259 0.143987
0.412946 0.085596 0.154586
0.518773 0.106307 0.166565
0.617663 0.126757 0.178908
0.711405 0.146609 0.191375
0.801109 0.165338 0.203970
0.887412 0.182762 0.216716
0.085854 0.170432 0.151967
0.184262 0.181027 0.160733
0.302865 0.196654 0.172960
0.411588 0.213094 0.185374
0.513321 0.229383 0.197903
0.609739 0.244889 0.210576
0.701798 0.259505 0.223398
0.790005 0.273431 0.236362
0.874565 0.286938 0.249493
0.142619 0.321944 0.193064
0.226029 0.331134 0.202499
0.331553 0.343102 0.215228
0.431610 0.354630 0.228101
0.527010 0.365837 0.241121
0.618206 0.376888 0.254327
0.705372 0.387928 0.267813
0.788442 0.399090 0.281728
0.867131 0.410508 0.296266
0.193403 0.449954 0.236090
0.269433 0.456447 0.245903
0.366978 0.465153 0.259198
0.460311 0.473952 0.272820
0.549536 0.482899 0.286937
0.634528 0.492069 0.301758
0.714977 0.501565 0.317516
0.790464 0.511525 0.334426
0.860605 0.522103 0.352627
0.244606 0.560012 0.281431
0.315768 0.565044 0.292239
0.407314 0.571892 0.307374
0.494707 0.578953 0.323529
0.577597 0.586352 0.340900
0.655600 0.594260 0.359578
0.728461 0.602865 0.379498
0.795911 0.612054 0.400115
0.858083 0.621652 0.420733
0.303553 0.655597 0.334060
0.371077 0.659168 0.347548
0.457250 0.664328 0.366696
0.538452 0.670140 0.386976
0.614052 0.676458 0.407645
0.684089 0.683351 0.428153
0.749066 0.690856 0.448089
0.809678 0.698901 0.467149
0.866654 0.707344 0.485153
0.376693 0.736072 0.399683
0.438682 0.738791 0.415153
0.516144 0.743133 0.435496
0.587890 0.748339 0.455142
0.654545 0.754332 0.473831
0.716840 0.760955 0.491429
0.775475 0.768019 0.507906
0.831051 0.775343 0.523299
0.884047 0.782773 0.537685
0.450434 0.805153 0.466761
0.503897 0.808342 0.480368
0.570923 0.813323 0.497557
0.633682 0.818925 0.513632
0.692863 0.824939 0.528648
0.749029 0.831182 0.542690
0.802618 0.837510 0.555849
0.853966 0.843814 0.568214
0.903322 0.850012 0.579867
0.511015 0.869986 0.522988
0.557397 0.873636 0.533868
0.616411 0.878787 0.547578
0.672553 0.884106 0.560438
0.726212 0.889469 0.572535
0.777685 0.894783 0.583946
0.827193 0.899980 0.594736
0.874906 0.905013 0.604961
0.920951 0.909847 0.614667
0.037508 0.030053 0.317073
0.162946 0.049239 0.281887
0.295468 0.071633 0.271939
0.410958 0.092665 0.273003
0.516545 0.113287 0.278163
0.615314 0.133595 0.285293
0.709011 0.153114 0.293605
0.798693 0.171397 0.302762
0.884940 0.188413 0.312554
0.092213 0.175084 0.272270
0.188377 0.186183 0.275356
0.305219 0.202196 0.281690
0.412899 0.218685 0.289492
0.513971 0.234752 0.298274
0.609920 0.249946 0.307784
0.701587 0.264298 0.317839
0.789408 0.278052 0.328313
0.873538 0.291474 0.339145
0.147859 0.326122 0.294795
0.230334 0.335248 0.301662
0.334919 0.347063 0.311389
0.434242 0.358463 0.321609
0.529017 0.369599 0.332216
0.619627 0.380632 0.343176
0.706192 0.391699 0.354518
0.788594 0.402931 0.366331
0.866505 0.414471 0.378755
0.198469 0.452897 0.328091
0.273919 0.459396 0.336166
0.370787 0.468128 0.347258
0.463496 0.476971 0.358758
0.552093 0.485984 0.370774
0.636408 0.495251 0.383464
0.716097 0.504888 0.397010
0.790744 0.515040 0.411585
0.860010 0.525863 0.427302
0.250044 0.562285 0.366078
0.320808 0.567351 0.375307
0.411816 0.574261 0.388287
0.498623 0.581420 0.402189
0.580854 0.588971 0.417172
0.658139 0.597095 0.433312
0.730243 0.605943 0.450520
0.796857 0.615266 0.468171
0.858368 0.625006 0.485825
0.310294 0.657193 0.411269
0.377436 0.660859 0.422914
0.462998 0.666224 0.439469
0.543394 0.672230 0.456925
0.618076 0.678730 0.474615
0.687270 0.685833 0.492189
0.751537 0.693534 0.509339
0.811590 0.701732 0.525832
0.868141 0.710273 0.541526
0.384477 0.737253 0.467801
0.445648 0.740169 0.481044
0.522026 0.744805 0.498496
0.592783 0.750293 0.515429
0.658592 0.756520 0.531643
0.720192 0.763314 0.547028
0.778263 0.770486 0.561548
0.833381 0.777862 0.575219
0.885995 0.785298 0.588087
0.457221 0.806534 0.525496
0.509861 0.809950 0.537343
0.575944 0.815167 0.552414
0.637926 0.820931 0.566621
0.696469 0.827041 0.579994
0.752104 0.833328 0.592583
0.805244 0.839658 0.604449
0.856201 0.845934 0.615651
0.905207 0.852082 0.626246
0.516349 0.871613 0.574942
0.562154 0.875357 0.584665
0.620513 0.880581 0.596984
0.676104 0.885927 0.608601
0.729291 0.891283 0.619576
0.780349 0.896563 0.629962
0.829485 0.901709 0.639806
0.876856 0.906678 0.649149
0.922585 0.911440 0.658024
0.046455 0.039177 0.450310
0.164876 0.057102 0.411270
0.295123 0.078860 0.392244
0.409766 0.099693 0.386236
0.514922 0.120235 0.385906
0.613459 0.140341 0.388647
0.707034 0.159473 0.393350
0.796626 0.177307 0.399440
0.882753 0.193950 0.406532
0.098384 0.179991 0.386964
0.192536 0.191506 0.385574
0.307738 0.207793 0.387036
0.414419 0.224223 0.390889
0.514836 0.240016 0.396369
0.610301 0.254904 0.403020
0.701549 0.269022 0.410520
0.788951 0.282635 0.418646
0.872612 0.295999 0.427267
0.153059 0.330283 0.394100
0.234658 0.339312 0.398674
0.338341 0.350975 0.405666
0.436944 0.362266 0.413415
0.531095 0.373350 0.421732
0.621112 0.384380 0.430515
0.707058 0.395488 0.439735
0.788765 0.406808 0.449426
0.865869 0.418488 0.459677
0.203541 0.455841 0.418471
0.278433 0.462352 0.424879
0.374643 0.471116 0.433821
0.466734 0.480009 0.443205
0.554703 0.489097 0.453087
0.638331 0.498475 0.463573
0.717252 0.508270 0.474808
0.791059 0.518633 0.486939
0.859472 0.529715 0.500077
0.255570 0.564572 0.449218
0.325948 0.569676 0.456827
0.416425 0.576658 0.467569
0.502643 0.583932 0.479114
0.584211 0.591657 0.491602
0.660780 0.600018 0.505117
0.732078 0.609064 0.519507
0.797895 0.618527 0.534219
0.858786 0.628402 0.549012
0.317202 0.658826 0.486676
0.383945 0.662610 0.496402
0.468868 0.668209 0.510293
0.548369 0.674375 0.524839
0.622132 0.681072 0.539608
0.690495 0.688384 0.554372
0.754069 0.696270 0.568902
0.813576 0.704602 0.583014
0.869710 0.713223 0.596582
0.392231 0.738519 0.533910
0.452559 0.741646 0.544996
0.527846 0.746577 0.559700
0.597626 0.752332 0.574096
0.662608 0.758774 0.588022
0.723530 0.765717 0.601371
0.781051 0.772976 0.614094
0.835718 0.780386 0.626179
0.887953 0.787816 0.637641
0.463856 0.808024 0.582725
0.515695 0.811647 0.592952
0.580865 0.817074 0.606076
0.642096 0.822977 0.618567
0.700021 0.829164 0.630423
0.755139 0.835478 0.641664
0.807839 0.841800 0.652321
0.858411 0.848039 0.662428
0.907072 0.854131 0.672020
0.521556 0.873287 0.625933
0.566806 0.877109 0.634585
0.624534 0.882389 0.645610
0.679592 0.887750 0.656063
0.732319 0.893088 0.665978
0.782970 0.898329 0.675390
0.831740 0.903418 0.684328
0.878775 0.908320 0.692820
0.924190 0.913007 0.700890
0.054625 0.047576 0.572108
0.167688 0.064673 0.531549
0.295572 0.085989 0.506521
0.409196 0.106695 0.495103
0.513807 0.127137 0.490278
0.612037 0.146973 0.489283
0.705427 0.165677 0.490822
0.794870 0.183079 0.494149
0.880817 0.199386 0.498752
0.104388 0.185109 0.496986
0.196722 0.196959 0.491998
0.310396 0.213405 0.489384
0.416124 0.229683 0.489821
0.515894 0.245172 0.492364
0.610859 0.259772 0.496408
0.701663 0.273688 0.501523
0.788615 0.287190 0.507413
0.871770 0.300521 0.513884
0.158226 0.334406 0.491180
0.238998 0.343323 0.493688
0.341814 0.354843 0.498164
0.439712 0.366045 0.503590
0.533239 0.377095 0.509710
0.622653 0.388137 0.516360
0.707962 0.399302 0.523457
0.788950 0.410726 0.530984
0.865222 0.422565 0.538985
0.208624 0.458790 0.507284
0.282980 0.465317 0.512075
0.378548 0.474119 0.518895
0.470030 0.483069 0.526147
0.557367 0.492244 0.533838
0.640301 0.501748 0.542034
0.718446 0.511718 0.550853
0.791420 0.522309 0.560436
0.859010 0.533663 0.570916
0.261194 0.566876 0.530822
0.331197 0.572023 0.536758
0.421148 0.579089 0.545166
0.506773 0.586496 0.554246
0.587671 0.594415 0.564142
0.663529 0.603034 0.574971
0.733973 0.612230 0.586468
0.799031 0.621837 0.598310
0.859341 0.631839 0.610372
0.324275 0.660507 0.560227
0.390597 0.664431 0.567972
0.474809 0.670255 0.579112
0.553370 0.676582 0.590744
0.626214 0.683486 0.602684
0.693758 0.691003 0.614786
0.756656 0.699057 0.626875
0.815631 0.707506 0.638791
0.871353 0.716188 0.650406
0.399935 0.739878 0.598060
0.459402 0.743223 0.607080
0.533597 0.748445 0.619198
0.602414 0.754452 0.631241
0.666589 0.761085 0.643060
0.726850 0.768155 0.654542
0.783834 0.775483 0.665614
0.838058 0.782913 0.676237
0.889917 0.790325 0.686394
0.470339 0.809612 0.638545
0.521399 0.813423 0.647284
0.585686 0.819035 0.658623
0.646193 0.825054 0.669535
0.703519 0.831301 0.679989
0.758135 0.837629 0.689976
0.810404 0.843932 0.699500
0.860596 0.850127 0.708573
0.908915 0.856158 0.717209
0.526639 0.875001 0.676020
0.571357 0.878886 0.683679
0.628476 0.884207 0.693497
0.683018 0.889569 0.702855
0.735296 0.894882 0.711767
0.785549 0.900076 0.720248
0.833958 0.905105 0.728317
0.880661 0.909936 0.735988
0.925765 0.914546 0.743278
0.062268 0.055513 0.686230
0.171022 0.072037 0.645099
0.296602 0.093055 0.615886
0.409126 0.113672 0.600224
0.513122 0.133971 0.591669
0.610993 0.153471 0.587463
0.704150 0.171728 0.586201
0.793389 0.188723 0.587013
0.879102 0.204737 0.589296
0.110242 0.190400 0.603040
0.200926 0.202505 0.595112
0.313179 0.218994 0.589048
0.417995 0.235046 0.586503
0.517123 0.250223 0.586407
0.611576 0.264561 0.588047
0.701912 0.278307 0.590915
0.788384 0.291725 0.594654
0.870996 0.305047 0.599011
0.163366 0.338481 0.586204
0.243355 0.347281 0.586833
0.345334 0.358675 0.588970
0.442539 0.369807 0.592191
0.535444 0.380839 0.596178
0.624246 0.391908 0.600716
0.708900 0.403145 0.605667
0.789146 0.414692 0.610968
0.864561 0.426709 0.616628
0.213725 0.461744 0.594568
0.287564 0.468293 0.597776
0.382508 0.477138 0.602476
0.473386 0.486156 0.607558
0.560089 0.495428 0.612984
0.642321 0.505074 0.618792
0.719688 0.515237 0.625086
0.791839 0.526074 0.632029
0.858640 0.537710 0.639798
0.266927 0.569197 0.610854
0.336565 0.574393 0.615050
0.425990 0.581558 0.621019
0.511016 0.589118 0.627529
0.591240 0.597255 0.634753
0.666353 0.606115 0.642823
0.735936 0.615445 0.651431
0.800270 0.625193 0.660507
0.860032 0.635309 0.669993
0.331510 0.662245 0.631876
0.397386 0.666332 0.637595
0.480786 0.672347 0.645904
0.558389 0.678858 0.654682
0.630314 0.685972 0.663918
0.697053 0.693684 0.673524
0.759291 0.701890 0.683355
0.817745 0.710436 0.693255
0.873062 0.719162 0.703082
0.407570 0.741334 0.660313
0.466163 0.744901 0.667380
0.539271 0.750403 0.677085
0.607143 0.756643 0.686959
0.670531 0.763446 0.696848
0.730149 0.770623 0.706620
0.786608 0.778001 0.716176
0.840395 0.785438 0.725448
0.891882 0.792821 0.734391
0.476667 0.811291 0.693048
0.526974 0.815271 0.700425
0.590410 0.821043 0.710128
0.650217 0.827158 0.719587
0.706963 0.833447 0.728743
0.761090 0.839777 0.737561
0.812936 0.846051 0.746019
0.862754 0.852196 0.754111
0.910734 0.858161 0.761836
0.531604 0.876747 0.725257
0.575809 0.880681 0.731994
0.632343 0.886028 0.740682
0.686383 0.891383 0.749008
0.738224 0.896662 0.756966
0.788087 0.901805 0.764557
0.836141 0.906770 0.771788
0.882515 0.911528 0.778666
0.927310 0.916059 0.785198
0.069518 0.063136 0.794654
0.174683 0.079257 0.753389
0.298067 0.100081 0.721146
0.409463 0.120619 0.702088
0.512809 0.140712 0.690401
0.610285 0.159821 0.683406
0.703164 0.177631 0.679635
0.792152 0.194253 0.678135
0.877582 0.210016 0.678235
0.115964 0.195830 0.705668
0.205143 0.208104 0.695305
0.316072 0.224528 0.686289
0.420014 0.240304 0.681112
0.518506 0.255176 0.678620
0.612433 0.269282 0.678022
0.702280 0.282888 0.678751
0.788243 0.296249 0.680394
0.870276 0.309587 0.682649
0.168484 0.342503 0.679317
0.247728 0.351190 0.678216
0.348899 0.362476 0.678158
0.445423 0.373558 0.679261
0.537705 0.384588 0.681157
0.625885 0.395699 0.683577
0.709867 0.407024 0.686337
0.789348 0.418712 0.689333
0.863887 0.430928 0.692549
0.218849 0.464707 0.680352
0.292192 0.471282 0.681989
0.386527 0.480178 0.684550
0.476807 0.489271 0.687404
0.562873 0.498655 0.690476
0.644397 0.508459 0.693787
0.720985 0.518835 0.697455
0.792328 0.529931 0.701683
0.858345 0.541826 0.706684
0.272781 0.571539 0.689268
0.342060 0.576792 0.691650
0.430958 0.584073 0.695072
0.515376 0.591807 0.698917
0.594920 0.600183 0.703409
0.669224 0.609238 0.708652
0.737973 0.618709 0.714444
0.801615 0.628592 0.720886
0.860857 0.638809 0.727966
0.338900 0.664050 0.701587
0.404299 0.668321 0.705254
0.486787 0.674495 0.710690
0.563416 0.681204 0.716712
0.634426 0.688528 0.723394
0.700375 0.696423 0.730682
0.761967 0.704762 0.738438
0.819911 0.713387 0.746494
0.874827 0.722140 0.754688
0.415117 0.742891 0.720745
0.472830 0.746678 0.725984
0.544860 0.752448 0.733460
0.611808 0.758900 0.741345
0.674430 0.765851 0.749469
0.733423 0.773114 0.757676
0.789368 0.780526 0.765839
0.842726 0.787956 0.773860
0.893844 0.795301 0.781671
0.482843 0.813052 0.746324
0.532422 0.817181 0.752455
0.595037 0.823091 0.760659
0.654169 0.829282 0.768780
0.710353 0.835597 0.776731
0.764003 0.841918 0.784453
0.815435 0.848155 0.791906
0.864885 0.854244 0.799065
0.912529 0.860139 0.805917
0.536455 0.878519 0.773694
0.580168 0.882490 0.779571
0.636135 0.887851 0.787199
0.689689 0.893188 0.794547
0.741103 0.898426 0.801596
0.790583 0.903512 0.808334
0.838287 0.908410 0.814757
0.884336 0.913093 0.820864
0.928825 0.917543 0.826658
0.076452 0.070536 0.898587
0.178551 0.086382 0.857407
0.299868 0.107082 0.822901
0.410140 0.127518 0.801083
0.512821 0.147337 0.786737
0.609874 0.166017 0.777293
0.702438 0.183394 0.771251
0.791131 0.199685 0.767602
0.876233 0.215237 0.765622
0.121568 0.201360 0.805296
0.209372 0.213715 0.792892
0.319065 0.229983 0.781327
0.422167 0.245455 0.773800
0.520025 0.260039 0.769107
0.613415 0.273945 0.766402
0.702753 0.287441 0.765070
0.788179 0.300771 0.764650
0.869597 0.314148 0.764791
0.173584 0.346471 0.770638
0.252118 0.355056 0.767928
0.352505 0.366254 0.765785
0.448359 0.377303 0.764832
0.540019 0.388345 0.764652
0.627569 0.399514 0.764928
0.710860 0.410945 0.765432
0.789557 0.422793 0.766027
0.863206 0.435226 0.766690
0.224005 0.467680 0.764652
0.296871 0.474285 0.764713
0.390612 0.483240 0.765094
0.480298 0.492419 0.765642
0.565723 0.501930 0.766258
0.646534 0.511911 0.766964
0.722345 0.522516 0.767912
0.792903 0.533885 0.769373
0.858108 0.545981 0.771548
0.278764 0.573904 0.766014
0.347689 0.579225 0.766499
0.436056 0.586640 0.767269
0.519856 0.594570 0.768367
0.598713 0.603204 0.770099
0.672149 0.612407 0.772482
0.740086 0.622022 0.775568
0.803064 0.632030 0.779535
0.861811 0.642332 0.784390
0.346434 0.665934 0.769335
0.411280 0.670369 0.770904
0.492800 0.676706 0.773510
0.568442 0.683622 0.776906
0.638543 0.691150 0.781204
0.703716 0.699213 0.786357
0.764678 0.707668 0.792217
0.822122 0.716353 0.798593
0.876640 0.725117 0.805293
0.422562 0.744548 0.779443
0.479393 0.748551 0.782987
0.550360 0.754571 0.788418
0.616405 0.761214 0.794489
0.678284 0.768291 0.801004
0.736668 0.775622 0.807779
0.792112 0.783053 0.814658
0.845047 0.790464 0.821518
0.895799 0.797763 0.828268
0.488868 0.814885 0.798456
0.537745 0.819145 0.803450
0.599570 0.825170 0.810279
0.658050 0.831419 0.817163
0.713689 0.837749 0.823992
0.766875 0.844050 0.830686
0.817900 0.850242 0.837187
0.866986 0.856270 0.843457
0.914299 0.862092 0.849471
0.541196 0.880311 0.821375
0.584436 0.884308 0.826448
0.639856 0.889670 0.833077
0.692937 0.894981 0.839498
0.743933 0.900172 0.845677
0.793037 0.905198 0.851594
0.840396 0.910025 0.857235
0.886124 0.914631 0.862594
0.930310 0.919000 0.867668
0.083123 0.077782 0.998836
0.182555 0.093445 0.957851
0.301933 0.114058 0.921616
0.411106 0.134347 0.897524
0.513119 0.153826 0.880896
0.609728 0.172059 0.869277
0.701944 0.189032 0.861155
0.790302 0.205031 0.855484
0.875031 0.220411 0.851501
0.127070 0.206951 0.902269
0.213615 0.219302 0.888136
0.322149 0.235340 0.874342
0.424439 0.250500 0.864694
0.521665 0.264824 0.857955
0.614508 0.278561 0.853243
0.703317 0.291976 0.849901
0.788179 0.305298 0.847425
0.868947 0.318738 0.845418
0.178671 0.350390 0.860267
0.256524 0.358886 0.856043
0.356152 0.370015 0.851897
0.451346 0.381047 0.848923
0.542384 0.392118 0.846658
0.629293 0.403359 0.844742
0.711879 0.414913 0.842905
0.789772 0.426941 0.840994
0.862522 0.439612 0.838992
0.229201 0.470666 0.847471
0.301606 0.477306 0.845936
0.394768 0.486327 0.844075
0.483864 0.495606 0.842222
0.568646 0.505259 0.840272
0.648740 0.515434 0.838266
0.723780 0.526285 0.836418
0.793576 0.537937 0.835093
0.857950 0.550173 0.834421
0.284888 0.576296 0.841035
0.353461 0.581696 0.839540
0.441288 0.589266 0.837558
0.524456 0.597415 0.835852
0.602577 0.606287 0.834781
0.675127 0.615625 0.834358
0.742277 0.625380 0.834878
0.804617 0.635502 0.836545
0.862889 0.645872 0.839360
0.354100 0.667906 0.835112
0.418293 0.672464 0.834541
0.498810 0.678986 0.834423
0.573457 0.686112 0.835348
0.642659 0.693835 0.837442
0.707071 0.702048 0.840645
0.767417 0.710599 0.844781
0.824370 0.719327 0.849629
0.878494 0.728088 0.854964
0.429891 0.746305 0.836498
0.485844 0.750514 0.838487
0.555767 0.756767 0.842054
0.620934 0.763579 0.846476
0.682090 0.770761 0.851526
0.739883 0.778141 0.856989
0.794836 0.785577 0.862682
0.847356 0.792959 0.868461
0.897745 0.800204 0.874216
0.494745 0.816784 0.849522
0.542946 0.821156 0.853477
0.604011 0.827275 0.859043
0.661862 0.833566 0.864783
0.716972 0.839896 0.870564
0.769704 0.846168 0.876289
0.820331 0.852310 0.881886
0.869059 0.858271 0.887305
0.916042 0.864017 0.892513
0.545831 0.882117 0.868340
0.588616 0.886129 0.872659
0.643507 0.891483 0.878344
0.696128 0.896760 0.883881
0.746716 0.901900 0.889227
0.795451 0.906861 0.894351
0.842469 0.911615 0.899235
0.887879 0.916142 0.903865
0.931765 0.920428 0.908235
