creator-kit/luts/AK_Film_Halation.cube
# AK_Film_Halation
# Faded film emulation. Lifted matte blacks, cool shadows, warm highlights, gentle contrast. The most 'edited' look in the pack.
# Best for: Montages, B-roll, transitions, anything cut to music.
# Apply AFTER a D-Log M -> Rec.709 conversion, not instead of one.
TITLE "AK_Film_Halation"
LUT_3D_SIZE 5
DOMAIN_MIN 0.0 0.0 0.0
DOMAIN_MAX 1.0 1.0 1.0
0.042000 0.043923 0.067121
0.252996 0.044125 0.065089
0.508973 0.046904 0.065029
0.719866 0.055027 0.070101
0.893040 0.066440 0.078998
0.042000 0.264186 0.061294
0.257833 0.264754 0.059284
0.518016 0.266293 0.062978
0.739204 0.272223 0.075158
0.917191 0.281385 0.090333
0.052448 0.526285 0.062512
0.269290 0.528203 0.061755
0.529863 0.530452 0.061273
0.778122 0.533200 0.072455
0.945912 0.540109 0.105180
0.076961 0.778997 0.072875
0.290319 0.782096 0.073734
0.546303 0.785912 0.074838
0.795506 0.789701 0.076379
0.999387 0.792829 0.091727
0.104897 0.995573 0.089083
0.315050 0.997043 0.091082
0.567170 0.998755 0.093580
0.817957 1.000000 0.096133
1.000000 1.000000 0.099317
0.042000 0.044032 0.284653
0.253017 0.044388 0.283375
0.509807 0.047405 0.278994
0.721703 0.056222 0.275796
0.895460 0.068260 0.276896
0.042000 0.264298 0.279640
0.258281 0.264926 0.278338
0.522728 0.265818 0.276242
0.747641 0.271529 0.278910
0.923121 0.280443 0.285416
0.053464 0.526913 0.276251
0.266714 0.530266 0.272131
0.531312 0.531481 0.270359
0.783924 0.533553 0.275720
0.950454 0.540553 0.296135
0.078214 0.780138 0.281870
0.284621 0.786065 0.275442
0.544718 0.788810 0.275348
0.797931 0.791563 0.275635
1.000000 0.794131 0.286134
0.105679 0.996224 0.293481
0.306826 0.998887 0.285675
0.563054 1.000000 0.286984
0.817693 1.000000 0.288385
1.000000 1.000000 0.290436
0.042000 0.044996 0.535186
0.250576 0.046461 0.535310
0.510055 0.048331 0.534878
0.751616 0.054238 0.528007
0.898366 0.070458 0.514288
0.043323 0.263883 0.534230
0.259225 0.265252 0.538925
0.523292 0.266242 0.537402
0.772127 0.270117 0.532663
0.925873 0.282377 0.527059
0.054870 0.527625 0.532681
0.267669 0.530657 0.533403
0.532264 0.531905 0.531700
0.790101 0.533168 0.530054
0.955397 0.540318 0.535094
0.079968 0.781418 0.532906
0.285734 0.787112 0.530972
0.542031 0.791476 0.526399
0.800056 0.792987 0.525159
1.000000 0.794883 0.529843
0.107853 0.996820 0.540022
0.307638 0.999455 0.535965
0.557327 1.000000 0.529513
0.815615 1.000000 0.529537
1.000000 1.000000 0.530214
0.042000 0.046806 0.768162
0.249059 0.049350 0.769639
0.503822 0.052530 0.770596
0.752129 0.055690 0.771504
0.977548 0.062834 0.763567
0.049382 0.264347 0.771173
0.260994 0.266437 0.781710
0.520324 0.268723 0.781702
0.773081 0.271019 0.781440
0.990321 0.276556 0.775079
0.065236 0.526458 0.774458
0.273738 0.530207 0.781036
0.533178 0.532316 0.786345
0.791108 0.533595 0.784616
0.999572 0.536981 0.780758
0.081685 0.782670 0.777375
0.287129 0.788017 0.780128
0.542787 0.792065 0.780910
0.801301 0.793525 0.779077
1.000000 0.794766 0.778100
0.109978 0.997393 0.780116
0.309436 0.999873 0.780757
0.557897 1.000000 0.779040
0.811690 1.000000 0.775336
1.000000 1.000000 0.774665
0.042000 0.048963 0.981244
0.248443 0.052403 0.982545
0.499285 0.056670 0.983581
0.743771 0.060886 0.984559
0.977862 0.064432 0.985350
0.055055 0.265384 0.984354
0.263102 0.268071 0.991128
0.518497 0.271435 0.991627
0.767425 0.274785 0.991978
0.990801 0.277604 0.992267
0.074481 0.526137 0.987707
0.279413 0.530483 0.992468
0.534572 0.533308 0.996579
0.788775 0.535598 0.996415
0.999919 0.537671 0.996162
0.094095 0.781102 0.990667
0.295959 0.787045 0.993677
0.547426 0.791781 0.996096
0.801992 0.793890 0.997358
1.000000 0.795106 0.996770
0.111748 0.997863 0.992878
0.310935 1.000000 0.994596
0.559067 1.000000 0.995678
0.812616 1.000000 0.995796
1.000000 1.000000 0.995272
