creator-kit/luts/AK_Forest_LARP.cube
# AK_Forest_LARP
# Fantasy woodland grade. Rolls harsh yellow-green foliage toward a deeper cinematic green, cools the shadows, and protects skin tones so faces stay warm against the forest.
# Best for: Outdoor LARP, woodland, costume and character work under tree cover.
# Apply AFTER a D-Log M -> Rec.709 conversion, not instead of one.
TITLE "AK_Forest_LARP"
LUT_3D_SIZE 9
DOMAIN_MIN 0.0 0.0 0.0
DOMAIN_MAX 1.0 1.0 1.0
0.014000 0.018146 0.043913
0.090572 0.016090 0.041105
0.218314 0.014000 0.038767
0.360967 0.014000 0.038438
0.510990 0.014000 0.038677
0.637813 0.015298 0.039950
0.740392 0.017466 0.041968
0.847849 0.020647 0.044953
0.897440 0.022492 0.046743
0.022086 0.106517 0.046962
0.082862 0.105067 0.037820
0.219127 0.090692 0.015101
0.363360 0.084317 0.014000
0.514688 0.081253 0.014000
0.643223 0.080205 0.015815
0.747831 0.080396 0.018528
0.858716 0.081953 0.022366
0.904814 0.082459 0.024298
0.044410 0.226636 0.075293
0.082634 0.223123 0.061902
0.205438 0.228822 0.025040
0.362004 0.219335 0.014000
0.517469 0.210566 0.014000
0.650283 0.205693 0.016849
0.758914 0.203085 0.020664
0.874782 0.202423 0.025784
0.917694 0.201288 0.027979
0.068296 0.363309 0.109561
0.090437 0.359624 0.083214
0.190805 0.362101 0.064345
0.345657 0.369978 0.020261
0.514497 0.362208 0.014000
0.655147 0.353386 0.018022
0.770072 0.346834 0.023202
0.891785 0.343027 0.029840
0.932203 0.339771 0.032300
0.092396 0.509750 0.147937
0.108350 0.506028 0.114783
0.198096 0.505799 0.105794
0.324351 0.513247 0.066638
0.497169 0.522202 0.020739
0.660287 0.515101 0.014000
0.795735 0.506110 0.014000
0.907307 0.499869 0.034271
0.947361 0.494288 0.037106
0.113966 0.648916 0.186094
0.133625 0.644899 0.151245
0.211807 0.643491 0.138237
0.324275 0.649275 0.110236
0.474204 0.658731 0.064059
0.643069 0.667935 0.021030
0.792347 0.665846 0.014000
0.949623 0.652367 0.014000
1.000000 0.644169 0.014000
0.138657 0.775119 0.224100
0.160299 0.770973 0.188582
0.228068 0.769005 0.170193
0.334712 0.773275 0.151840
0.468572 0.782848 0.108659
0.622304 0.793090 0.062516
0.776989 0.801366 0.026201
0.947104 0.801171 0.014000
1.000000 0.785069 0.014000
0.165735 0.917410 0.259109
0.185839 0.911967 0.223261
0.244544 0.908810 0.198987
0.348849 0.913444 0.188385
0.472684 0.925335 0.152117
0.613259 0.937504 0.108642
0.759107 0.947774 0.068045
0.931474 0.954845 0.037811
1.000000 0.957903 0.026196
0.185262 0.984574 0.284390
0.205448 0.982656 0.249322
0.257641 0.981454 0.220412
0.361015 0.982879 0.214447
0.479754 0.987062 0.183538
0.612469 0.991785 0.141666
0.751125 0.995813 0.100901
0.915205 0.998337 0.068887
0.995901 1.000000 0.046532
0.014000 0.017534 0.145424
0.089825 0.015924 0.143177
0.217155 0.014163 0.139028
0.359187 0.014000 0.135356
0.508902 0.014000 0.133266
0.636137 0.015328 0.132065
0.739046 0.017561 0.131585
0.846296 0.020793 0.132213
0.897453 0.022724 0.132584
0.014000 0.107485 0.136945
0.086681 0.105961 0.134827
0.216032 0.102972 0.131057
0.361273 0.097644 0.125914
0.514048 0.092583 0.121023
0.644303 0.090170 0.118459
0.750393 0.090053 0.118109
0.863136 0.092222 0.119974
0.907880 0.093649 0.121300
0.019011 0.231406 0.131884
0.092562 0.228356 0.137516
0.205610 0.227427 0.123784
0.363835 0.212191 0.099976
0.518856 0.197904 0.091441
0.651873 0.190900 0.089543
0.761030 0.187663 0.090554
0.877624 0.187452 0.094111
0.918486 0.187136 0.096047
0.038401 0.369223 0.151972
0.115485 0.365178 0.168314
0.198339 0.359179 0.154160
0.346412 0.369537 0.112385
0.517112 0.352914 0.081832
0.658014 0.332835 0.072229
0.772526 0.321335 0.072071
0.893710 0.316276 0.077148
0.931686 0.313323 0.080029
0.062531 0.515849 0.186113
0.143655 0.511996 0.206698
0.207935 0.505364 0.182095
0.326198 0.511339 0.153707
0.498243 0.522227 0.106287
0.662886 0.508360 0.075620
0.781575 0.489894 0.072996
0.909685 0.476629 0.074258
0.945691 0.466282 0.074502
0.084703 0.655051 0.222703
0.173274 0.651460 0.246305
0.220540 0.645038 0.208676
0.330077 0.647529 0.195522
0.474575 0.657990 0.150223
0.644473 0.668311 0.106574
0.796587 0.656948 0.077236
0.953484 0.641980 0.066880
1.000000 0.625785 0.060848
0.110393 0.781282 0.259892
0.202716 0.778130 0.284877
0.234819 0.772035 0.234840
0.342300 0.772593 0.231869
0.470329 0.781675 0.194828
0.622246 0.792927 0.148803
0.778686 0.802041 0.112193
0.949669 0.800307 0.094208
1.000000 0.778139 0.077630
0.140291 0.925624 0.296013
0.230294 0.922488 0.320367
0.259533 0.914698 0.269559
0.356568 0.914083 0.263028
0.476133 0.924128 0.234953
0.613396 0.937170 0.192197
0.759312 0.948149 0.151564
0.933725 0.955665 0.121085
1.000000 0.956011 0.108329
0.162781 0.987715 0.323025
0.251148 0.986789 0.346841
0.278425 0.984010 0.295464
0.368346 0.983548 0.285523
0.484146 0.986793 0.263546
0.613087 0.991296 0.223524
0.751011 0.995322 0.182419
0.916635 0.998176 0.149994
0.996436 1.000000 0.127766
0.014000 0.016979 0.279411
0.088774 0.015660 0.277790
0.215834 0.014000 0.274774
0.358638 0.014000 0.269615
0.507805 0.014000 0.263856
0.634873 0.016389 0.258744
0.738356 0.017719 0.254875
0.845489 0.021941 0.252731
0.898052 0.025177 0.251904
0.014000 0.106515 0.272162
0.086567 0.105196 0.271748
0.214685 0.103112 0.268815
0.359327 0.101486 0.264038
0.511025 0.101186 0.259302
0.642228 0.099895 0.255056
0.749033 0.101178 0.252416
0.862208 0.104205 0.251623
0.909137 0.106185 0.251382
0.014000 0.231584 0.262209
0.082826 0.230678 0.260790
0.210598 0.228719 0.258100
0.358749 0.225514 0.254175
0.515630 0.220138 0.249129
0.651857 0.216689 0.245609
0.763822 0.215466 0.244213
0.883091 0.216621 0.245102
0.923411 0.217111 0.245550
0.017294 0.373044 0.254924
0.085936 0.372399 0.254292
0.216763 0.366656 0.262386
0.347053 0.367940 0.244593
0.520328 0.353815 0.222476
0.660764 0.339780 0.216055
0.776296 0.333176 0.215328
0.898854 0.330845 0.217879
0.935025 0.328578 0.218556
0.030380 0.522187 0.265191
0.106126 0.520969 0.271186
0.240910 0.513397 0.296055
0.333326 0.506357 0.276518
0.499377 0.521745 0.234790
0.666672 0.508670 0.207310
0.786847 0.490553 0.202854
0.915067 0.479603 0.203656
0.946982 0.468319 0.202015
0.048246 0.662522 0.289287
0.134336 0.660812 0.302187
0.267831 0.653717 0.333226
0.342386 0.645588 0.305525
0.475518 0.655249 0.273062
0.646119 0.668449 0.230638
0.800085 0.657966 0.203532
0.958401 0.641885 0.191905
0.960437 0.623490 0.204099
0.072709 0.789360 0.319484
0.164230 0.787528 0.336991
0.294967 0.781405 0.369846
0.354392 0.773433 0.331602
0.475282 0.778685 0.312517
0.621322 0.791124 0.270057
0.780715 0.802632 0.232097
0.953014 0.799765 0.213150
1.000000 0.774950 0.196274
0.102319 0.935728 0.351175
0.192673 0.933944 0.370596
0.320576 0.927839 0.403701
0.367052 0.918016 0.355448
0.483909 0.921544 0.346267
0.614186 0.935308 0.308339
0.759204 0.947971 0.267900
0.936409 0.956501 0.237330
1.000000 0.953495 0.222719
0.124987 0.991574 0.375897
0.214249 0.991029 0.396139
0.339760 0.988316 0.428559
0.377249 0.984459 0.373052
0.492810 0.984973 0.369340
0.615245 0.989554 0.336387
0.750024 0.994171 0.297658
0.917983 0.997881 0.263246
0.996928 1.000000 0.241421
0.014000 0.016734 0.426015
0.087951 0.015744 0.425086
0.213184 0.014445 0.422617
0.356572 0.014000 0.419817
0.507765 0.014000 0.413733
0.647485 0.014823 0.406913
0.738624 0.021528 0.397687
0.845840 0.028216 0.392666
0.899417 0.033372 0.390102
0.014000 0.105799 0.420153
0.086804 0.104713 0.421665
0.213075 0.103099 0.419569
0.357740 0.101303 0.416474
0.510867 0.100685 0.410739
0.641711 0.103147 0.403323
0.748653 0.107435 0.397815
0.861835 0.113358 0.394395
0.910496 0.113950 0.392230
0.014000 0.230215 0.412124
0.084675 0.229541 0.412628
0.210465 0.227906 0.412621
0.356862 0.225657 0.409465
0.512832 0.224192 0.404361
0.648903 0.225285 0.399171
0.761865 0.225461 0.395630
0.881980 0.228126 0.393826
0.924735 0.229539 0.392832
0.014000 0.372893 0.403149
0.081996 0.372694 0.402504
0.206291 0.371724 0.400894
0.352319 0.369622 0.398040
0.512770 0.366633 0.394228
0.657288 0.362359 0.390350
0.776519 0.359975 0.387911
0.902403 0.359936 0.387702
0.939066 0.358333 0.386052
0.014000 0.525189 0.393895
0.084328 0.525804 0.392336
0.209933 0.524338 0.394627
0.356277 0.517135 0.400739
0.501458 0.520656 0.382926
0.671048 0.509766 0.364946
0.790787 0.496206 0.360950
0.919300 0.490038 0.361134
0.949301 0.479568 0.355827
0.024546 0.667256 0.401230
0.104306 0.667777 0.402731
0.228504 0.666062 0.409880
0.379740 0.655737 0.434962
0.480065 0.648234 0.411650
0.647394 0.667925 0.375408
0.804501 0.658924 0.352281
0.963353 0.642256 0.340898
0.961503 0.621652 0.344226
0.042797 0.795721 0.416611
0.128225 0.796128 0.422033
0.253408 0.793839 0.436725
0.403879 0.784196 0.468911
0.486941 0.774716 0.439653
0.621207 0.787678 0.408079
0.782578 0.802794 0.372330
0.958071 0.795866 0.349373
1.000000 0.772298 0.335373
0.068520 0.943818 0.437671
0.153899 0.944234 0.446262
0.278812 0.941797 0.465877
0.427097 0.932334 0.500751
0.497094 0.920436 0.463527
0.617357 0.930384 0.441958
0.758434 0.946367 0.403557
0.938946 0.957056 0.373490
1.000000 0.952452 0.357595
0.089322 0.994834 0.456276
0.174418 0.995013 0.466822
0.298295 0.993443 0.488511
0.444030 0.988667 0.523228
0.505394 0.984054 0.479923
0.620951 0.986797 0.464973
0.749866 0.992669 0.429206
0.918557 0.997370 0.395820
0.997494 1.000000 0.374722
0.014000 0.016917 0.575989
0.087502 0.016277 0.575781
0.210797 0.015501 0.573890
0.351966 0.014618 0.571752
0.504927 0.014000 0.569466
0.647641 0.014632 0.563257
0.772523 0.017638 0.555607
0.847447 0.028795 0.539579
0.900929 0.034147 0.534435
0.014000 0.105483 0.571597
0.087479 0.104643 0.575152
0.211791 0.103529 0.573930
0.354239 0.102332 0.571494
0.508587 0.101044 0.568887
0.653068 0.101502 0.562902
0.780205 0.103786 0.556153
0.863312 0.113833 0.542741
0.911933 0.118346 0.538712
0.014000 0.229204 0.565607
0.087063 0.228777 0.568152
0.210749 0.227487 0.570990
0.354909 0.225814 0.568783
0.511193 0.224057 0.565728
0.658281 0.223755 0.560201
0.788572 0.225033 0.554703
0.882199 0.233305 0.545328
0.926090 0.236763 0.542686
0.014000 0.371088 0.558952
0.086352 0.371137 0.560345
0.208545 0.370511 0.561578
0.352166 0.368803 0.561977
0.510617 0.366493 0.558761
0.660880 0.365249 0.553949
0.794787 0.365376 0.549877
0.900937 0.369370 0.545457
0.941155 0.370342 0.543886
0.014000 0.524502 0.552022
0.085347 0.525066 0.552177
0.205926 0.525160 0.551686
0.347697 0.524279 0.550115
0.505775 0.522134 0.547198
0.660778 0.519701 0.543938
0.801100 0.515824 0.540738
0.919904 0.515706 0.540378
0.953633 0.511403 0.536016
0.014000 0.669296 0.545240
0.091281 0.670641 0.544521
0.208811 0.671830 0.542819
0.350726 0.670338 0.544043
0.505576 0.663457 0.545292
0.650607 0.667339 0.532501
0.807359 0.661920 0.521749
0.966043 0.646811 0.511626
1.000000 0.629212 0.499808
0.020970 0.800374 0.542557
0.108927 0.800699 0.549472
0.225787 0.801819 0.550396
0.365958 0.799939 0.555840
0.525791 0.787150 0.576995
0.625628 0.781489 0.551189
0.784569 0.802321 0.526022
0.961996 0.797527 0.508461
1.000000 0.771572 0.491029
0.047755 0.948548 0.558596
0.128358 0.950379 0.560078
0.245010 0.951395 0.564471
0.386028 0.948875 0.576987
0.546796 0.935558 0.607630
0.627342 0.922581 0.578525
0.756433 0.941073 0.551504
0.941018 0.957131 0.523455
1.000000 0.950677 0.506392
0.065077 0.996920 0.569176
0.145330 0.997632 0.572002
0.261604 0.997293 0.578814
0.402158 0.995026 0.594844
0.561381 0.989104 0.627797
0.633310 0.984023 0.594103
0.750424 0.989699 0.572275
0.917607 0.996406 0.541385
0.998105 1.000000 0.521811
0.014000 0.017506 0.711937
0.087478 0.017197 0.712393
0.208948 0.016914 0.711046
0.348029 0.016594 0.709530
0.498728 0.016254 0.707917
0.644201 0.015934 0.706389
0.772843 0.017652 0.700485
0.911980 0.021310 0.692545
0.984336 0.024671 0.686977
0.014000 0.105603 0.708927
0.088515 0.104995 0.714405
0.210983 0.104352 0.713992
0.351344 0.103720 0.712177
0.503431 0.103042 0.710240
0.650243 0.102397 0.708399
0.780410 0.103692 0.702592
0.924849 0.106711 0.695445
0.989637 0.109580 0.690489
0.014000 0.228670 0.704854
0.089712 0.228475 0.709320
0.211417 0.227509 0.714838
0.353472 0.226380 0.713511
0.507497 0.225235 0.711124
0.656179 0.224138 0.708850
0.788616 0.224788 0.703321
0.937839 0.226919 0.697277
0.995020 0.229100 0.693172
0.014000 0.369806 0.700380
0.090856 0.370087 0.703692
0.211069 0.369786 0.707602
0.352424 0.368450 0.711064
0.508598 0.366731 0.708777
0.659423 0.365122 0.706009
0.794646 0.364960 0.700993
0.947428 0.366074 0.696206
0.999111 0.367470 0.693069
0.014000 0.522413 0.695790
0.091862 0.523210 0.697861
0.210462 0.523629 0.700044
0.349967 0.523120 0.701533
0.505592 0.521378 0.701930
0.658683 0.519200 0.698941
0.797119 0.518083 0.694686
0.953025 0.518102 0.691249
1.000000 0.516795 0.688732
0.014000 0.668819 0.691638
0.092637 0.670111 0.692528
0.209691 0.671223 0.693065
0.347421 0.671508 0.692672
0.501119 0.670629 0.691035
0.653882 0.668608 0.688261
0.796768 0.666719 0.685643
0.957619 0.664092 0.683395
1.000000 0.658356 0.678093
0.021322 0.800509 0.687145
0.101369 0.802519 0.687238
0.215620 0.804638 0.686670
0.350113 0.806085 0.685022
0.503117 0.804304 0.685344
0.650930 0.797887 0.683695
0.787653 0.802056 0.674864
0.961817 0.800989 0.669887
1.000000 0.779430 0.653141
0.034683 0.951495 0.685890
0.112778 0.953953 0.685348
0.230281 0.955211 0.690079
0.363617 0.956344 0.690356
0.514880 0.954076 0.694507
0.662823 0.943759 0.703850
0.763824 0.939043 0.682878
0.944238 0.957043 0.668765
1.000000 0.948057 0.652895
0.045792 0.998492 0.686758
0.131273 0.998874 0.695024
0.242658 0.999077 0.695564
0.375213 0.998424 0.697658
0.526625 0.996435 0.706417
0.676114 0.990941 0.724620
0.759292 0.987741 0.697887
0.918698 0.995142 0.679584
0.998882 1.000000 0.665378
0.014000 0.018389 0.830820
0.087792 0.018382 0.831865
0.207607 0.018546 0.831012
0.344793 0.018738 0.830059
0.493441 0.018952 0.829055
0.636935 0.019167 0.828115
0.768971 0.019371 0.827273
0.912593 0.021479 0.822075
0.984610 0.024959 0.815057
0.014000 0.106061 0.829060
0.089790 0.105663 0.836283
0.210587 0.105449 0.836592
0.349055 0.105329 0.835339
0.499092 0.105206 0.834010
0.643925 0.105096 0.832755
0.777195 0.105003 0.831625
0.925260 0.106782 0.826392
0.989829 0.109769 0.819986
0.014000 0.228535 0.826724
0.092451 0.228551 0.832932
0.212361 0.227879 0.840880
0.352507 0.227244 0.840341
0.504483 0.226654 0.838559
0.651188 0.226093 0.836869
0.786178 0.225586 0.835338
0.938037 0.226853 0.830201
0.995128 0.229153 0.824646
0.014000 0.368993 0.824226
0.095280 0.369485 0.829278
0.213697 0.369478 0.835616
0.352996 0.368480 0.841856
0.507106 0.367298 0.840401
0.655954 0.366224 0.838215
0.792916 0.365246 0.836228
0.947441 0.365853 0.831396
0.999151 0.367367 0.826811
0.016250 0.520869 0.821755
0.098110 0.521877 0.825565
0.214915 0.522591 0.830173
0.352365 0.522419 0.834437
0.505764 0.521043 0.837839
0.656863 0.519383 0.835657
0.795953 0.517899 0.833182
0.952873 0.517713 0.828889
1.000000 0.518381 0.825345
0.019885 0.666574 0.819621
0.100639 0.668078 0.822248
0.215899 0.669485 0.825207
0.351575 0.670108 0.827587
0.503047 0.669595 0.828952
0.653663 0.667928 0.829076
0.794752 0.665947 0.826383
0.954297 0.664932 0.822792
1.000000 0.664790 0.820240
0.023088 0.800246 0.817879
0.102826 0.802205 0.819426
0.216668 0.804249 0.820881
0.350716 0.805602 0.821542
0.500421 0.805881 0.821050
0.649327 0.804980 0.819383
0.790151 0.803137 0.816819
0.953703 0.801774 0.814857
1.000000 0.798107 0.811184
0.035144 0.951760 0.815237
0.113134 0.954115 0.816091
0.224516 0.956687 0.816586
0.355721 0.958702 0.816157
0.502312 0.959858 0.814494
0.649783 0.958377 0.813647
0.785436 0.952953 0.810705
0.946253 0.956762 0.805202
1.000000 0.951444 0.797490
0.046354 0.998626 0.814802
0.122946 0.999624 0.815202
0.232375 1.000000 0.815063
0.361343 1.000000 0.813910
0.510280 0.999243 0.816716
0.655330 0.998186 0.816853
0.789016 0.995170 0.817918
0.926331 0.995008 0.803987
0.999619 1.000000 0.799897
0.014000 0.019414 0.964431
0.088317 0.019667 0.965599
0.206710 0.020215 0.965276
0.342268 0.020847 0.964922
0.489153 0.021538 0.964557
0.630946 0.022213 0.964223
0.761418 0.022840 0.963933
0.906773 0.023400 0.963690
0.984844 0.025208 0.960899
0.014000 0.106720 0.963906
0.091140 0.106503 0.970268
0.210503 0.106659 0.970901
0.347344 0.106978 0.970372
0.495618 0.107333 0.969813
0.638752 0.107683 0.969288
0.770457 0.108013 0.968817
0.920984 0.108311 0.968411
0.989993 0.109934 0.965681
0.014000 0.228685 0.963250
0.095062 0.228882 0.968968
0.213427 0.228463 0.975626
0.351934 0.228253 0.975706
0.502149 0.228140 0.974916
0.647155 0.228040 0.974160
0.780583 0.227956 0.973470
0.935219 0.227890 0.972865
0.995221 0.229200 0.970253
0.017430 0.368560 0.962623
0.099338 0.369234 0.967567
0.216212 0.369480 0.973353
0.353745 0.368771 0.978672
0.506081 0.368051 0.978234
0.653231 0.367438 0.977230
0.788631 0.366884 0.976301
0.945662 0.366402 0.975479
0.999185 0.367281 0.973019
0.022982 0.519807 0.962108
0.103737 0.520997 0.966178
0.219000 0.521964 0.970937
0.354684 0.522083 0.975282
0.506170 0.521021 0.978892
0.655558 0.519807 0.978016
0.793087 0.518747 0.976806
0.951761 0.517819 0.975724
1.000000 0.518151 0.973436
0.028125 0.664911 0.961789
0.107774 0.666596 0.964989
0.221492 0.668257 0.968685
0.355403 0.669171 0.971966
0.504962 0.668972 0.974539
0.653732 0.667609 0.976173
0.793249 0.666038 0.974889
0.953552 0.664685 0.973498
1.000000 0.664423 0.971392
0.032713 0.798032 0.961657
0.111347 0.800173 0.964039
0.223646 0.802470 0.966697
0.355931 0.804114 0.968891
0.503724 0.804708 0.970347
0.650785 0.804111 0.970910
0.789911 0.802548 0.970721
0.951985 0.800797 0.969078
1.000000 0.799934 0.967178
0.036642 0.951715 0.961676
0.114388 0.954027 0.963329
0.225447 0.956539 0.965036
0.356307 0.958483 0.966192
0.502554 0.959556 0.966537
0.648119 0.959617 0.965990
0.785867 0.958833 0.964704
0.947972 0.957448 0.962905
1.000000 0.955919 0.961113
0.046838 0.998740 0.960677
0.123340 0.999705 0.961962
0.232644 1.000000 0.963171
0.361468 1.000000 0.963763
0.505479 1.000000 0.963476
0.648855 1.000000 0.962272
0.784892 0.999664 0.960631
0.942577 0.998356 0.957222
0.999940 1.000000 0.956128
0.014000 0.020139 0.995513
0.088741 0.020547 0.996184
0.206289 0.021323 0.996120
0.340881 0.022216 0.996054
0.486719 0.023190 0.995992
0.627501 0.024138 0.995942
0.757044 0.025017 0.995905
0.898747 0.025799 0.995878
0.983646 0.026408 0.995862
0.014000 0.107228 0.995495
0.092054 0.107119 0.998845
0.210564 0.107494 0.999261
0.346439 0.108075 0.999105
0.493668 0.108712 0.998943
0.635792 0.109336 0.998794
0.766569 0.109917 0.998665
0.914604 0.110437 0.998556
0.989195 0.110843 0.998476
0.014406 0.228890 0.995510
0.096724 0.229195 0.998522
0.214173 0.228926 1.000000
0.351706 0.228969 1.000000
0.500875 0.229139 1.000000
0.644872 0.229312 1.000000
0.777372 0.229481 1.000000
0.930528 0.229636 1.000000
0.994778 0.229762 1.000000
0.020610 0.368420 0.995586
0.101860 0.369201 0.998204
0.217818 0.369597 1.000000
0.354302 0.369061 1.000000
0.505585 0.368615 1.000000
0.651727 0.368276 1.000000
0.786199 0.367973 1.000000
0.942337 0.367714 1.000000
0.998972 0.367519 1.000000
0.027094 0.519293 0.995743
0.107192 0.520591 0.997929
0.221539 0.521708 1.000000
0.356174 0.522000 1.000000
0.506524 0.521125 1.000000
0.654896 0.520175 1.000000
0.791498 0.519367 1.000000
0.949501 0.518661 1.000000
1.000000 0.518122 1.000000
0.033132 0.664040 0.995972
0.112125 0.665833 0.997738
0.224927 0.667644 0.999800
0.357789 0.668730 1.000000
0.506213 0.668719 1.000000
0.653887 0.667536 1.000000
0.792469 0.666209 1.000000
0.952096 0.665078 1.000000
1.000000 0.664211 1.000000
0.038543 0.796834 0.996252
0.116520 0.799083 0.997632
0.227905 0.801531 0.999220
0.359141 0.803347 1.000000
0.505798 0.804128 1.000000
0.651763 0.803712 1.000000
0.789881 0.802315 1.000000
0.951193 0.800778 1.000000
1.000000 0.799643 1.000000
0.043193 0.950328 0.996552
0.120282 0.952784 0.997596
0.230426 0.955472 0.998759
0.360239 0.957594 0.999713
0.505351 0.958837 1.000000
0.649820 0.959049 1.000000
0.786559 0.958399 1.000000
0.947780 0.957131 1.000000
1.000000 0.955914 0.999477
0.047125 0.998808 0.996741
0.123573 0.999754 0.997549
0.232803 1.000000 0.998405
0.361543 1.000000 0.999031
0.505461 1.000000 0.999310
0.648748 1.000000 0.999198
0.784373 1.000000 0.998761
0.944605 1.000000 0.998095
0.999999 1.000000 0.997395
