creator-kit/luts/AK_Garage_Chrome.cube
# AK_Garage_Chrome
# Automotive and industrial interiors. Cools the concrete and steel, controls the blowout on chrome and paint highlights, and holds skin warm and separate from a cold background.
# Best for: Garages, workshops, showrooms, car builds, warehouse walkthroughs.
# Apply AFTER a D-Log M -> Rec.709 conversion, not instead of one.
TITLE "AK_Garage_Chrome"
LUT_3D_SIZE 5
DOMAIN_MIN 0.0 0.0 0.0
DOMAIN_MAX 1.0 1.0 1.0
0.012000 0.014066 0.043272
0.220653 0.012000 0.039389
0.513719 0.012000 0.041144
0.744315 0.015591 0.049816
0.901604 0.020719 0.057689
0.012000 0.233636 0.020562
0.211128 0.230541 0.012000
0.518555 0.205550 0.012000
0.762777 0.192382 0.018704
0.920283 0.187109 0.025834
0.012000 0.525785 0.012000
0.204280 0.523904 0.012000
0.503660 0.523297 0.012000
0.790980 0.501454 0.012000
0.946661 0.481497 0.034828
0.012000 0.799406 0.012221
0.214070 0.799221 0.012000
0.498595 0.798738 0.012000
0.785443 0.802299 0.012000
0.999550 0.782493 0.012000
0.025663 0.999003 0.027541
0.230417 0.999328 0.027698
0.508589 0.999752 0.028356
0.779836 1.000000 0.023875
0.999374 1.000000 0.012000
0.012000 0.012613 0.288888
0.216672 0.012000 0.283254
0.507007 0.012000 0.271017
0.738964 0.015763 0.264993
0.900870 0.021247 0.262681
0.012000 0.231949 0.268170
0.208008 0.228289 0.263359
0.513624 0.214524 0.252168
0.764081 0.200906 0.241831
0.923688 0.195631 0.238587
0.012000 0.524997 0.246787
0.198061 0.525285 0.238025
0.500402 0.522797 0.226935
0.783876 0.472944 0.185685
0.943171 0.427624 0.169222
0.012000 0.799284 0.244388
0.202787 0.803555 0.232116
0.492650 0.801843 0.227148
0.783533 0.803349 0.214108
1.000000 0.767498 0.184431
0.026218 0.999123 0.254000
0.215247 1.000000 0.239185
0.498548 1.000000 0.236255
0.775514 1.000000 0.235309
0.999377 1.000000 0.217681
0.012000 0.012284 0.590182
0.210979 0.012000 0.587153
0.503019 0.012000 0.581685
0.771753 0.012000 0.566943
0.902603 0.026605 0.543503
0.012000 0.229139 0.576710
0.207760 0.226665 0.581799
0.506160 0.222194 0.575714
0.784731 0.221886 0.563804
0.926920 0.229355 0.550133
0.012000 0.523463 0.559994
0.198004 0.523364 0.559416
0.495294 0.519252 0.554701
0.793926 0.509802 0.547760
0.952328 0.496282 0.536572
0.012000 0.799128 0.548134
0.202348 0.802794 0.543809
0.484660 0.803828 0.534081
0.778666 0.802168 0.525752
1.000000 0.754467 0.482168
0.026938 0.999281 0.550275
0.215356 1.000000 0.543405
0.485917 1.000000 0.530253
0.769626 1.000000 0.525140
0.998772 1.000000 0.512406
0.012000 0.013567 0.856605
0.207242 0.013113 0.855161
0.490827 0.012644 0.848755
0.766478 0.012183 0.842647
0.987497 0.016869 0.829575
0.012000 0.228128 0.841734
0.209064 0.226752 0.871686
0.498976 0.224507 0.865766
0.780890 0.222425 0.857447
0.996353 0.224950 0.837796
0.012000 0.519355 0.833888
0.206895 0.520359 0.843073
0.495006 0.517745 0.859824
0.785273 0.513441 0.849299
1.000000 0.512766 0.836839
0.012000 0.798322 0.828186
0.203725 0.801621 0.831405
0.484365 0.802141 0.831903
0.773392 0.798285 0.828137
1.000000 0.790902 0.821592
0.027599 0.999427 0.824200
0.215452 1.000000 0.824672
0.485242 1.000000 0.821493
0.763644 1.000000 0.814209
0.997327 1.000000 0.807704
0.012000 0.015020 1.000000
0.205629 0.015765 1.000000
0.483816 0.016748 1.000000
0.754228 0.017696 1.000000
0.986062 0.018435 1.000000
0.012000 0.228274 1.000000
0.210666 0.227605 1.000000
0.495165 0.226782 1.000000
0.771846 0.226110 1.000000
0.995639 0.225597 1.000000
0.016416 0.517533 0.999519
0.213344 0.519240 1.000000
0.495600 0.517582 1.000000
0.780605 0.514655 1.000000
1.000000 0.512464 1.000000
0.023384 0.794615 0.999384
0.214854 0.798620 1.000000
0.489642 0.800100 1.000000
0.772982 0.797178 1.000000
1.000000 0.793371 1.000000
0.028073 0.999516 0.999678
0.215510 1.000000 1.000000
0.484808 1.000000 1.000000
0.762730 1.000000 1.000000
0.996678 1.000000 1.000000
