creator-kit/luts/AK_Golden_Vlog.cube
# AK_Golden_Vlog
# Warm, sunlit lifestyle look. Warms midtones and highlights, keeps shadows slightly cool so the warmth reads as sunlight rather than an orange cast.
# Best for: Golden hour, cafes, interiors, anything you want to feel inviting.
# Apply AFTER a D-Log M -> Rec.709 conversion, not instead of one.
TITLE "AK_Golden_Vlog"
LUT_3D_SIZE 9
DOMAIN_MIN 0.0 0.0 0.0
DOMAIN_MAX 1.0 1.0 1.0
0.010000 0.010066 0.040477
0.118820 0.010000 0.034437
0.272155 0.010000 0.027447
0.437527 0.010000 0.021087
0.598112 0.010651 0.016631
0.726000 0.013107 0.015729
0.852543 0.016796 0.017645
0.906457 0.018840 0.018840
0.906457 0.018840 0.018840
0.010000 0.111335 0.022338
0.107272 0.107069 0.016316
0.262189 0.101856 0.010728
0.429261 0.097394 0.010000
0.593218 0.094675 0.010838
0.725219 0.095172 0.014133
0.854570 0.098196 0.018692
0.913545 0.100439 0.021321
0.913489 0.099801 0.021301
0.010000 0.241753 0.010000
0.093654 0.238009 0.010000
0.248796 0.232886 0.010000
0.417684 0.227740 0.010000
0.585617 0.224075 0.010998
0.723595 0.223325 0.015629
0.856177 0.225078 0.021479
0.924509 0.226664 0.025158
0.924455 0.226039 0.025139
0.010000 0.385210 0.010000
0.082435 0.381967 0.010000
0.235532 0.377489 0.010000
0.405208 0.372472 0.010000
0.578380 0.367790 0.010000
0.721642 0.365692 0.017151
0.857061 0.366041 0.024366
0.936690 0.366901 0.029422
0.936637 0.366290 0.029403
0.010000 0.535862 0.010000
0.075018 0.533062 0.010000
0.225898 0.529244 0.010000
0.393306 0.525037 0.010000
0.567824 0.520512 0.010000
0.729184 0.516677 0.010000
0.857015 0.515700 0.027187
0.948686 0.515765 0.033875
0.949571 0.515188 0.033930
0.010000 0.680116 0.010000
0.072233 0.677658 0.010000
0.220973 0.674479 0.010000
0.386008 0.670980 0.010000
0.558457 0.667358 0.010000
0.721470 0.663686 0.010000
0.874764 0.660658 0.010000
0.997309 0.658856 0.010000
1.000000 0.658268 0.010000
0.010000 0.813434 0.010000
0.073536 0.811425 0.010000
0.220280 0.808842 0.010000
0.383101 0.806005 0.010000
0.553238 0.803074 0.010000
0.714707 0.800324 0.010000
0.863692 0.797445 0.010000
0.995886 0.795342 0.010000
1.000000 0.794768 0.010000
0.010000 0.964189 0.010000
0.077948 0.962851 0.010000
0.222896 0.961088 0.010000
0.383726 0.959096 0.010000
0.551782 0.956976 0.010000
0.711279 0.954928 0.010000
0.858034 0.953014 0.010000
0.994608 0.951334 0.010000
1.000000 0.950762 0.010000
0.010000 1.000000 0.010000
0.075934 1.000000 0.010000
0.220696 1.000000 0.010000
0.381371 1.000000 0.010000
0.549322 1.000000 0.010000
0.708774 1.000000 0.010000
0.855533 1.000000 0.010000
0.993634 1.000000 0.010000
1.000000 1.000000 0.010000
0.010000 0.010000 0.144093
0.117573 0.010000 0.138501
0.271194 0.010000 0.130156
0.436700 0.010000 0.122061
0.597623 0.010679 0.115316
0.725949 0.013233 0.111399
0.852791 0.017022 0.110380
0.907275 0.019126 0.109547
0.907265 0.019123 0.108447
0.010000 0.110055 0.126441
0.106177 0.105798 0.120925
0.262383 0.100397 0.113447
0.430943 0.095713 0.106521
0.596198 0.092816 0.101333
0.729470 0.093208 0.099596
0.861749 0.096224 0.100766
0.914081 0.098530 0.101602
0.914111 0.098884 0.101477
0.010000 0.240635 0.104587
0.091661 0.237276 0.098108
0.248088 0.231837 0.091013
0.418593 0.226435 0.086195
0.588030 0.222542 0.083541
0.727347 0.221657 0.085465
0.863358 0.223385 0.090112
0.924975 0.225132 0.093594
0.924994 0.225315 0.094023
0.010000 0.384227 0.084373
0.079309 0.381889 0.076926
0.233746 0.377057 0.070402
0.404933 0.371673 0.064213
0.579796 0.366723 0.063234
0.724434 0.364473 0.070166
0.863570 0.364753 0.078574
0.937082 0.365792 0.085238
0.937090 0.365776 0.086269
0.010000 0.535022 0.067638
0.070760 0.533652 0.059462
0.222980 0.529480 0.053697
0.391876 0.524880 0.047341
0.567984 0.519981 0.043087
0.730950 0.515892 0.046123
0.862404 0.514850 0.066522
0.949594 0.515032 0.076844
0.949928 0.514811 0.078536
0.010000 0.679414 0.056024
0.066882 0.678894 0.047364
0.216963 0.675360 0.042324
0.383486 0.671468 0.036769
0.557489 0.667435 0.031006
0.722023 0.663419 0.029523
0.879008 0.660157 0.035786
0.997783 0.658275 0.042170
1.000000 0.657829 0.044536
0.010000 0.813065 0.049204
0.067164 0.813264 0.040286
0.215249 0.810327 0.035915
0.379558 0.807096 0.031100
0.551250 0.803754 0.026105
0.714197 0.800613 0.021399
0.865729 0.797428 0.022720
0.996130 0.794975 0.030861
1.000000 0.794340 0.033135
0.010000 0.964192 0.046372
0.070657 0.964839 0.037381
0.216946 0.962835 0.033606
0.379265 0.960555 0.029449
0.548878 0.958108 0.025138
0.709852 0.955725 0.021078
0.857966 0.953481 0.017367
0.994677 0.951092 0.020968
1.000000 0.950332 0.022981
0.010000 1.000000 0.040279
0.075449 1.000000 0.037376
0.220357 1.000000 0.034054
0.381118 1.000000 0.030352
0.549075 1.000000 0.026385
0.708532 1.000000 0.022631
0.855297 1.000000 0.019186
0.993540 1.000000 0.016219
1.000000 1.000000 0.015208
0.010000 0.010000 0.275490
0.115247 0.010000 0.270446
0.269948 0.010000 0.263407
0.435629 0.010000 0.253061
0.596985 0.010713 0.243365
0.725880 0.013396 0.235533
0.853107 0.017314 0.230706
0.908340 0.019499 0.227751
0.908330 0.019496 0.226654
0.010000 0.108256 0.259109
0.104833 0.104237 0.255558
0.261040 0.098836 0.248136
0.429775 0.094334 0.238958
0.595444 0.091662 0.230832
0.729280 0.092371 0.225116
0.861945 0.095690 0.222406
0.915096 0.098216 0.220767
0.915124 0.098617 0.220062
0.010000 0.239186 0.237929
0.090312 0.235707 0.233026
0.246937 0.230239 0.225688
0.419542 0.224505 0.218049
0.590982 0.220328 0.212007
0.732147 0.219311 0.209432
0.871838 0.221026 0.209857
0.925753 0.222365 0.210081
0.925759 0.222457 0.209778
0.010000 0.382952 0.215700
0.078075 0.380516 0.209775
0.231196 0.376260 0.201474
0.404344 0.370399 0.194301
0.581401 0.365102 0.190373
0.728052 0.362729 0.192527
0.871467 0.362964 0.196824
0.937902 0.363668 0.200048
0.937896 0.363561 0.200347
0.010000 0.533932 0.196825
0.069361 0.532602 0.189813
0.218964 0.529549 0.180731
0.389789 0.524439 0.173815
0.567961 0.519055 0.168354
0.733010 0.514636 0.168592
0.869133 0.513670 0.183137
0.950797 0.513596 0.189899
0.950777 0.513278 0.190835
0.010000 0.678503 0.183141
0.065114 0.678243 0.175072
0.211528 0.676267 0.165453
0.379982 0.671865 0.159339
0.556003 0.667297 0.152990
0.722510 0.662836 0.150180
0.883873 0.659270 0.153867
0.999143 0.657126 0.158027
1.000000 0.656592 0.159654
0.010000 0.812322 0.174384
0.064866 0.813061 0.165322
0.208491 0.812015 0.155395
0.374731 0.808275 0.150020
0.548441 0.804399 0.144440
0.713303 0.800751 0.139178
0.867822 0.797170 0.139105
0.997068 0.794455 0.145022
1.000000 0.793726 0.147248
0.010000 0.963698 0.169805
0.067726 0.965054 0.159842
0.208996 0.964834 0.149797
0.373246 0.962194 0.145079
0.544878 0.959334 0.140182
0.707769 0.956523 0.135564
0.857647 0.953850 0.131341
0.995168 0.951138 0.133596
1.000000 0.950211 0.136358
0.010000 1.000000 0.163385
0.071930 1.000000 0.157741
0.211489 1.000000 0.147709
0.374208 1.000000 0.143490
0.544240 1.000000 0.139112
0.705615 1.000000 0.134984
0.854099 1.000000 0.131207
0.993641 1.000000 0.127964
1.000000 1.000000 0.128133
0.010000 0.010000 0.417297
0.112975 0.010000 0.412854
0.265886 0.010000 0.406521
0.434442 0.010000 0.398435
0.602413 0.010000 0.386580
0.725802 0.013575 0.373306
0.853449 0.017636 0.364255
0.909523 0.019913 0.358932
0.909513 0.019910 0.357837
0.010000 0.106575 0.402325
0.103650 0.102820 0.400949
0.258089 0.097880 0.394240
0.428481 0.092806 0.385928
0.599645 0.089784 0.375291
0.729065 0.091442 0.364430
0.862152 0.095097 0.357415
0.916222 0.097870 0.353008
0.916249 0.098323 0.351659
0.010000 0.236884 0.382978
0.090666 0.233668 0.380263
0.245284 0.228544 0.375503
0.418210 0.222803 0.367056
0.590206 0.218832 0.357792
0.732176 0.218121 0.350663
0.872613 0.220129 0.346645
0.926861 0.221630 0.344034
0.926863 0.221751 0.343062
0.010000 0.381538 0.361450
0.076767 0.378968 0.357274
0.229420 0.374669 0.350851
0.403386 0.368673 0.342687
0.581342 0.363127 0.335709
0.731813 0.360493 0.332166
0.879243 0.360678 0.331687
0.938820 0.361014 0.331312
0.938797 0.360807 0.330800
0.010000 0.532724 0.340201
0.068252 0.531260 0.334938
0.216820 0.528396 0.327102
0.387168 0.523636 0.318197
0.567630 0.517715 0.311391
0.734991 0.512930 0.308522
0.875801 0.512063 0.316234
0.951763 0.511698 0.319189
0.951728 0.511280 0.319313
0.010000 0.677494 0.324218
0.064198 0.677099 0.317897
0.208818 0.675622 0.308689
0.375787 0.671991 0.299388
0.554047 0.666831 0.292390
0.722745 0.661875 0.288100
0.888494 0.657973 0.288927
1.000000 0.655538 0.290621
1.000000 0.654905 0.291406
0.010000 0.811498 0.313312
0.064132 0.812103 0.305998
0.205066 0.811922 0.295498
0.369068 0.809269 0.286019
0.545018 0.804801 0.279789
0.712007 0.800591 0.273910
0.869443 0.796569 0.272283
0.997964 0.793564 0.275732
1.000000 0.792736 0.277116
0.010000 0.963146 0.306794
0.067156 0.964405 0.298579
0.204773 0.965215 0.286908
0.366262 0.963699 0.277427
0.540134 0.960390 0.271879
0.705152 0.957104 0.266643
0.856988 0.953952 0.261849
0.995588 0.950869 0.262604
1.000000 0.949836 0.264524
0.010000 1.000000 0.300004
0.071487 1.000000 0.294982
0.206548 1.000000 0.282402
0.366206 1.000000 0.273022
0.538480 1.000000 0.267992
0.701982 1.000000 0.263244
0.852425 1.000000 0.258895
0.993648 1.000000 0.255158
1.000000 1.000000 0.254981
0.010000 0.010000 0.564154
0.110907 0.010000 0.560345
0.261767 0.010000 0.554632
0.429259 0.010000 0.548309
0.601363 0.010000 0.539119
0.755917 0.010000 0.526699
0.853806 0.017979 0.506972
0.910787 0.020355 0.499103
0.910777 0.020352 0.498010
0.010000 0.105146 0.550688
0.102746 0.101674 0.551627
0.255135 0.097288 0.545536
0.424321 0.092422 0.538793
0.598481 0.088379 0.529534
0.756066 0.087116 0.518267
0.862361 0.094463 0.501696
0.917425 0.097503 0.494303
0.917452 0.098011 0.492266
0.010000 0.234783 0.533289
0.091435 0.231848 0.532913
0.243841 0.227108 0.530928
0.415228 0.221716 0.523639
0.592205 0.216906 0.514447
0.753724 0.214396 0.504671
0.872669 0.219347 0.493022
0.928070 0.221115 0.487446
0.928071 0.221290 0.485785
0.010000 0.378883 0.514068
0.078869 0.376549 0.512178
0.229551 0.372545 0.508708
0.401593 0.366870 0.503103
0.581893 0.361129 0.494188
0.747779 0.357235 0.486060
0.880587 0.359398 0.480026
0.939989 0.359855 0.476488
0.939961 0.359661 0.475242
0.010000 0.531434 0.493410
0.067068 0.529827 0.490015
0.215460 0.526778 0.484603
0.384971 0.522117 0.477266
0.566921 0.515920 0.468900
0.736753 0.510743 0.462713
0.882110 0.510000 0.462764
0.952804 0.509325 0.461818
0.952752 0.508799 0.461074
0.010000 0.676416 0.474971
0.063221 0.675879 0.470518
0.207666 0.674217 0.463733
0.372797 0.671095 0.454870
0.551603 0.665969 0.446022
0.722642 0.660486 0.440142
0.892601 0.656223 0.437914
1.000000 0.653478 0.436972
1.000000 0.652739 0.436858
0.010000 0.810618 0.461768
0.063349 0.811081 0.456321
0.204108 0.810715 0.448245
0.365151 0.809032 0.437945
0.541006 0.804865 0.429093
0.710267 0.800055 0.422554
0.870386 0.795564 0.419258
0.998770 0.792248 0.420070
1.000000 0.791314 0.420554
0.010000 0.962551 0.453178
0.066549 0.963703 0.446830
0.203991 0.964371 0.437582
0.361355 0.964050 0.425978
0.534711 0.961181 0.417280
0.702002 0.957383 0.411382
0.855930 0.953703 0.405980
0.995898 0.950207 0.405122
1.000000 0.949053 0.406142
0.010000 1.000000 0.445983
0.071015 1.000000 0.441634
0.205903 1.000000 0.431476
0.360434 1.000000 0.418860
0.531971 1.000000 0.410381
0.697747 1.000000 0.404970
0.850282 1.000000 0.400011
0.993511 1.000000 0.395746
1.000000 1.000000 0.395189
0.010000 0.010000 0.704546
0.109227 0.010000 0.701355
0.258061 0.010000 0.696254
0.423304 0.010000 0.690609
0.596083 0.010000 0.684727
0.755085 0.010000 0.674816
0.920268 0.010000 0.662251
1.000000 0.010000 0.653874
1.000000 0.010000 0.652739
0.010000 0.104106 0.692566
0.102217 0.100914 0.695784
0.252579 0.097076 0.690305
0.419517 0.092818 0.684239
0.594068 0.088371 0.677917
0.755121 0.085942 0.668067
0.924321 0.086172 0.656561
1.000000 0.087293 0.647612
1.000000 0.087871 0.644766
0.010000 0.233078 0.677092
0.092560 0.230421 0.679025
0.242779 0.226063 0.679775
0.411918 0.221279 0.673162
0.588768 0.216283 0.666268
0.752634 0.213067 0.656654
0.925900 0.212150 0.646516
1.000000 0.212281 0.638746
1.000000 0.212521 0.636303
0.010000 0.376443 0.660001
0.081832 0.374386 0.660420
0.230309 0.370742 0.659946
0.399942 0.365509 0.657145
0.579346 0.359902 0.649612
0.746529 0.355734 0.640463
0.922974 0.353544 0.631838
1.000000 0.352577 0.625371
0.941161 0.359046 0.618596
0.010000 0.528732 0.641958
0.070450 0.527312 0.640770
0.217118 0.524495 0.638209
0.384765 0.520078 0.634022
0.565303 0.514107 0.627653
0.736224 0.508841 0.619224
0.913984 0.505301 0.612195
0.953956 0.507921 0.607489
0.953897 0.507391 0.606001
0.010000 0.675352 0.623956
0.062257 0.674673 0.621349
0.206529 0.672828 0.616959
0.371468 0.669504 0.610753
0.549283 0.664593 0.602767
0.722180 0.658743 0.595134
0.895884 0.654124 0.589887
1.000000 0.651072 0.586340
1.000000 0.650228 0.585337
0.010000 0.809750 0.608483
0.062577 0.810071 0.604882
0.203163 0.809522 0.599200
0.364015 0.807636 0.591557
0.537561 0.804229 0.582065
0.708187 0.799155 0.574196
0.870530 0.794201 0.569242
0.999424 0.790578 0.567447
1.000000 0.789539 0.567042
0.010000 0.961958 0.597846
0.065951 0.963002 0.593343
0.203220 0.963524 0.586488
0.360393 0.963027 0.577541
0.530096 0.961263 0.566681
0.698529 0.957313 0.559165
0.854524 0.953091 0.553160
0.996068 0.949160 0.550701
1.000000 0.947879 0.550830
0.010000 1.000000 0.590243
0.070551 1.000000 0.586568
0.205267 1.000000 0.578802
0.359607 1.000000 0.568841
0.526354 1.000000 0.556916
0.693202 1.000000 0.549775
0.847806 1.000000 0.544211
0.993229 1.000000 0.539423
1.000000 1.000000 0.538484
0.010000 0.010000 0.832831
0.107974 0.010000 0.830217
0.254894 0.010000 0.825694
0.418012 0.010000 0.820690
0.588570 0.010000 0.815477
0.750546 0.010000 0.810545
0.919375 0.010000 0.799876
1.000000 0.010000 0.790022
1.000000 0.010000 0.788890
0.010000 0.103464 0.822255
0.102051 0.100537 0.827619
0.250499 0.097216 0.822716
0.415312 0.093533 0.817290
0.587643 0.089686 0.811636
0.751300 0.086036 0.806284
0.923313 0.085249 0.795774
1.000000 0.086529 0.784861
1.000000 0.087161 0.781345
0.010000 0.231809 0.808598
0.093954 0.229414 0.812713
0.242110 0.225416 0.816038
0.409124 0.221207 0.810064
0.583754 0.216811 0.803835
0.749594 0.212640 0.797937
0.924717 0.211080 0.787790
1.000000 0.211371 0.778056
1.000000 0.211665 0.774942
0.010000 0.374477 0.793519
0.084963 0.372683 0.796118
0.231357 0.369380 0.798473
0.398715 0.364563 0.798315
0.575900 0.359557 0.791446
0.744164 0.354809 0.784938
0.921537 0.352312 0.775397
1.000000 0.351504 0.766964
1.000000 0.351424 0.764294
0.010000 0.526029 0.777604
0.075424 0.524872 0.778595
0.220008 0.522395 0.778862
0.385343 0.518356 0.777813
0.563519 0.512837 0.774006
0.734358 0.507474 0.766846
0.912166 0.503897 0.758174
1.000000 0.501925 0.751115
1.000000 0.501447 0.748912
0.010000 0.672848 0.762269
0.066205 0.672307 0.761701
0.209042 0.670629 0.759945
0.372440 0.667476 0.756648
0.548701 0.662731 0.751685
0.720929 0.656980 0.745110
0.895664 0.652271 0.737496
1.000000 0.649173 0.731757
1.000000 0.648312 0.730004
0.010000 0.808931 0.747073
0.061849 0.809119 0.745216
0.202272 0.808397 0.741795
0.362943 0.806319 0.736662
0.536300 0.802711 0.729792
0.705998 0.797928 0.721847
0.869948 0.792577 0.715240
0.999921 0.788663 0.710983
1.000000 0.787526 0.709738
0.010000 0.961393 0.734502
0.065387 0.962333 0.731742
0.202494 0.962714 0.727148
0.359486 0.962045 0.720710
0.529002 0.960073 0.712471
0.695056 0.956883 0.703221
0.852868 0.952170 0.696517
0.996107 0.947799 0.692536
1.000000 0.946386 0.691825
0.010000 1.000000 0.726506
0.070114 1.000000 0.723474
0.204668 1.000000 0.717969
0.358829 1.000000 0.710516
0.525387 1.000000 0.701211
0.688638 1.000000 0.690943
0.845139 1.000000 0.684752
0.992823 1.000000 0.679470
1.000000 1.000000 0.678160
0.010000 0.010000 0.975408
0.107104 0.010000 0.973992
0.252257 0.010000 0.971165
0.413415 0.010000 0.967843
0.581925 0.010000 0.964151
0.741956 0.010000 0.960426
0.914509 0.010000 0.956797
1.000000 0.010000 0.948430
1.000000 0.010000 0.947226
0.010000 0.103164 0.968775
0.102184 0.100482 0.974092
0.248866 0.097639 0.970993
0.411719 0.094486 0.967329
0.582001 0.091193 0.963229
0.743713 0.088069 0.959065
0.919500 0.085197 0.954984
1.000000 0.085826 0.943908
1.000000 0.086508 0.939126
0.010000 0.230930 0.958788
0.095528 0.228777 0.964112
0.241779 0.225112 0.968655
0.406833 0.221434 0.964368
0.579415 0.217592 0.959531
0.743310 0.213947 0.954576
0.921841 0.210596 0.949679
1.000000 0.210532 0.938203
1.000000 0.210877 0.933582
0.010000 0.372956 0.945563
0.088139 0.371404 0.950464
0.232610 0.368415 0.955389
0.397871 0.363984 0.957529
0.573007 0.359532 0.951467
0.739327 0.355310 0.945197
0.919284 0.351427 0.938945
1.000000 0.350517 0.926646
1.000000 0.350486 0.922026
0.010000 0.523827 0.928584
0.080300 0.522913 0.932532
0.222962 0.520750 0.936157
0.386164 0.517060 0.938405
0.562161 0.511958 0.936645
0.731055 0.507122 0.928174
0.910181 0.502674 0.919646
1.000000 0.500778 0.906007
1.000000 0.500351 0.901199
0.010000 0.669989 0.908654
0.072725 0.669690 0.910984
0.213640 0.668326 0.912337
0.374905 0.665523 0.911699
0.548938 0.661142 0.908580
0.719112 0.655801 0.900945
0.893447 0.650824 0.888725
1.000000 0.647873 0.873408
1.000000 0.647061 0.868244
0.010000 0.806800 0.886244
0.065663 0.807076 0.886207
0.204949 0.806459 0.884147
0.364408 0.804484 0.879069
0.536554 0.800968 0.870275
0.705156 0.796259 0.859972
0.868065 0.790910 0.853434
0.999975 0.786907 0.847101
1.000000 0.785737 0.845145
0.010000 0.960868 0.860613
0.064868 0.961710 0.859461
0.201825 0.961957 0.856953
0.358651 0.961124 0.852829
0.527993 0.958955 0.847009
0.693883 0.955539 0.840055
0.851058 0.951013 0.832540
0.996039 0.946204 0.827148
1.000000 0.944659 0.825660
0.010000 1.000000 0.852246
0.069712 1.000000 0.849815
0.204116 1.000000 0.846396
0.358111 1.000000 0.841257
0.524497 1.000000 0.834370
0.687584 1.000000 0.826396
0.842396 1.000000 0.818176
0.992324 1.000000 0.812437
1.000000 1.000000 0.810777
0.010000 0.010000 1.000000
0.106613 0.010000 1.000000
0.250994 0.010000 1.000000
0.411239 0.010000 1.000000
0.578735 0.010000 1.000000
0.737746 0.010000 1.000000
0.906161 0.010000 1.000000
1.000000 0.010000 1.000000
1.000000 0.010000 1.000000
0.010000 0.102803 1.000000
0.102524 0.100664 1.000000
0.247668 0.098236 1.000000
0.408816 0.095544 1.000000
0.577314 0.092734 1.000000
0.737334 0.090068 1.000000
0.907099 0.087618 1.000000
1.000000 0.085506 1.000000
1.000000 0.085941 1.000000
0.010000 0.230355 1.000000
0.097121 0.228452 1.000000
0.241715 0.225077 1.000000
0.405063 0.221860 1.000000
0.575862 0.218501 1.000000
0.738065 0.215314 1.000000
0.911541 0.212385 1.000000
1.000000 0.209859 1.000000
1.000000 0.210192 1.000000
0.010000 0.372064 1.000000
0.091128 0.370520 1.000000
0.233925 0.367805 1.000000
0.397359 0.363709 1.000000
0.570713 0.359740 1.000000
0.735340 0.355976 1.000000
0.910755 0.352514 1.000000
1.000000 0.349658 1.000000
1.000000 0.349671 1.000000
0.010000 0.522510 1.000000
0.084768 0.521436 1.000000
0.225757 0.519547 1.000000
0.387102 0.516161 1.000000
0.561203 0.511422 1.000000
0.728405 0.507044 1.000000
0.903199 0.503019 1.000000
1.000000 0.499781 0.999896
1.000000 0.499398 0.998813
0.010000 0.668176 0.997225
0.078625 0.667641 0.997779
0.217867 0.666551 0.998832
0.377276 0.664051 0.999520
0.549367 0.659988 0.999741
0.717754 0.655005 0.998853
0.888017 0.650433 0.996724
1.000000 0.646742 0.994500
1.000000 0.645975 0.993333
0.010000 0.804447 0.992729
0.072901 0.804493 0.993069
0.210514 0.804149 0.993570
0.368116 0.802477 0.993572
0.538323 0.799279 0.992951
0.705083 0.794871 0.991732
0.864365 0.789843 0.989485
0.999647 0.785652 0.986461
1.000000 0.784525 0.985169
0.010000 0.959824 0.988054
0.067763 0.960384 0.988032
0.203911 0.960675 0.987790
0.359891 0.959855 0.986846
0.528403 0.957658 0.985031
0.693559 0.954177 0.982411
0.850020 0.949588 0.979075
0.995825 0.944607 0.975206
1.000000 0.942977 0.973758
0.010000 1.000000 0.983993
0.069364 1.000000 0.982944
0.203637 1.000000 0.982036
0.357488 1.000000 0.980207
0.523724 1.000000 0.977243
0.686668 1.000000 0.973239
0.841052 1.000000 0.968290
0.991788 1.000000 0.963063
1.000000 1.000000 0.961372
