creator-kit/luts/AK_Garage_Chrome.cube
# AK_Garage_Chrome
# Automotive and industrial interiors. Cools the concrete and steel, controls the blowout on chrome and paint highlights, and holds skin warm and separate from a cold background.
# Best for: Garages, workshops, showrooms, car builds, warehouse walkthroughs.
# Apply AFTER a D-Log M -> Rec.709 conversion, not instead of one.
TITLE "AK_Garage_Chrome"
LUT_3D_SIZE 9
DOMAIN_MIN 0.0 0.0 0.0
DOMAIN_MAX 1.0 1.0 1.0
0.012000 0.014066 0.043272
0.091166 0.012000 0.040370
0.220653 0.012000 0.039389
0.363853 0.012000 0.039679
0.513719 0.012000 0.041144
0.640682 0.013358 0.044720
0.744315 0.015591 0.049816
0.855335 0.018957 0.055049
0.901604 0.020719 0.057689
0.012000 0.107429 0.032395
0.086082 0.105491 0.029100
0.221184 0.086518 0.012000
0.366597 0.078189 0.012000
0.517957 0.073032 0.012000
0.646525 0.070229 0.013839
0.751997 0.068884 0.016526
0.865530 0.069212 0.020409
0.907762 0.068477 0.022139
0.012000 0.233636 0.020562
0.080861 0.232155 0.017376
0.211128 0.230541 0.012000
0.361312 0.218153 0.012000
0.518555 0.205550 0.012000
0.652720 0.197436 0.014889
0.762777 0.192382 0.018704
0.880851 0.189874 0.023870
0.920283 0.187109 0.025834
0.012000 0.375319 0.012000
0.078349 0.374291 0.012000
0.204966 0.372455 0.012000
0.352297 0.371893 0.012000
0.509863 0.359483 0.012000
0.653314 0.348285 0.015932
0.771015 0.339176 0.021184
0.895443 0.332421 0.027897
0.933118 0.325581 0.030087
0.012000 0.525785 0.012000
0.079691 0.525177 0.012000
0.204280 0.523904 0.012000
0.345397 0.522480 0.012000
0.503660 0.523297 0.012000
0.652243 0.511276 0.012000
0.790980 0.501454 0.012000
0.906821 0.492572 0.032151
0.946661 0.481497 0.034828
0.012000 0.668831 0.012000
0.084931 0.668577 0.012000
0.207581 0.667847 0.012000
0.346507 0.667038 0.012000
0.496279 0.666184 0.012000
0.650122 0.668546 0.012000
0.783729 0.656804 0.012000
0.943678 0.647709 0.012000
1.000000 0.636393 0.012000
0.012000 0.799406 0.012221
0.093198 0.799448 0.012000
0.214070 0.799221 0.012000
0.350985 0.798979 0.012000
0.498595 0.798738 0.012000
0.645266 0.799856 0.012000
0.785443 0.802299 0.012000
0.938458 0.790187 0.012000
0.999550 0.782493 0.012000
0.015970 0.950948 0.019880
0.103239 0.951216 0.019369
0.222548 0.951416 0.019176
0.357696 0.951658 0.019007
0.503404 0.951935 0.018886
0.644939 0.952221 0.018826
0.780409 0.954377 0.012000
0.943559 0.956907 0.012000
0.998617 0.945287 0.012000
0.025663 0.999003 0.027541
0.112252 0.999153 0.027487
0.230417 0.999328 0.027698
0.364271 0.999530 0.027987
0.508589 0.999752 0.028356
0.648775 0.999971 0.028772
0.779836 1.000000 0.023875
0.936078 1.000000 0.017428
0.999374 1.000000 0.012000
0.012000 0.013312 0.150650
0.090109 0.012000 0.147921
0.218353 0.012000 0.143177
0.360265 0.012000 0.139644
0.509513 0.012000 0.138296
0.637147 0.013357 0.138863
0.741226 0.015645 0.141176
0.851953 0.019045 0.143895
0.901092 0.020937 0.145089
0.012000 0.106582 0.140416
0.085487 0.104698 0.137893
0.216155 0.100606 0.133563
0.362127 0.091173 0.126309
0.514905 0.081201 0.118517
0.645471 0.074102 0.113002
0.752327 0.069801 0.109946
0.867026 0.068471 0.109509
0.908934 0.067017 0.108965
0.012000 0.232999 0.127324
0.079607 0.231780 0.124032
0.209389 0.229684 0.119188
0.364336 0.203929 0.091666
0.520431 0.177323 0.074135
0.653571 0.161496 0.066224
0.763022 0.151377 0.062530
0.880243 0.145684 0.062336
0.917399 0.140916 0.061239
0.012000 0.374826 0.116583
0.076251 0.374452 0.112524
0.203223 0.372625 0.108575
0.350629 0.371491 0.101459
0.513035 0.347187 0.071893
0.656837 0.313528 0.049652
0.772993 0.289871 0.040381
0.894931 0.275664 0.039260
0.927827 0.263723 0.037574
0.012000 0.525446 0.110171
0.076520 0.525981 0.105295
0.201249 0.524809 0.101824
0.343803 0.523000 0.099114
0.502316 0.523278 0.089221
0.654999 0.503157 0.065529
0.777383 0.474951 0.051641
0.908338 0.450518 0.043120
0.941995 0.427481 0.036136
0.012000 0.668640 0.108979
0.080599 0.670052 0.103325
0.203309 0.669458 0.100443
0.343672 0.668264 0.098530
0.494994 0.666996 0.096533
0.649068 0.668858 0.084250
0.786263 0.651583 0.066850
0.948393 0.630168 0.047855
0.957710 0.606584 0.059555
0.012000 0.799354 0.112180
0.087716 0.801574 0.105815
0.208650 0.801484 0.103556
0.347002 0.800858 0.102368
0.496162 0.800202 0.101149
0.642663 0.800675 0.096266
0.784615 0.802902 0.085614
0.941022 0.787590 0.073523
1.000000 0.771769 0.061461
0.016133 0.951012 0.118424
0.096699 0.953700 0.111435
0.216113 0.954003 0.109765
0.352698 0.953893 0.109208
0.499956 0.953790 0.108669
0.642995 0.953707 0.108204
0.778837 0.955270 0.101466
0.943098 0.957639 0.091400
0.999316 0.945317 0.083954
0.025902 0.999054 0.125043
0.104921 1.000000 0.117599
0.223235 1.000000 0.116373
0.358526 1.000000 0.116275
0.504393 1.000000 0.116229
0.646084 1.000000 0.116242
0.777522 1.000000 0.116306
0.935253 1.000000 0.106020
0.999423 1.000000 0.096786
0.012000 0.012613 0.288888
0.088788 0.012000 0.286800
0.216672 0.012000 0.283254
0.359095 0.012000 0.277578
0.507007 0.012000 0.271017
0.634827 0.013395 0.267219
0.738964 0.015763 0.264993
0.849086 0.019218 0.263834
0.900870 0.021247 0.262681
0.012000 0.105424 0.279999
0.085176 0.103758 0.279305
0.214161 0.101233 0.275866
0.358430 0.099078 0.270552
0.509761 0.095724 0.265038
0.641153 0.092574 0.259434
0.749062 0.090484 0.254965
0.864585 0.090390 0.252290
0.910501 0.089747 0.250450
0.012000 0.231949 0.268170
0.079437 0.230705 0.266439
0.208008 0.228289 0.263359
0.356282 0.224068 0.259107
0.513624 0.214524 0.252168
0.650872 0.206414 0.245903
0.764081 0.200906 0.241831
0.885082 0.198389 0.240350
0.923688 0.195631 0.238587
0.012000 0.374173 0.255578
0.075736 0.373687 0.252984
0.201302 0.372310 0.248741
0.348169 0.370218 0.243769
0.518091 0.345994 0.217462
0.660464 0.319765 0.202076
0.776916 0.304505 0.195409
0.899957 0.295684 0.193529
0.931017 0.285292 0.188791
0.012000 0.524997 0.246787
0.076170 0.525421 0.243376
0.198061 0.525285 0.238025
0.341403 0.523392 0.233864
0.500402 0.522797 0.226935
0.659502 0.502694 0.201554
0.783876 0.472944 0.185685
0.914425 0.450866 0.177892
0.943171 0.427624 0.169222
0.012000 0.668389 0.243303
0.080411 0.669688 0.239115
0.198773 0.670747 0.232709
0.339629 0.669591 0.229009
0.493002 0.667774 0.226451
0.647587 0.668885 0.217204
0.789914 0.652364 0.197682
0.954552 0.628515 0.176630
0.958154 0.599501 0.180503
0.012000 0.799284 0.244388
0.087681 0.801393 0.239487
0.202787 0.803555 0.232116
0.341442 0.803046 0.228922
0.492650 0.801843 0.227148
0.639524 0.800692 0.225488
0.783533 0.803349 0.214108
0.944306 0.789083 0.200088
1.000000 0.767498 0.184431
0.016346 0.951098 0.248758
0.096801 0.953683 0.243234
0.209034 0.956448 0.235017
0.345793 0.956488 0.232310
0.495100 0.955914 0.231220
0.640130 0.955367 0.230221
0.776801 0.956131 0.225312
0.942360 0.958317 0.215947
1.000000 0.946797 0.206919
0.026218 0.999123 0.254000
0.105124 1.000000 0.248020
0.215247 1.000000 0.239185
0.350633 1.000000 0.236849
0.498548 1.000000 0.236255
0.642229 1.000000 0.235737
0.775514 1.000000 0.235309
0.933830 1.000000 0.227022
0.999377 1.000000 0.217681
0.012000 0.012230 0.438460
0.087695 0.012000 0.437076
0.213685 0.012000 0.434103
0.356448 0.012000 0.430771
0.506739 0.012000 0.424377
0.646187 0.012000 0.416698
0.737999 0.015937 0.406407
0.847189 0.020887 0.400430
0.901321 0.021630 0.397530
0.012000 0.104529 0.431074
0.085212 0.103106 0.432425
0.212283 0.101065 0.429856
0.356359 0.098799 0.426243
0.508557 0.097528 0.420145
0.650556 0.098116 0.413532
0.747203 0.103268 0.405508
0.863422 0.103247 0.400727
0.911940 0.104654 0.397835
0.012000 0.230357 0.421275
0.081157 0.229357 0.421586
0.207672 0.227275 0.421287
0.353472 0.224518 0.417716
0.508415 0.222405 0.412178
0.645581 0.220803 0.406396
0.759620 0.219469 0.401677
0.882038 0.219420 0.398440
0.925570 0.218449 0.396137
0.012000 0.373084 0.410576
0.076190 0.372567 0.409722
0.201125 0.371143 0.407844
0.346414 0.368528 0.404721
0.506168 0.364745 0.400752
0.652980 0.356715 0.395506
0.774124 0.350174 0.390693
0.902270 0.346392 0.388168
0.937385 0.339336 0.381901
0.012000 0.524496 0.399649
0.075776 0.524794 0.397877
0.197496 0.524488 0.394759
0.339110 0.523148 0.390246
0.497147 0.521001 0.385491
0.666281 0.502350 0.363761
0.789142 0.477372 0.351175
0.918995 0.462961 0.345658
0.945946 0.443070 0.333672
0.012000 0.668108 0.393602
0.080199 0.669282 0.391052
0.198389 0.670171 0.386878
0.336000 0.670186 0.381176
0.490376 0.668246 0.376944
0.645345 0.668304 0.370945
0.795104 0.652895 0.350352
0.961301 0.626559 0.329291
0.958918 0.593860 0.323805
0.012000 0.799208 0.392316
0.087639 0.801192 0.389054
0.202574 0.803184 0.383915
0.336494 0.804450 0.377124
0.488325 0.803278 0.373260
0.637426 0.801532 0.370999
0.781785 0.803333 0.363018
0.948180 0.790537 0.347369
1.000000 0.761670 0.326321
0.016584 0.951195 0.394590
0.096912 0.953665 0.390704
0.208974 0.956284 0.384718
0.339636 0.958308 0.376973
0.489270 0.957878 0.373477
0.636527 0.956836 0.371882
0.773126 0.955869 0.370458
0.940985 0.958673 0.360509
1.000000 0.946101 0.349018
0.026570 0.999200 0.398290
0.105350 1.000000 0.393948
0.215301 1.000000 0.387345
0.343570 1.000000 0.378902
0.491610 1.000000 0.375690
0.637518 1.000000 0.374579
0.772869 1.000000 0.373602
0.931824 1.000000 0.367507
0.999170 1.000000 0.358263
0.012000 0.012284 0.590182
0.086982 0.012000 0.589525
0.210979 0.012000 0.587153
0.351483 0.012000 0.584501
0.503019 0.012000 0.581685
0.646103 0.012000 0.575471
0.771753 0.012000 0.566943
0.848546 0.021273 0.549522
0.902603 0.026605 0.543503
0.012000 0.104044 0.584375
0.085691 0.102878 0.587879
0.210746 0.101347 0.586212
0.352566 0.099686 0.583276
0.505518 0.097894 0.580156
0.650328 0.097595 0.574089
0.778350 0.099402 0.566548
0.863519 0.109167 0.551950
0.913337 0.113595 0.547154
0.012000 0.229139 0.576710
0.083410 0.228396 0.579171
0.207760 0.226665 0.581799
0.351279 0.224488 0.579237
0.506160 0.222194 0.575714
0.653472 0.221147 0.570006
0.784731 0.221886 0.563804
0.880799 0.229744 0.553412
0.926920 0.229355 0.550133
0.012000 0.371036 0.568406
0.080464 0.370777 0.569699
0.203236 0.369704 0.570743
0.346073 0.367489 0.570929
0.503061 0.364605 0.567440
0.653391 0.362640 0.562331
0.788324 0.362173 0.557642
0.898313 0.363471 0.552371
0.940796 0.361869 0.548897
0.012000 0.523463 0.559994
0.076932 0.523725 0.560050
0.198004 0.523364 0.559416
0.338909 0.521957 0.557711
0.495294 0.519252 0.554701
0.650402 0.516180 0.551341
0.793926 0.509802 0.547760
0.917185 0.505893 0.545263
0.952328 0.496282 0.536572
0.012000 0.667813 0.551918
0.079973 0.668856 0.551093
0.197983 0.669565 0.549271
0.335389 0.669378 0.546232
0.487970 0.667997 0.541799
0.641348 0.665883 0.537668
0.799055 0.656234 0.525473
0.965671 0.630079 0.506908
0.961163 0.602656 0.493478
0.012000 0.799128 0.548134
0.087593 0.800981 0.546598
0.202348 0.802794 0.543809
0.336063 0.803858 0.539682
0.484660 0.803828 0.534081
0.634762 0.801960 0.530131
0.778666 0.802168 0.525752
0.953483 0.792130 0.509927
1.000000 0.754467 0.482168
0.016832 0.951298 0.548200
0.097028 0.953646 0.546039
0.208909 0.956111 0.542404
0.339366 0.957970 0.537321
0.484446 0.958947 0.530697
0.632277 0.957966 0.526963
0.771052 0.956514 0.524959
0.938809 0.958522 0.518613
1.000000 0.944931 0.504087
0.026938 0.999281 0.550275
0.105586 1.000000 0.547659
0.215356 1.000000 0.543405
0.343420 1.000000 0.537625
0.485917 1.000000 0.530253
0.632101 1.000000 0.526693
0.769626 1.000000 0.525140
0.929323 1.000000 0.521124
0.998772 1.000000 0.512406
0.012000 0.012765 0.727768
0.086723 0.012188 0.727783
0.208841 0.012000 0.725977
0.347216 0.012000 0.723965
0.496457 0.012000 0.721837
0.641469 0.012000 0.719812
0.771847 0.012000 0.714232
0.913740 0.013446 0.705376
0.987335 0.016739 0.698887
0.012000 0.104017 0.723446
0.086555 0.103093 0.728979
0.209712 0.102044 0.728151
0.349404 0.100955 0.725851
0.500062 0.099779 0.723417
0.646450 0.098636 0.721096
0.778309 0.099107 0.715521
0.925172 0.101760 0.707546
0.991908 0.104488 0.701764
0.012000 0.228420 0.717788
0.085949 0.227920 0.722275
0.208259 0.226520 0.727662
0.349629 0.224891 0.726039
0.502217 0.223213 0.723197
0.650478 0.221586 0.720483
0.784507 0.221426 0.715075
0.936002 0.223123 0.708297
0.996333 0.225082 0.703476
0.012000 0.369535 0.711737
0.084911 0.369519 0.715052
0.205643 0.368779 0.718850
0.346169 0.366939 0.722156
0.500839 0.364645 0.719692
0.651220 0.362471 0.716548
0.787892 0.361526 0.711524
0.943196 0.362143 0.706096
0.999499 0.363232 0.702359
0.012000 0.521123 0.705718
0.083438 0.521629 0.707792
0.202470 0.521601 0.709907
0.341064 0.520571 0.711315
0.494958 0.518273 0.711660
0.647524 0.515493 0.708563
0.787213 0.513635 0.704139
0.946100 0.513094 0.700155
1.000000 0.509436 0.696809
0.012000 0.666928 0.700444
0.081724 0.667937 0.701342
0.199118 0.668597 0.701860
0.335849 0.668348 0.701468
0.487724 0.666894 0.699883
0.639674 0.664306 0.697192
0.783580 0.661792 0.694437
0.949874 0.657803 0.692379
1.000000 0.647116 0.683749
0.012000 0.799054 0.695060
0.087548 0.800783 0.695150
0.202132 0.802427 0.694578
0.335654 0.803301 0.692961
0.484042 0.803065 0.690068
0.632580 0.801667 0.686119
0.774845 0.799647 0.682628
0.953368 0.796297 0.677387
1.000000 0.762020 0.650459
0.017065 0.951396 0.693042
0.097136 0.953630 0.692508
0.208846 0.955949 0.691088
0.339109 0.957651 0.688516
0.483980 0.958461 0.684599
0.629098 0.958262 0.679660
0.768668 0.956749 0.676153
0.934298 0.956814 0.673189
1.000000 0.945706 0.659370
0.027285 0.999357 0.693585
0.105807 1.000000 0.692595
0.215407 1.000000 0.690556
0.343277 1.000000 0.687287
0.485565 1.000000 0.682622
0.628171 1.000000 0.676961
0.766141 1.000000 0.673542
0.926672 1.000000 0.671711
0.998065 1.000000 0.664574
0.012000 0.013567 0.856605
0.086837 0.013309 0.857909
0.207242 0.013113 0.855161
0.343678 0.012888 0.852066
0.490827 0.012644 0.848755
0.633808 0.012405 0.845569
0.766478 0.012183 0.842647
0.914059 0.013448 0.837644
0.987497 0.016869 0.829575
0.012000 0.104355 0.850162
0.087692 0.103652 0.865728
0.209120 0.103044 0.865577
0.346873 0.102475 0.862076
0.495441 0.101861 0.858305
0.639799 0.101264 0.854650
0.773745 0.100712 0.851274
0.925305 0.101651 0.841349
0.992000 0.104506 0.833988
0.012000 0.228128 0.841734
0.088614 0.227850 0.855598
0.209064 0.226752 0.871686
0.348477 0.225622 0.870175
0.498976 0.224507 0.865766
0.645208 0.223426 0.861459
0.780890 0.222425 0.857447
0.935934 0.222864 0.847109
0.996353 0.224950 0.837796
0.012000 0.368531 0.837731
0.089316 0.368737 0.844148
0.208189 0.368299 0.857998
0.346609 0.366802 0.870473
0.499168 0.365046 0.867444
0.647522 0.363420 0.862290
0.785169 0.361914 0.857453
0.942938 0.361713 0.847512
0.999457 0.362929 0.839060
0.012000 0.519355 0.833888
0.089720 0.520084 0.837801
0.206895 0.520359 0.843073
0.343383 0.519672 0.852570
0.495006 0.517745 0.859824
0.645519 0.515485 0.855264
0.785273 0.513441 0.849299
0.945647 0.512483 0.840995
1.000000 0.512766 0.836839
0.012000 0.664427 0.830681
0.089820 0.665659 0.833415
0.205357 0.666622 0.836433
0.339982 0.666717 0.838872
0.489587 0.665636 0.840339
0.639332 0.663409 0.840611
0.781018 0.660830 0.837958
0.943974 0.659090 0.834291
1.000000 0.658479 0.831244
0.012000 0.798322 0.828186
0.089703 0.800021 0.829846
0.203725 0.801621 0.831405
0.336627 0.802440 0.832200
0.484365 0.802141 0.831903
0.632288 0.800677 0.830471
0.773392 0.798285 0.828137
0.939572 0.796203 0.825902
1.000000 0.790902 0.821592
0.017276 0.951486 0.825054
0.097233 0.953616 0.826003
0.208787 0.955802 0.826602
0.338874 0.957360 0.826318
0.483554 0.958015 0.824868
0.628486 0.957662 0.822327
0.766800 0.956449 0.818973
0.930493 0.954806 0.816082
1.000000 0.948682 0.808935
0.027599 0.999427 0.824200
0.106007 1.000000 0.824692
0.215452 1.000000 0.824672
0.343145 1.000000 0.823691
0.485242 1.000000 0.821493
0.627662 1.000000 0.818229
0.763644 1.000000 0.814209
0.924331 1.000000 0.811190
0.997327 1.000000 0.807704
0.012000 0.014538 0.977742
0.087204 0.014556 0.978407
0.206130 0.014757 0.977908
0.340891 0.014981 0.977355
0.486234 0.015221 0.976775
0.627461 0.015454 0.976229
0.758504 0.015670 0.975739
0.905795 0.015863 0.975314
0.987636 0.016982 0.973484
0.012000 0.104926 0.976654
0.088943 0.104415 0.981817
0.208879 0.104187 0.982124
0.344958 0.104068 0.981461
0.491720 0.103938 0.980758
0.634325 0.103813 0.980088
0.766644 0.103698 0.979478
0.918974 0.103597 0.978943
0.992079 0.104524 0.977074
0.012000 0.228156 0.975260
0.091185 0.228069 0.979981
0.210029 0.227231 0.985335
0.347752 0.226534 0.985309
0.496448 0.225904 0.984457
0.640928 0.225295 0.983636
0.774984 0.224732 0.982880
0.931419 0.224231 0.982209
0.996371 0.224836 0.980345
0.012000 0.367943 0.973840
0.093391 0.368341 0.978006
0.210659 0.368164 0.982756
0.347260 0.366963 0.987084
0.497997 0.365673 0.986728
0.644599 0.364518 0.985737
0.780623 0.363451 0.984816
0.939757 0.362500 0.983992
0.999420 0.362669 0.982172
0.012530 0.518108 0.972556
0.095417 0.519029 0.976065
0.210988 0.519565 0.980066
0.345658 0.519176 0.983693
0.495320 0.517569 0.986714
0.644061 0.515758 0.986059
0.782191 0.514153 0.984936
0.943390 0.512721 0.983922
1.000000 0.512349 0.982167
0.015395 0.662547 0.971607
0.097084 0.663971 0.974433
0.211017 0.665197 0.977621
0.343825 0.665589 0.980444
0.491470 0.664828 0.982684
0.639310 0.662914 0.984163
0.779350 0.660750 0.983191
0.942318 0.658859 0.981946
1.000000 0.657912 0.980260
0.017839 0.795859 0.971020
0.098419 0.797750 0.973179
0.210837 0.799613 0.975546
0.341922 0.800730 0.977518
0.487701 0.800752 0.978891
0.633720 0.799601 0.979537
0.773057 0.797499 0.979558
0.937253 0.795171 0.978266
1.000000 0.793658 0.976648
0.019870 0.950966 0.970758
0.099467 0.953087 0.972306
0.210543 0.955254 0.973899
0.340102 0.956783 0.975041
0.484227 0.957395 0.975534
0.628633 0.956989 0.975303
0.766468 0.955714 0.974456
0.929039 0.953801 0.973158
0.998998 0.952309 0.972025
0.027870 0.999487 0.969839
0.106180 1.000000 0.971057
0.215489 1.000000 0.972215
0.343030 1.000000 0.972871
0.484962 1.000000 0.972827
0.627222 1.000000 0.972036
0.763054 1.000000 0.970617
0.922511 1.000000 0.968744
0.996863 1.000000 0.966994
0.012000 0.015020 1.000000
0.087508 0.015333 1.000000
0.205629 0.015765 1.000000
0.339466 0.016242 1.000000
0.483816 0.016748 1.000000
0.624079 0.017240 1.000000
0.754228 0.017696 1.000000
0.897904 0.018105 1.000000
0.986062 0.018435 1.000000
0.012000 0.105279 1.000000
0.089736 0.104944 1.000000
0.208852 0.104926 1.000000
0.344011 0.105053 1.000000
0.489782 0.105190 1.000000
0.631423 0.105324 1.000000
0.762849 0.105450 1.000000
0.912642 0.105564 1.000000
0.990952 0.105658 1.000000
0.012000 0.228274 1.000000
0.092704 0.228300 1.000000
0.210666 0.227605 1.000000
0.347461 0.227145 1.000000
0.495165 0.226782 1.000000
0.638682 0.226432 1.000000
0.771846 0.226110 1.000000
0.926651 0.225825 1.000000
0.995639 0.225597 1.000000
0.012255 0.367730 0.999818
0.095737 0.368233 1.000000
0.212123 0.368200 1.000000
0.347725 0.367162 1.000000
0.497461 0.366128 1.000000
0.643101 0.365233 1.000000
0.778231 0.364407 1.000000
0.936256 0.363671 1.000000
0.998954 0.363082 1.000000
0.016416 0.517533 0.999519
0.098655 0.518559 1.000000
0.213344 0.519240 1.000000
0.347016 0.519013 1.000000
0.495600 0.517582 1.000000
0.643367 0.516018 1.000000
0.780605 0.514655 1.000000
0.940898 0.513439 1.000000
1.000000 0.512464 1.000000
0.020142 0.661624 0.999376
0.101183 0.663154 1.000000
0.214235 0.664523 1.000000
0.346045 0.665080 1.000000
0.492613 0.664495 1.000000
0.639406 0.662752 1.000000
0.778541 0.660816 1.000000
0.940625 0.659141 1.000000
1.000000 0.657798 1.000000
0.023384 0.794615 0.999384
0.103317 0.796613 1.000000
0.214854 0.798620 1.000000
0.344941 0.799900 1.000000
0.489642 0.800100 1.000000
0.634615 0.799120 1.000000
0.772982 0.797178 1.000000
0.936266 0.795052 1.000000
1.000000 0.793371 1.000000
0.026122 0.949528 0.999511
0.105073 0.951788 1.000000
0.215268 0.954124 1.000000
0.343828 0.955820 1.000000
0.486877 0.956594 1.000000
0.630237 0.956332 1.000000
0.767101 0.955186 1.000000
0.928752 0.953387 1.000000
0.998621 0.951574 1.000000
0.028073 0.999516 0.999678
0.106301 1.000000 1.000000
0.215510 1.000000 1.000000
0.342967 1.000000 1.000000
0.484808 1.000000 1.000000
0.626980 1.000000 1.000000
0.762730 1.000000 1.000000
0.921995 1.000000 1.000000
0.996678 1.000000 1.000000
