creator-kit/luts/AK_Garage_Chrome.cube
# AK_Garage_Chrome
# Automotive and industrial interiors. Cools the concrete and steel, controls the blowout on chrome and paint highlights, and holds skin warm and separate from a cold background.
# Best for: Garages, workshops, showrooms, car builds, warehouse walkthroughs.
# Apply AFTER a D-Log M -> Rec.709 conversion, not instead of one.
TITLE "AK_Garage_Chrome"
LUT_3D_SIZE 33
DOMAIN_MIN 0.0 0.0 0.0
DOMAIN_MAX 1.0 1.0 1.0
0.012000 0.014066 0.043272
0.012475 0.013677 0.042743
0.035927 0.013141 0.041944
0.062411 0.012563 0.040998
0.091166 0.012000 0.040370
0.121671 0.012000 0.039943
0.153580 0.012000 0.039667
0.186636 0.012000 0.039489
0.220653 0.012000 0.039389
0.255488 0.012000 0.039358
0.291026 0.012000 0.039396
0.327175 0.012000 0.039502
0.363853 0.012000 0.039679
0.400991 0.012000 0.039930
0.438529 0.012000 0.040258
0.476375 0.012000 0.040666
0.513719 0.012000 0.041144
0.550215 0.012003 0.041690
0.581623 0.012417 0.042608
0.611771 0.012870 0.043621
0.640682 0.013358 0.044720
0.668377 0.013879 0.045898
0.694872 0.014427 0.047146
0.720182 0.014999 0.048456
0.744315 0.015591 0.049816
0.767274 0.016198 0.051218
0.789055 0.016815 0.052540
0.827672 0.018012 0.053906
0.855335 0.018957 0.055049
0.874033 0.019641 0.055954
0.886826 0.020131 0.056672
0.895625 0.020478 0.057243
0.901604 0.020719 0.057689
0.012000 0.030841 0.041242
0.012000 0.030462 0.040688
0.034998 0.029923 0.039905
0.061715 0.028952 0.038953
0.090805 0.026947 0.037425
0.121559 0.024579 0.035560
0.153645 0.022072 0.033557
0.186839 0.019497 0.031491
0.220975 0.016889 0.029402
0.255920 0.014274 0.027313
0.291565 0.012000 0.025558
0.327819 0.012000 0.025988
0.364605 0.012000 0.026445
0.401854 0.012000 0.026922
0.439506 0.012000 0.027417
0.477472 0.012000 0.027925
0.514937 0.012000 0.028435
0.551404 0.012017 0.028956
0.582892 0.012431 0.029811
0.613118 0.012885 0.030698
0.642105 0.013375 0.031611
0.669873 0.013896 0.032545
0.696439 0.014446 0.033497
0.721817 0.015020 0.034462
0.746015 0.015613 0.035435
0.769035 0.016221 0.036410
0.790872 0.016840 0.037382
0.830784 0.018082 0.038911
0.857569 0.019001 0.040132
0.875663 0.019665 0.041099
0.888034 0.020139 0.041870
0.896531 0.020474 0.042486
0.902302 0.020707 0.042970
0.012000 0.053669 0.038489
0.012000 0.053309 0.037907
0.033696 0.052796 0.037093
0.061340 0.051361 0.034567
0.091224 0.045299 0.029610
0.122029 0.040959 0.026299
0.154136 0.037110 0.023252
0.187364 0.033384 0.020249
0.221544 0.029697 0.017256
0.256541 0.026029 0.014272
0.292244 0.023046 0.012000
0.328559 0.022268 0.012000
0.365407 0.021517 0.012000
0.402719 0.020783 0.012000
0.440435 0.020060 0.012000
0.478464 0.019343 0.012000
0.515990 0.018645 0.012000
0.552392 0.017996 0.012030
0.583936 0.017746 0.012455
0.614204 0.017554 0.012916
0.643220 0.017416 0.013410
0.671006 0.017328 0.013932
0.697580 0.017285 0.014480
0.722955 0.017285 0.015050
0.747141 0.017321 0.015637
0.770140 0.017392 0.016237
0.793067 0.017525 0.016878
0.832526 0.018258 0.018097
0.858757 0.018994 0.019295
0.876484 0.019643 0.020379
0.888603 0.020106 0.021249
0.896933 0.020435 0.021950
0.902588 0.020662 0.022505
0.012000 0.079481 0.035485
0.012000 0.079147 0.034879
0.032316 0.078671 0.034030
0.058836 0.078078 0.033143
0.088636 0.076408 0.029430
0.120980 0.069219 0.021984
0.153873 0.062107 0.016450
0.187469 0.056348 0.012306
0.221849 0.053995 0.012000
0.256975 0.052340 0.012000
0.292774 0.050956 0.012000
0.329171 0.049737 0.012000
0.366095 0.048625 0.012000
0.403481 0.047584 0.012000
0.441270 0.046592 0.012000
0.479371 0.045636 0.012000
0.516970 0.044723 0.012000
0.553343 0.043890 0.012048
0.585108 0.043440 0.012537
0.615589 0.043063 0.013060
0.644809 0.042752 0.013614
0.672791 0.042501 0.014194
0.699552 0.042305 0.014798
0.725107 0.042159 0.015422
0.749464 0.042058 0.016060
0.772628 0.041997 0.016710
0.797304 0.042050 0.017452
0.836184 0.042630 0.018737
0.861999 0.042922 0.019665
0.879414 0.043003 0.020325
0.891301 0.042942 0.020791
0.899455 0.042793 0.021115
0.904978 0.042603 0.021337
0.012000 0.107429 0.032395
0.012000 0.107125 0.031762
0.030941 0.106688 0.030877
0.057392 0.106113 0.030023
0.086082 0.105491 0.029100
0.117716 0.103589 0.024389
0.151540 0.096793 0.016268
0.186120 0.090131 0.012000
0.221184 0.086518 0.012000
0.256763 0.083782 0.012000
0.292873 0.081602 0.012000
0.329497 0.079779 0.012000
0.366597 0.078189 0.012000
0.404127 0.076758 0.012000
0.442041 0.075436 0.012000
0.480255 0.074194 0.012000
0.517957 0.073032 0.012000
0.554334 0.071984 0.012071
0.586353 0.071311 0.012630
0.617075 0.070730 0.013220
0.646525 0.070229 0.013839
0.674726 0.069801 0.014483
0.701696 0.069438 0.015148
0.727450 0.069134 0.015830
0.751997 0.068884 0.016526
0.775341 0.068683 0.017230
0.801870 0.068646 0.018087
0.840133 0.069062 0.019440
0.865530 0.069212 0.020409
0.882654 0.069167 0.021095
0.894335 0.068995 0.021577
0.902342 0.068749 0.021911
0.907762 0.068477 0.022139
0.012000 0.137065 0.029304
0.012000 0.136792 0.028642
0.029636 0.136391 0.027733
0.056006 0.135838 0.026910
0.084609 0.135239 0.026019
0.115403 0.134842 0.024243
0.148201 0.132482 0.019418
0.183180 0.126443 0.012000
0.219036 0.121891 0.012000
0.255354 0.118089 0.012000
0.292052 0.114961 0.012000
0.329126 0.112354 0.012000
0.366574 0.110127 0.012000
0.404380 0.108173 0.012000
0.442520 0.106415 0.012000
0.480925 0.104802 0.012000
0.518789 0.103325 0.012000
0.555240 0.102009 0.012097
0.587562 0.101070 0.012731
0.618566 0.100249 0.013394
0.648280 0.099529 0.014083
0.676729 0.098899 0.014795
0.703934 0.098348 0.015525
0.729911 0.097870 0.016270
0.754668 0.097455 0.017027
0.778212 0.097099 0.017789
0.806625 0.096957 0.018774
0.844270 0.097199 0.020195
0.869244 0.097196 0.021208
0.886073 0.097018 0.021920
0.897543 0.096727 0.022417
0.905400 0.096377 0.022761
0.910713 0.096018 0.022995
0.012000 0.168102 0.026271
0.012000 0.167862 0.025578
0.028430 0.167495 0.024656
0.054716 0.166965 0.023864
0.083227 0.166391 0.023007
0.113516 0.165781 0.022100
0.146070 0.165539 0.019678
0.179885 0.162816 0.014579
0.215845 0.158478 0.012000
0.252717 0.154399 0.012000
0.290074 0.150631 0.012000
0.327759 0.147292 0.012000
0.365727 0.144368 0.012000
0.403964 0.141793 0.012000
0.442460 0.139496 0.012000
0.481164 0.137415 0.012000
0.519279 0.135538 0.012000
0.555912 0.133880 0.012123
0.588604 0.132615 0.012838
0.619946 0.131503 0.013579
0.649972 0.130522 0.014342
0.678710 0.129654 0.015126
0.706184 0.128885 0.015926
0.732412 0.128205 0.016738
0.757406 0.127603 0.017559
0.781172 0.127073 0.018384
0.811442 0.126804 0.019507
0.848504 0.126857 0.020998
0.873075 0.126689 0.022053
0.889618 0.126366 0.022792
0.900883 0.125947 0.023305
0.908591 0.125486 0.023659
0.913798 0.125032 0.023898
0.012000 0.200342 0.023344
0.012000 0.200136 0.022620
0.027355 0.199801 0.021694
0.053553 0.199295 0.020935
0.081969 0.198746 0.020113
0.112157 0.198164 0.019243
0.143836 0.197554 0.018333
0.177999 0.197487 0.015198
0.212623 0.194586 0.012000
0.249444 0.191280 0.012000
0.287164 0.187645 0.012000
0.325391 0.184013 0.012000
0.363930 0.180589 0.012000
0.402700 0.177447 0.012000
0.441669 0.174589 0.012000
0.480782 0.171986 0.012000
0.519245 0.169643 0.012000
0.556193 0.167572 0.012143
0.589341 0.165916 0.012945
0.621092 0.164456 0.013769
0.651489 0.163164 0.014613
0.680567 0.162014 0.015473
0.708354 0.160989 0.016347
0.734872 0.160073 0.017230
0.760136 0.159255 0.018119
0.784152 0.158524 0.019009
0.816193 0.158098 0.020279
0.852751 0.157945 0.021843
0.876963 0.157596 0.022942
0.893245 0.157113 0.023707
0.904320 0.156554 0.024237
0.911888 0.155970 0.024601
0.916994 0.155413 0.024845
0.012000 0.233636 0.020562
0.012000 0.233465 0.019806
0.026436 0.233159 0.018887
0.052543 0.232677 0.018161
0.080861 0.232155 0.017376
0.110945 0.231602 0.016545
0.142514 0.231022 0.015675
0.175374 0.230419 0.014773
0.211128 0.230541 0.012000
0.246306 0.227609 0.012000
0.283895 0.224867 0.012000
0.322345 0.221612 0.012000
0.361312 0.218153 0.012000
0.400588 0.214720 0.012000
0.440069 0.211438 0.012000
0.479664 0.208361 0.012000
0.518555 0.205550 0.012000
0.555950 0.203032 0.012152
0.589643 0.200942 0.013047
0.621883 0.199088 0.013960
0.652720 0.197436 0.014889
0.682199 0.195961 0.015831
0.710351 0.194638 0.016783
0.737205 0.193450 0.017742
0.762777 0.192382 0.018704
0.787079 0.191420 0.019663
0.820756 0.190803 0.021083
0.856930 0.190423 0.022724
0.880851 0.189874 0.023870
0.896915 0.189214 0.024664
0.907824 0.188500 0.025210
0.915268 0.187781 0.025584
0.920283 0.187109 0.025834
0.012000 0.267866 0.017958
0.012000 0.267732 0.017169
0.025695 0.267451 0.016269
0.051709 0.266995 0.015577
0.079925 0.266501 0.014830
0.109901 0.265977 0.014038
0.141358 0.265427 0.013210
0.174100 0.264857 0.012351
0.208864 0.264626 0.012000
0.245307 0.264589 0.012000
0.280848 0.261428 0.012000
0.319141 0.258891 0.012000
0.358242 0.255829 0.012000
0.397848 0.252521 0.012000
0.437759 0.249200 0.012000
0.477817 0.246020 0.012000
0.517162 0.243048 0.012000
0.555096 0.240122 0.012143
0.589414 0.237603 0.013137
0.622219 0.235339 0.014145
0.653568 0.233303 0.015166
0.683510 0.231469 0.016195
0.712085 0.229816 0.017231
0.739325 0.228323 0.018270
0.765252 0.226973 0.019308
0.789879 0.225751 0.020340
0.825013 0.224906 0.021912
0.860962 0.224276 0.023637
0.884689 0.223506 0.024833
0.900591 0.222652 0.025658
0.911370 0.221766 0.026223
0.918711 0.220896 0.026607
0.923649 0.220097 0.026863
0.012000 0.302940 0.015562
0.012000 0.302844 0.014738
0.025152 0.302584 0.013869
0.051070 0.302154 0.013213
0.079182 0.301689 0.012503
0.109048 0.301195 0.012000
0.140389 0.300677 0.012000
0.173011 0.300140 0.012000
0.206773 0.299584 0.012000
0.242753 0.299495 0.012000
0.280184 0.299541 0.012000
0.316176 0.296068 0.012000
0.355109 0.293579 0.012000
0.394796 0.290587 0.012000
0.434971 0.287324 0.012000
0.475401 0.283999 0.012000
0.515157 0.280826 0.012000
0.553641 0.277919 0.012111
0.588616 0.275446 0.013209
0.622039 0.273084 0.014319
0.653960 0.270674 0.015437
0.684426 0.268478 0.016559
0.713480 0.266480 0.017684
0.741158 0.264662 0.018807
0.767487 0.263007 0.019926
0.792482 0.261501 0.021036
0.828857 0.260395 0.022759
0.864778 0.259495 0.024576
0.888427 0.258487 0.025829
0.904240 0.257420 0.026687
0.914933 0.256345 0.027272
0.922200 0.255309 0.027668
0.926919 0.254218 0.027918
0.012000 0.338780 0.013399
0.012000 0.338721 0.012541
0.024825 0.338480 0.012000
0.050645 0.338077 0.012000
0.078651 0.337641 0.012000
0.108404 0.337178 0.012000
0.139627 0.336693 0.012000
0.172126 0.336189 0.012000
0.205760 0.335669 0.012000
0.240418 0.335133 0.012000
0.277552 0.335204 0.012000
0.315869 0.335329 0.012000
0.352227 0.331542 0.012000
0.391739 0.329099 0.012000
0.431952 0.326180 0.012000
0.472591 0.322979 0.012000
0.512660 0.319744 0.012000
0.551655 0.316641 0.012054
0.587291 0.313867 0.013259
0.621345 0.311389 0.014473
0.653867 0.309210 0.015694
0.684901 0.306872 0.016916
0.714482 0.304543 0.018135
0.742646 0.302402 0.019349
0.769421 0.300436 0.020554
0.794828 0.298635 0.021746
0.832196 0.297246 0.023613
0.868315 0.296064 0.025535
0.892024 0.294802 0.026852
0.907832 0.293508 0.027748
0.918493 0.292230 0.028357
0.925719 0.291015 0.028766
0.929965 0.289278 0.028984
0.012000 0.375319 0.012000
0.012000 0.375300 0.012000
0.024730 0.375073 0.012000
0.050450 0.374697 0.012000
0.078349 0.374291 0.012000
0.107987 0.373860 0.012000
0.139088 0.373408 0.012000
0.171462 0.372939 0.012000
0.204966 0.372455 0.012000
0.239490 0.371956 0.012000
0.274946 0.371446 0.012000
0.313182 0.371691 0.012000
0.352297 0.371893 0.012000
0.388949 0.367789 0.012000
0.428988 0.365393 0.012000
0.469636 0.362549 0.012000
0.509863 0.359483 0.012000
0.549213 0.356381 0.012000
0.585509 0.353451 0.013286
0.620187 0.350741 0.014607
0.653314 0.348285 0.015932
0.684929 0.346098 0.017258
0.715068 0.343868 0.018579
0.743754 0.341435 0.019888
0.771015 0.339176 0.021184
0.796871 0.337087 0.022463
0.834959 0.335406 0.024465
0.871523 0.333940 0.026507
0.895443 0.332421 0.027897
0.911341 0.330893 0.028839
0.922030 0.329403 0.029474
0.929254 0.328001 0.029899
0.933118 0.325581 0.030087
0.012000 0.412502 0.012000
0.012000 0.412523 0.012000
0.024885 0.412306 0.012000
0.050503 0.411959 0.012000
0.078291 0.411583 0.012000
0.107811 0.411184 0.012000
0.138790 0.410767 0.012000
0.171036 0.410333 0.012000
0.204408 0.409885 0.012000
0.238796 0.409425 0.012000
0.274112 0.408953 0.012000
0.310284 0.408471 0.012000
0.349577 0.408903 0.012000
0.389417 0.409180 0.012000
0.426299 0.404759 0.012000
0.466778 0.402410 0.012000
0.506993 0.399701 0.012000
0.546459 0.396799 0.012000
0.585061 0.393840 0.012000
0.622720 0.390932 0.012000
0.652363 0.388456 0.016152
0.684554 0.386050 0.017581
0.715251 0.383880 0.019006
0.744480 0.381605 0.020419
0.772252 0.379099 0.021810
0.798586 0.376752 0.023180
0.837097 0.374791 0.025305
0.874365 0.373056 0.027485
0.898657 0.371288 0.028960
0.914747 0.369529 0.029954
0.925529 0.367827 0.030621
0.932792 0.366234 0.031065
0.936381 0.363143 0.031229
0.012000 0.450280 0.012000
0.012000 0.450342 0.012000
0.025302 0.450131 0.012000
0.050817 0.449813 0.012000
0.078492 0.449468 0.012000
0.107894 0.449102 0.012000
0.138748 0.448719 0.012000
0.170863 0.448322 0.012000
0.204101 0.447911 0.012000
0.238350 0.447489 0.012000
0.273523 0.447057 0.012000
0.309550 0.446615 0.012000
0.347801 0.446753 0.012000
0.386683 0.446796 0.012000
0.427181 0.447147 0.012000
0.464199 0.442410 0.012000
0.504255 0.440159 0.012000
0.543691 0.437605 0.012000
0.582375 0.434868 0.012000
0.620200 0.432062 0.012000
0.657089 0.429279 0.012000
0.683845 0.426943 0.017889
0.715086 0.424607 0.019417
0.744849 0.422479 0.020935
0.773143 0.420039 0.022428
0.799973 0.417489 0.023894
0.838591 0.415284 0.026125
0.876819 0.413311 0.028461
0.901646 0.411316 0.030035
0.918031 0.409342 0.031089
0.928975 0.407440 0.031793
0.936323 0.405663 0.032260
0.939753 0.401967 0.032410
0.012000 0.488324 0.012000
0.012000 0.488427 0.012000
0.025990 0.488219 0.012000
0.051401 0.487930 0.012000
0.078963 0.487616 0.012000
0.108244 0.487284 0.012000
0.138972 0.486936 0.012000
0.170957 0.486575 0.012000
0.204058 0.486202 0.012000
0.238167 0.485819 0.012000
0.273197 0.485427 0.012000
0.309077 0.485026 0.012000
0.345746 0.484618 0.012000
0.384918 0.484921 0.012000
0.424469 0.485046 0.012000
0.465534 0.485471 0.012000
0.501816 0.480443 0.012000
0.541104 0.478308 0.012000
0.579746 0.475906 0.012000
0.617624 0.473333 0.012000
0.654642 0.470684 0.012000
0.690720 0.468038 0.012000
0.725799 0.465457 0.012000
0.744925 0.463584 0.021430
0.773725 0.461495 0.023030
0.801047 0.458819 0.024594
0.839447 0.456428 0.026910
0.878868 0.454266 0.029423
0.904381 0.452085 0.031107
0.921162 0.449928 0.032232
0.932333 0.447848 0.032979
0.939810 0.445905 0.033472
0.943207 0.441728 0.033618
0.012000 0.525785 0.012000
0.012000 0.525929 0.012000
0.026933 0.525720 0.012000
0.052241 0.525459 0.012000
0.079691 0.525177 0.012000
0.108854 0.524878 0.012000
0.139457 0.524565 0.012000
0.171313 0.524240 0.012000
0.204280 0.523904 0.012000
0.238252 0.523560 0.012000
0.273140 0.523207 0.012000
0.308875 0.522847 0.012000
0.345397 0.522480 0.012000
0.382654 0.522107 0.012000
0.422748 0.522596 0.012000
0.462896 0.522807 0.012000
0.503660 0.523297 0.012000
0.538857 0.517981 0.012000
0.577365 0.515955 0.012000
0.615195 0.513693 0.012000
0.652243 0.511276 0.012000
0.688418 0.508781 0.012000
0.723643 0.506277 0.012000
0.757850 0.503821 0.012000
0.790980 0.501454 0.012000
0.801848 0.499672 0.025264
0.839724 0.497170 0.027642
0.880506 0.494884 0.030345
0.906821 0.492572 0.032151
0.924078 0.490277 0.033352
0.935531 0.488059 0.034148
0.943175 0.485980 0.034672
0.946661 0.481497 0.034828
0.012000 0.562592 0.012000
0.012000 0.562769 0.012000
0.028118 0.562563 0.012000
0.053324 0.562330 0.012000
0.080665 0.562079 0.012000
0.109711 0.561812 0.012000
0.140192 0.561533 0.012000
0.171920 0.561244 0.012000
0.204756 0.560945 0.012000
0.238592 0.560638 0.012000
0.273342 0.560324 0.012000
0.308934 0.560004 0.012000
0.345310 0.559678 0.012000
0.382418 0.559346 0.012000
0.420216 0.559010 0.012000
0.461211 0.559708 0.012000
0.501103 0.559999 0.012000
0.541206 0.560548 0.012000
0.575303 0.554946 0.012000
0.613015 0.553021 0.012000
0.650013 0.550890 0.012000
0.686204 0.548620 0.012000
0.721500 0.546275 0.012000
0.755824 0.543915 0.012000
0.789102 0.541591 0.012000
0.821268 0.539274 0.012000
0.839543 0.537296 0.028321
0.881797 0.534955 0.031224
0.908998 0.532572 0.033160
0.926793 0.530193 0.034446
0.938574 0.527880 0.035295
0.946416 0.525702 0.035852
0.950102 0.521111 0.036032
0.012000 0.598720 0.012000
0.012000 0.598905 0.012000
0.029532 0.598724 0.012000
0.054639 0.598519 0.012000
0.081872 0.598297 0.012000
0.110803 0.598063 0.012000
0.141164 0.597817 0.012000
0.172767 0.597563 0.012000
0.205474 0.597301 0.012000
0.239176 0.597031 0.012000
0.273789 0.596756 0.012000
0.309241 0.596475 0.012000
0.345474 0.596189 0.012000
0.382437 0.595898 0.012000
0.420087 0.595603 0.012000
0.458347 0.595305 0.012000
0.499457 0.596230 0.012000
0.538738 0.596594 0.012000
0.578149 0.597194 0.012000
0.611131 0.591311 0.012000
0.648025 0.589481 0.012000
0.684167 0.587473 0.012000
0.719469 0.585341 0.012000
0.753846 0.583141 0.012000
0.787216 0.580925 0.012000
0.819500 0.578738 0.012000
0.861016 0.576091 0.012000
0.912565 0.573269 0.012000
0.910955 0.571945 0.034136
0.929330 0.569536 0.035510
0.941472 0.567175 0.036417
0.949537 0.564938 0.037012
0.953519 0.560446 0.037228
0.012000 0.634143 0.012000
0.012000 0.634333 0.012000
0.031162 0.634176 0.012000
0.056171 0.633999 0.012000
0.083298 0.633807 0.012000
0.112117 0.633604 0.012000
0.142360 0.633392 0.012000
0.173840 0.633172 0.012000
0.206420 0.632945 0.012000
0.239992 0.632712 0.012000
0.274470 0.632475 0.012000
0.309785 0.632232 0.012000
0.345877 0.631985 0.012000
0.382697 0.631735 0.012000
0.420201 0.631481 0.012000
0.458313 0.631224 0.012000
0.498469 0.631887 0.012000
0.537137 0.632130 0.012000
0.575777 0.632560 0.012000
0.614464 0.633205 0.012000
0.646311 0.627046 0.012000
0.682362 0.625306 0.012000
0.717618 0.623414 0.012000
0.751995 0.621413 0.012000
0.785405 0.619353 0.012000
0.817762 0.617279 0.012000
0.857561 0.614942 0.012000
0.910365 0.612240 0.012000
0.945128 0.609527 0.012000
0.968243 0.606857 0.012000
0.944238 0.605818 0.037512
0.952545 0.603564 0.038146
0.956900 0.599370 0.038411
0.012000 0.668831 0.012000
0.012000 0.669023 0.012000
0.032994 0.668890 0.012000
0.057907 0.668739 0.012000
0.084931 0.668577 0.012000
0.113639 0.668405 0.012000
0.143766 0.668225 0.012000
0.175126 0.668039 0.012000
0.207581 0.667847 0.012000
0.241025 0.667651 0.012000
0.275372 0.667450 0.012000
0.310552 0.667245 0.012000
0.346507 0.667038 0.012000
0.383186 0.666827 0.012000
0.420547 0.666613 0.012000
0.458514 0.666397 0.012000
0.496279 0.666184 0.012000
0.536179 0.667056 0.012000
0.574228 0.667371 0.012000
0.612192 0.667861 0.012000
0.650122 0.668546 0.012000
0.680811 0.662114 0.012000
0.715988 0.660462 0.012000
0.750323 0.658679 0.012000
0.783729 0.656804 0.012000
0.816115 0.654880 0.012000
0.854148 0.652824 0.012000
0.908143 0.650294 0.012000
0.943678 0.647709 0.012000
0.967292 0.645127 0.012000
0.983115 0.642610 0.012000
0.993755 0.640229 0.012000
1.000000 0.636393 0.012000
0.012000 0.702747 0.012000
0.013106 0.702940 0.012000
0.035013 0.702830 0.012000
0.059832 0.702706 0.012000
0.086754 0.702572 0.012000
0.115354 0.702430 0.012000
0.145368 0.702282 0.012000
0.176610 0.702129 0.012000
0.208943 0.701972 0.012000
0.242261 0.701811 0.012000
0.276479 0.701646 0.012000
0.311528 0.701479 0.012000
0.347347 0.701309 0.012000
0.383889 0.701137 0.012000
0.421110 0.700963 0.012000
0.458935 0.700787 0.012000
0.496559 0.700614 0.012000
0.533653 0.700444 0.012000
0.573302 0.701532 0.012000
0.610701 0.701913 0.012000
0.647954 0.702456 0.012000
0.685090 0.703178 0.012000
0.714594 0.696477 0.012000
0.748860 0.694909 0.012000
0.782229 0.693231 0.012000
0.814609 0.691477 0.012000
0.850903 0.689670 0.012000
0.905985 0.687351 0.012000
0.942241 0.684933 0.012000
0.966330 0.682481 0.012000
0.982464 0.680059 0.012000
0.993308 0.677743 0.012000
1.000000 0.674547 0.012000
0.012000 0.735849 0.012000
0.015376 0.736041 0.012000
0.037202 0.735954 0.012000
0.061929 0.735856 0.012000
0.088751 0.735750 0.012000
0.117247 0.735638 0.012000
0.147150 0.735521 0.012000
0.178276 0.735401 0.012000
0.210490 0.735277 0.012000
0.243686 0.735151 0.012000
0.277778 0.735022 0.012000
0.312697 0.734891 0.012000
0.348385 0.734758 0.012000
0.384793 0.734624 0.012000
0.421877 0.734489 0.012000
0.459563 0.734353 0.012000
0.497049 0.734218 0.012000
0.534007 0.734087 0.012000
0.572856 0.734960 0.012000
0.609809 0.735268 0.012000
0.646524 0.735709 0.012000
0.683029 0.736300 0.012000
0.719331 0.737052 0.012000
0.747614 0.730088 0.012000
0.780925 0.728602 0.012000
0.813273 0.727025 0.012000
0.847921 0.725387 0.012000
0.903960 0.723349 0.012000
0.940867 0.721129 0.012000
0.965394 0.718837 0.012000
0.981819 0.716542 0.012000
0.992855 0.714322 0.012000
1.000000 0.711882 0.012000
0.012000 0.768089 0.012000
0.017795 0.768279 0.012000
0.039543 0.768214 0.012000
0.064181 0.768141 0.012000
0.090906 0.768062 0.012000
0.119298 0.767979 0.012000
0.149093 0.767893 0.012000
0.180108 0.767804 0.012000
0.212206 0.767713 0.012000
0.245281 0.767621 0.012000
0.279250 0.767527 0.012000
0.314044 0.767431 0.012000
0.349604 0.767335 0.012000
0.385880 0.767238 0.012000
0.422831 0.767141 0.012000
0.460382 0.767043 0.012000
0.497733 0.766947 0.012000
0.534558 0.766853 0.012000
0.570832 0.766762 0.012000
0.609385 0.767837 0.012000
0.645669 0.768207 0.012000
0.681663 0.768702 0.012000
0.717377 0.769336 0.012000
0.752799 0.770115 0.012000
0.779821 0.762891 0.012000
0.812120 0.761485 0.012000
0.845260 0.760007 0.012000
0.902121 0.758237 0.012000
0.939597 0.756233 0.012000
0.964513 0.754124 0.012000
0.981202 0.751978 0.012000
0.992416 0.749877 0.012000
0.999857 0.747936 0.012000
0.012000 0.799406 0.012221
0.020345 0.799592 0.012000
0.042016 0.799549 0.012000
0.066567 0.799500 0.012000
0.093198 0.799448 0.012000
0.121490 0.799394 0.012000
0.151180 0.799337 0.012000
0.182085 0.799280 0.012000
0.214070 0.799221 0.012000
0.247029 0.799161 0.012000
0.280879 0.799101 0.012000
0.315550 0.799040 0.012000
0.350985 0.798979 0.012000
0.387134 0.798918 0.012000
0.423955 0.798858 0.012000
0.461374 0.798797 0.012000
0.498595 0.798738 0.012000
0.535290 0.798681 0.012000
0.571437 0.798626 0.012000
0.607008 0.798574 0.012000
0.645266 0.799856 0.012000
0.680846 0.800284 0.012000
0.716078 0.800829 0.012000
0.750955 0.801499 0.012000
0.785443 0.802299 0.012000
0.811151 0.794821 0.012000
0.842952 0.793495 0.012000
0.900500 0.791966 0.012000
0.938458 0.790187 0.012000
0.963710 0.788273 0.012000
0.980632 0.786292 0.012000
0.992004 0.784327 0.012000
0.999550 0.782493 0.012000
0.012000 0.829727 0.013936
0.023002 0.829908 0.013358
0.044598 0.829886 0.013242
0.069065 0.829862 0.013113
0.095604 0.829835 0.012975
0.123799 0.829808 0.012830
0.153388 0.829781 0.012681
0.184187 0.829753 0.012528
0.216062 0.829725 0.012373
0.248909 0.829697 0.012217
0.282643 0.829670 0.012059
0.317195 0.829643 0.012000
0.352509 0.829617 0.012000
0.388535 0.829591 0.012000
0.425230 0.829566 0.012000
0.462522 0.829542 0.012000
0.499615 0.829519 0.012000
0.536186 0.829497 0.012000
0.572210 0.829478 0.012000
0.607659 0.829459 0.012000
0.645226 0.830558 0.012000
0.680463 0.830939 0.012000
0.715300 0.831419 0.012000
0.749724 0.832008 0.012000
0.783708 0.832710 0.012000
0.817200 0.833526 0.012000
0.841526 0.825798 0.012000
0.899112 0.824480 0.012000
0.937467 0.822927 0.012000
0.963000 0.821213 0.012000
0.980120 0.819406 0.012000
0.991629 0.817588 0.012000
0.999268 0.815871 0.012000
0.012000 0.877373 0.015807
0.025740 0.877701 0.015297
0.047264 0.877697 0.015207
0.071650 0.877694 0.015107
0.098101 0.877692 0.015000
0.126202 0.877691 0.014889
0.155692 0.877692 0.014775
0.186390 0.877694 0.014658
0.218159 0.877698 0.014541
0.250897 0.877704 0.014423
0.284519 0.877712 0.014306
0.318957 0.877723 0.014188
0.354154 0.877735 0.014072
0.390060 0.877750 0.013957
