creator-kit/luts/AK_Golden_Vlog.cube
# AK_Golden_Vlog
# Warm, sunlit lifestyle look. Warms midtones and highlights, keeps shadows slightly cool so the warmth reads as sunlight rather than an orange cast.
# Best for: Golden hour, cafes, interiors, anything you want to feel inviting.
# Apply AFTER a D-Log M -> Rec.709 conversion, not instead of one.
TITLE "AK_Golden_Vlog"
LUT_3D_SIZE 33
DOMAIN_MIN 0.0 0.0 0.0
DOMAIN_MAX 1.0 1.0 1.0
0.010000 0.010066 0.040477
0.020935 0.010000 0.039365
0.050798 0.010000 0.037853
0.083753 0.010000 0.036175
0.118820 0.010000 0.034437
0.155479 0.010000 0.032675
0.193400 0.010000 0.030912
0.232350 0.010000 0.029164
0.272155 0.010000 0.027447
0.312678 0.010000 0.025772
0.353808 0.010000 0.024148
0.395451 0.010000 0.022584
0.437527 0.010000 0.021087
0.479970 0.010000 0.019666
0.522475 0.010000 0.018332
0.562524 0.010157 0.017261
0.598112 0.010651 0.016631
0.632226 0.011198 0.016172
0.664896 0.011793 0.015875
0.696147 0.012431 0.015731
0.726000 0.013107 0.015729
0.754472 0.013816 0.015859
0.781572 0.014552 0.016112
0.809301 0.015373 0.016536
0.852543 0.016796 0.017645
0.878015 0.017723 0.018336
0.893374 0.018315 0.018763
0.902821 0.018693 0.019029
0.906457 0.018840 0.018840
0.906457 0.018840 0.018840
0.906457 0.018840 0.018840
0.906457 0.018840 0.018840
0.906457 0.018840 0.018840
0.010000 0.029299 0.036942
0.018599 0.028444 0.035822
0.048526 0.027317 0.034326
0.081590 0.026109 0.032690
0.116775 0.024871 0.030997
0.153557 0.023630 0.029282
0.191606 0.022404 0.027568
0.230689 0.021208 0.025872
0.270631 0.020053 0.024207
0.311294 0.018948 0.022585
0.352567 0.017902 0.021016
0.394356 0.016922 0.019508
0.436582 0.016014 0.018069
0.479176 0.015185 0.016705
0.521834 0.014443 0.015430
0.562102 0.013953 0.014419
0.597847 0.013907 0.013865
0.632083 0.014018 0.013486
0.664862 0.014272 0.013267
0.696212 0.014661 0.013199
0.726155 0.015175 0.013273
0.754713 0.015804 0.013849
0.781897 0.016539 0.014593
0.810063 0.017440 0.015434
0.853169 0.018990 0.016866
0.878542 0.020103 0.017800
0.893839 0.020934 0.018400
0.903239 0.021590 0.018786
0.906701 0.021648 0.018925
0.906667 0.021262 0.018914
0.906645 0.021002 0.018906
0.906645 0.021002 0.018906
0.906645 0.021002 0.018906
0.010000 0.054226 0.032374
0.015616 0.053401 0.031218
0.045497 0.052292 0.029711
0.078641 0.051057 0.028134
0.113910 0.049788 0.026520
0.150780 0.048516 0.024888
0.188916 0.047258 0.023261
0.228087 0.046030 0.021656
0.268116 0.044843 0.020086
0.308865 0.043706 0.018562
0.350222 0.042629 0.017094
0.392093 0.041617 0.015690
0.434398 0.040678 0.014358
0.477070 0.039818 0.013104
0.519802 0.039047 0.011942
0.560425 0.038498 0.011043
0.596451 0.038395 0.010718
0.630980 0.038445 0.011335
0.664043 0.038640 0.011998
0.695668 0.038972 0.012701
0.725878 0.039430 0.013442
0.754691 0.040005 0.014215
0.782119 0.040687 0.015016
0.809284 0.041497 0.015874
0.853626 0.043006 0.017426
0.879690 0.044085 0.018434
0.895382 0.044885 0.019080
0.905013 0.045514 0.019493
0.908776 0.045538 0.019652
0.908742 0.045152 0.019640
0.908720 0.044894 0.019632
0.908720 0.044894 0.019632
0.908720 0.044894 0.019632
0.010000 0.081838 0.027443
0.012446 0.081051 0.026250
0.042227 0.079974 0.024739
0.075350 0.078752 0.023119
0.110697 0.077456 0.021580
0.147647 0.076153 0.020045
0.185868 0.074864 0.018519
0.225126 0.073603 0.017018
0.265245 0.072382 0.015555
0.306086 0.071210 0.014141
0.347538 0.070097 0.012785
0.389505 0.069049 0.011496
0.431909 0.068073 0.010280
0.474680 0.067176 0.010000
0.517513 0.066366 0.010000
0.558532 0.065751 0.010139
0.594895 0.065578 0.010780
0.629751 0.065560 0.011468
0.663130 0.065690 0.012200
0.695059 0.065957 0.012972
0.725563 0.066353 0.013779
0.754660 0.066868 0.014617
0.782360 0.067491 0.015480
0.808666 0.068211 0.016363
0.854101 0.069662 0.018042
0.880945 0.070703 0.019134
0.897085 0.071470 0.019832
0.906977 0.072068 0.020277
0.911079 0.072054 0.020458
0.911046 0.071671 0.020446
0.911024 0.071414 0.020438
0.911024 0.071414 0.020438
0.911024 0.071414 0.020438
0.010000 0.111335 0.022338
0.010000 0.110587 0.021106
0.038889 0.109542 0.019601
0.071923 0.108347 0.018013
0.107272 0.107069 0.016316
0.144310 0.105734 0.014885
0.182622 0.104410 0.013467
0.221973 0.103114 0.012077
0.262189 0.101856 0.010728
0.303129 0.100648 0.010000
0.344681 0.099496 0.010000
0.386752 0.098409 0.010000
0.429261 0.097394 0.010000
0.472139 0.096456 0.010000
0.515080 0.095606 0.010000
0.556492 0.094923 0.010119
0.593218 0.094675 0.010838
0.628424 0.094585 0.011602
0.662142 0.094644 0.012409
0.694399 0.094843 0.013254
0.725219 0.095172 0.014133
0.754619 0.095621 0.015040
0.782612 0.096182 0.015971
0.809198 0.096841 0.016919
0.854570 0.098196 0.018692
0.882269 0.099194 0.019879
0.898896 0.099924 0.020634
0.909073 0.100490 0.021114
0.913545 0.100439 0.021321
0.913512 0.100057 0.021309
0.913489 0.099801 0.021301
0.913489 0.099801 0.021301
0.913489 0.099801 0.021301
0.010000 0.142299 0.017163
0.010000 0.141593 0.015889
0.035561 0.140578 0.014400
0.068500 0.139411 0.012845
0.103749 0.138163 0.011182
0.140817 0.136849 0.010000
0.179224 0.135490 0.010000
0.218674 0.134156 0.010000
0.258991 0.132860 0.010000
0.300035 0.131613 0.010000
0.341694 0.130421 0.010000
0.383873 0.129294 0.010000
0.426492 0.128237 0.010000
0.469483 0.127257 0.010000
0.512537 0.126364 0.010000
0.554332 0.125613 0.010088
0.591440 0.125287 0.010890
0.627016 0.125121 0.011736
0.661092 0.125105 0.012622
0.693694 0.125231 0.013544
0.724848 0.125490 0.014498
0.754569 0.125871 0.015479
0.782870 0.126365 0.016481
0.809753 0.126960 0.017499
0.855021 0.128213 0.019367
0.883638 0.129165 0.020657
0.900789 0.129856 0.021474
0.911270 0.130387 0.021992
0.916139 0.130300 0.022229
0.916106 0.129920 0.022217
0.916083 0.129665 0.022209
0.916083 0.129665 0.022209
0.916083 0.129665 0.022209
0.010000 0.174469 0.011985
0.010000 0.173808 0.010669
0.032293 0.172819 0.010000
0.065135 0.171681 0.010000
0.100279 0.170465 0.010000
0.137241 0.169186 0.010000
0.175705 0.167849 0.010000
0.215258 0.166477 0.010000
0.255680 0.165142 0.010000
0.296833 0.163853 0.010000
0.338602 0.162620 0.010000
0.380894 0.161450 0.010000
0.423629 0.160350 0.010000
0.466737 0.159325 0.010000
0.509909 0.158388 0.010000
0.552068 0.157572 0.010047
0.589575 0.157165 0.010935
0.625538 0.156919 0.011865
0.659987 0.156825 0.012835
0.692951 0.156875 0.013838
0.724452 0.157060 0.014871
0.754509 0.157370 0.015929
0.783133 0.157794 0.017006
0.810324 0.158323 0.018096
0.855444 0.159470 0.020060
0.885039 0.160373 0.021460
0.902746 0.161023 0.022345
0.913551 0.161517 0.022905
0.918840 0.161395 0.023174
0.918807 0.161017 0.023162
0.918785 0.160764 0.023155
0.918785 0.160764 0.023155
0.918785 0.160764 0.023155
0.010000 0.207665 0.010000
0.010000 0.207050 0.010000
0.029127 0.206084 0.010000
0.061867 0.204976 0.010000
0.096903 0.203792 0.010000
0.133751 0.202547 0.010000
0.172111 0.201254 0.010000
0.211746 0.199903 0.010000
0.252277 0.198526 0.010000
0.293542 0.197195 0.010000
0.335426 0.195919 0.010000
0.377835 0.194705 0.010000
0.420689 0.193560 0.010000
0.463917 0.192490 0.010000
0.507212 0.191507 0.010000
0.549686 0.190630 0.010000
0.587632 0.190136 0.010971
0.623995 0.189807 0.011990
0.658833 0.189633 0.013046
0.692171 0.189605 0.014134
0.724034 0.189713 0.015249
0.754440 0.189949 0.016387
0.783398 0.190302 0.017542
0.810910 0.190761 0.018707
0.855831 0.191800 0.020765
0.886462 0.192651 0.022285
0.904756 0.193256 0.023242
0.915902 0.193712 0.023846
0.921633 0.193558 0.024152
0.921601 0.193182 0.024140
0.921579 0.192929 0.024133
0.921579 0.192929 0.024133
0.921579 0.192929 0.024133
0.010000 0.241753 0.010000
0.010000 0.241184 0.010000
0.026094 0.240238 0.010000
0.058730 0.239161 0.010000
0.093654 0.238009 0.010000
0.130385 0.236800 0.010000
0.168623 0.235542 0.010000
0.208160 0.234243 0.010000
0.248796 0.232886 0.010000
0.290176 0.231512 0.010000
0.332178 0.230191 0.010000
0.374708 0.228932 0.010000
0.417684 0.227740 0.010000
0.461037 0.226624 0.010000
0.504458 0.225593 0.010000
0.547057 0.224669 0.010000
0.585617 0.224075 0.010998
0.622395 0.223661 0.012108
0.657633 0.223404 0.013254
0.691358 0.223295 0.014429
0.723595 0.223325 0.015629
0.754360 0.223484 0.016850
0.783664 0.223763 0.018086
0.811507 0.224150 0.019330
0.856177 0.225078 0.021479
0.887898 0.225873 0.023127
0.906810 0.226433 0.024161
0.918313 0.226848 0.024812
0.924509 0.226664 0.025158
0.924477 0.226290 0.025147
0.924455 0.226039 0.025139
0.924455 0.226039 0.025139
0.924455 0.226039 0.025139
0.010000 0.276627 0.010000
0.010000 0.276106 0.010000
0.023221 0.275176 0.010000
0.055750 0.274130 0.010000
0.090560 0.273013 0.010000
0.127171 0.271839 0.010000
0.165284 0.270618 0.010000
0.204692 0.269358 0.010000
0.245244 0.268063 0.010000
0.286748 0.266703 0.010000
0.328871 0.265337 0.010000
0.371524 0.264031 0.010000
0.414626 0.262793 0.010000
0.458107 0.261628 0.010000
0.501657 0.260549 0.010000
0.544384 0.259577 0.010000
0.583536 0.258886 0.011015
0.620740 0.258384 0.012220
0.656390 0.258042 0.013457
0.690514 0.257849 0.014723
0.723135 0.257798 0.016011
0.754270 0.257879 0.017318
0.783930 0.258081 0.018637
0.812115 0.258395 0.019961
0.856477 0.259211 0.022198
0.889343 0.259946 0.023983
0.908901 0.260457 0.025100
0.920778 0.260831 0.025800
0.927459 0.260621 0.026191
0.927426 0.260249 0.026179
0.927405 0.259999 0.026172
0.927405 0.259999 0.026172
0.927405 0.259999 0.026172
0.010000 0.312206 0.010000
0.010000 0.311727 0.010000
0.020532 0.310813 0.010000
0.052952 0.309800 0.010000
0.087646 0.308718 0.010000
0.124134 0.307580 0.010000
0.162119 0.306398 0.010000
0.201394 0.305177 0.010000
0.241810 0.303922 0.010000
0.283249 0.302637 0.010000
0.325513 0.301280 0.010000
0.368292 0.299927 0.010000
0.411523 0.298640 0.010000
0.455135 0.297426 0.010000
0.498817 0.296297 0.010000
0.541674 0.295276 0.010000
0.581392 0.294490 0.011021
0.619033 0.293899 0.012323
0.655107 0.293469 0.013655
0.689640 0.293191 0.015013
0.722656 0.293057 0.016393
0.754171 0.293057 0.017788
0.784196 0.293181 0.019192
0.812731 0.293420 0.020600
0.856726 0.294121 0.022921
0.890790 0.294794 0.024850
0.911024 0.295255 0.026055
0.923320 0.295565 0.026809
0.930475 0.295351 0.027246
0.930443 0.294981 0.027235
0.930422 0.294733 0.027228
0.930422 0.294733 0.027228
0.930422 0.294733 0.027228
0.010000 0.348419 0.010000
0.010000 0.347966 0.010000
0.018048 0.347082 0.010000
0.050357 0.346102 0.010000
0.084931 0.345055 0.010000
0.121294 0.343955 0.010000
0.159148 0.342811 0.010000
0.198289 0.341630 0.010000
0.238567 0.340417 0.010000
0.279864 0.339174 0.010000
0.322088 0.337906 0.010000
0.365019 0.336553 0.010000
0.408381 0.335217 0.010000
0.452127 0.333953 0.010000
0.495944 0.332774 0.010000
0.538935 0.331703 0.010000
0.579189 0.330826 0.011015
0.617279 0.330143 0.012417
0.653786 0.329623 0.013847
0.688738 0.329258 0.015301
0.722158 0.329039 0.016773
0.754062 0.328956 0.018259
0.784462 0.329001 0.019751
0.813355 0.329162 0.021244
0.856922 0.329748 0.023644
0.892237 0.330356 0.025727
0.913175 0.330763 0.027024
0.925918 0.331005 0.027837
0.933554 0.330795 0.028324
0.933522 0.330427 0.028313
0.933501 0.330181 0.028305
0.933501 0.330181 0.028305
0.933501 0.330181 0.028305
0.010000 0.385210 0.010000
0.010000 0.384778 0.010000
0.015787 0.383924 0.010000
0.047982 0.382978 0.010000
0.082435 0.381967 0.010000
0.118671 0.380904 0.010000
0.156393 0.379800 0.010000
0.195397 0.378660 0.010000
0.235532 0.377489 0.010000
0.276685 0.376289 0.010000
0.318761 0.375065 0.010000
0.361687 0.373818 0.010000
0.405208 0.372472 0.010000
0.449090 0.371157 0.010000
0.493044 0.369926 0.010000
0.536171 0.368804 0.010000
0.578380 0.367790 0.010000
0.615478 0.367063 0.012502
0.652429 0.366452 0.014032
0.687809 0.365997 0.015584
0.721642 0.365692 0.017151
0.753945 0.365525 0.018730
0.784727 0.365488 0.020313
0.813988 0.365571 0.021893
0.857061 0.366041 0.024366
0.893681 0.366579 0.026612
0.915350 0.366932 0.028007
0.928554 0.367108 0.028881
0.936690 0.366901 0.029422
0.936659 0.366535 0.029411
0.936637 0.366290 0.029403
0.936637 0.366290 0.029403
0.936637 0.366290 0.029403
0.010000 0.422528 0.010000
0.010000 0.422112 0.010000
0.013766 0.421289 0.010000
0.045846 0.420377 0.010000
0.080176 0.419403 0.010000
0.116282 0.418379 0.010000
0.153869 0.417315 0.010000
0.192734 0.416216 0.010000
0.232726 0.415087 0.010000
0.273731 0.413932 0.010000
0.315657 0.412752 0.010000
0.358430 0.411551 0.010000
0.401986 0.410329 0.010000
0.446029 0.408993 0.010000
0.490123 0.407709 0.010000
0.533388 0.406535 0.010000
0.575733 0.405470 0.010000
0.617141 0.404511 0.010000
0.651037 0.403911 0.014210
0.686854 0.403366 0.015861
0.721110 0.402972 0.017527
0.753819 0.402719 0.019201
0.784992 0.402599 0.020876
0.814627 0.402601 0.022546
0.857141 0.402956 0.025085
0.895117 0.403422 0.027503
0.917546 0.403717 0.029002
0.931224 0.403830 0.029940
0.939866 0.403625 0.030537
0.939849 0.403262 0.030527
0.939828 0.403018 0.030520
0.939828 0.403018 0.030520
0.939828 0.403018 0.030520
0.010000 0.460331 0.010000
0.010000 0.459926 0.010000
0.012001 0.459134 0.010000
0.043965 0.458257 0.010000
0.078170 0.457320 0.010000
0.114144 0.456335 0.010000
0.151594 0.455312 0.010000
0.190317 0.454256 0.010000
0.230163 0.453170 0.010000
0.271019 0.452059 0.010000
0.312793 0.450925 0.010000
0.355410 0.449770 0.010000
0.398807 0.448595 0.010000
0.442932 0.447404 0.010000
0.487184 0.446084 0.010000
0.530589 0.444858 0.010000
0.573073 0.443741 0.010000
0.614618 0.442730 0.010000
0.655200 0.441823 0.010000
0.694793 0.441016 0.010000
0.720561 0.440841 0.017899
0.753685 0.440501 0.019670
0.785256 0.440296 0.021440
0.815274 0.440217 0.023202
0.857160 0.440456 0.025800
0.896546 0.440845 0.028400
0.919760 0.441080 0.030006
0.933925 0.441134 0.031013
0.942807 0.440924 0.031649
0.943090 0.440570 0.031661
0.943069 0.440327 0.031654
0.943069 0.440327 0.031654
0.943069 0.440327 0.031654
0.010000 0.498346 0.010000
0.010000 0.497944 0.010000
0.010515 0.497185 0.010000
0.042361 0.496343 0.010000
0.076440 0.495443 0.010000
0.112281 0.494498 0.010000
0.149593 0.493516 0.010000
0.188174 0.492502 0.010000
0.227874 0.491460 0.010000
0.268579 0.490394 0.010000
0.310199 0.489305 0.010000
0.352659 0.488197 0.010000
0.395896 0.487070 0.010000
0.439859 0.485927 0.010000
0.484247 0.484774 0.010000
0.527796 0.483497 0.010000
0.570420 0.482328 0.010000
0.612102 0.481266 0.010000
0.652820 0.480308 0.010000
0.692547 0.479451 0.010000
0.731248 0.478692 0.010000
0.753545 0.478600 0.020134
0.785519 0.478309 0.022001
0.815924 0.478147 0.023855
0.857118 0.478272 0.026505
0.897955 0.478581 0.029294
0.921978 0.478755 0.031014
0.936638 0.478754 0.032091
0.945765 0.478537 0.032769
0.946358 0.478192 0.032805
0.946337 0.477951 0.032798
0.946337 0.477951 0.032798
0.946337 0.477951 0.032798
0.010000 0.535862 0.010000
0.010000 0.535460 0.010000
0.010000 0.534732 0.010000
0.041064 0.533925 0.010000
0.075018 0.533062 0.010000
0.110728 0.532156 0.010000
0.147904 0.531214 0.010000
0.186343 0.530242 0.010000
0.225898 0.529244 0.010000
0.266455 0.528222 0.010000
0.307922 0.527179 0.010000
0.350227 0.526117 0.010000
0.393306 0.525037 0.010000
0.437109 0.523942 0.010000
0.481335 0.522838 0.010000
0.525061 0.521733 0.010000
0.567824 0.520512 0.010000
0.609642 0.519399 0.010000
0.650494 0.518391 0.010000
0.690353 0.517485 0.010000
0.729184 0.516677 0.010000
0.766948 0.515964 0.010000
0.803593 0.515343 0.010000
0.816566 0.515685 0.024495
0.857015 0.515700 0.027187
0.899321 0.515927 0.030171
0.924159 0.516038 0.032007
0.939313 0.515988 0.033156
0.948686 0.515765 0.033875
0.949592 0.515427 0.033937
0.949571 0.515188 0.033930
0.949571 0.515188 0.033930
0.949571 0.515188 0.033930
0.010000 0.572820 0.010000
0.010000 0.572412 0.010000
0.010000 0.571714 0.010000
0.040065 0.570941 0.010000
0.073897 0.570115 0.010000
0.109478 0.569248 0.010000
0.146519 0.568347 0.010000
0.184818 0.567416 0.010000
0.224230 0.566460 0.010000
0.264640 0.565482 0.010000
0.305957 0.564484 0.010000
0.348109 0.563468 0.010000
0.391032 0.562434 0.010000
0.434676 0.561386 0.010000
0.478742 0.560330 0.010000
0.522326 0.559287 0.010000
0.565287 0.558228 0.010000
0.607241 0.557064 0.010000
0.648226 0.556006 0.010000
0.688214 0.555051 0.010000
0.727174 0.554196 0.010000
0.765063 0.553436 0.010000
0.801831 0.552769 0.010000
0.837412 0.552190 0.010000
0.856858 0.552675 0.027845
0.900643 0.552818 0.031028
0.926300 0.552867 0.032982
0.941945 0.552772 0.034204
0.951565 0.552543 0.034965
0.952787 0.552211 0.035055
0.952766 0.551973 0.035048
0.952766 0.551973 0.035048
0.952766 0.551973 0.035048
0.010000 0.609199 0.010000
0.010000 0.608779 0.010000
0.010000 0.608111 0.010000
0.039356 0.607372 0.010000
0.073066 0.606582 0.010000
0.108519 0.605753 0.010000
0.145427 0.604891 0.010000
0.183590 0.604002 0.010000
0.222860 0.603088 0.010000
0.263125 0.602153 0.010000
0.304294 0.601199 0.010000
0.346295 0.600228 0.010000
0.389065 0.599241 0.010000
0.432552 0.598239 0.010000
0.476460 0.597230 0.010000
0.519888 0.596234 0.010000
0.562734 0.595254 0.010000
0.604898 0.594236 0.010000
0.646014 0.593129 0.010000
0.686132 0.592126 0.010000
0.725218 0.591223 0.010000
0.763231 0.590417 0.010000
0.800120 0.589705 0.010000
0.835820 0.589082 0.010000
0.880606 0.588545 0.010000
0.934104 0.588089 0.010000
0.928400 0.589215 0.033939
0.944532 0.589081 0.035236
0.954400 0.588844 0.036040
0.955941 0.588518 0.036159
0.955920 0.588282 0.036152
0.955920 0.588282 0.036152
0.955920 0.588282 0.036152
0.010000 0.644973 0.010000
0.010000 0.644536 0.010000
0.010000 0.643899 0.010000
0.038925 0.643193 0.010000
0.072515 0.642439 0.010000
0.107843 0.641647 0.010000
0.144620 0.640825 0.010000
0.182647 0.639976 0.010000
0.221778 0.639104 0.010000
0.261900 0.638211 0.010000
0.302924 0.637301 0.010000
0.344775 0.636374 0.010000
0.387393 0.635432 0.010000
0.430726 0.634476 0.010000
0.474479 0.633514 0.010000
0.517753 0.632564 0.010000
0.560447 0.631629 0.010000
0.602528 0.630709 0.010000
0.643861 0.629731 0.010000
0.684106 0.628680 0.010000
0.723316 0.627731 0.010000
0.761452 0.626879 0.010000
0.798460 0.626122 0.010000
0.834276 0.625455 0.010000
0.877665 0.624876 0.010000
0.932419 0.624380 0.010000
0.965102 0.623962 0.010000
0.985276 0.623561 0.010000
0.957190 0.624642 0.037097
0.959051 0.624320 0.037248
0.959030 0.624086 0.037241
0.959030 0.624086 0.037241
0.959030 0.624086 0.037241
0.010000 0.680116 0.010000
0.010000 0.679658 0.010000
0.010000 0.679050 0.010000
0.038761 0.678377 0.010000
0.072233 0.677658 0.010000
0.107437 0.676903 0.010000
0.144085 0.676119 0.010000
0.181979 0.675310 0.010000
0.220973 0.674479 0.010000
0.260955 0.673628 0.010000
0.301834 0.672761 0.010000
0.343539 0.671878 0.010000
0.386008 0.670980 0.010000
0.429190 0.670070 0.010000
0.472789 0.669153 0.010000
0.515912 0.668248 0.010000
0.558457 0.667358 0.010000
0.600390 0.666482 0.010000
0.641675 0.665622 0.010000
0.682137 0.664681 0.010000
0.721470 0.663686 0.010000
0.759726 0.662789 0.010000
0.796852 0.661988 0.010000
0.832783 0.661279 0.010000
0.874764 0.660658 0.010000
0.930762 0.660121 0.010000
0.964138 0.659665 0.010000
0.984712 0.659250 0.010000
0.997309 0.658856 0.010000
1.000000 0.658504 0.010000
1.000000 0.658268 0.010000
1.000000 0.658268 0.010000
1.000000 0.658268 0.010000
0.010000 0.714558 0.010000
0.010000 0.714111 0.010000
0.010000 0.713533 0.010000
0.038851 0.712892 0.010000
0.072208 0.712208 0.010000
0.107290 0.711489 0.010000
0.143811 0.710743 0.010000
0.181574 0.709972 0.010000
0.220434 0.709182 0.010000
0.260277 0.708372 0.010000
0.301016 0.707547 0.010000
0.342576 0.706707 0.010000
0.384899 0.705853 0.010000
0.427931 0.704988 0.010000
0.471380 0.704116 0.010000
0.514354 0.703256 0.010000
0.556752 0.702409 0.010000
0.598541 0.701576 0.010000
0.639683 0.700759 0.010000
0.680136 0.699957 0.010000
0.719680 0.699051 0.010000
0.758055 0.698110 0.010000
0.795297 0.697266 0.010000
0.831340 0.696514 0.010000
0.871910 0.695852 0.010000
0.929138 0.695276 0.010000
0.963196 0.694782 0.010000
0.984155 0.694358 0.010000
0.996943 0.693966 0.010000
1.000000 0.693616 0.010000
1.000000 0.693382 0.010000
1.000000 0.693382 0.010000
1.000000 0.693382 0.010000
0.010000 0.748284 0.010000
0.010000 0.747859 0.010000
0.010000 0.747310 0.010000
0.039183 0.746701 0.010000
0.072426 0.746050 0.010000
0.107389 0.745367 0.010000
0.143786 0.744658 0.010000
0.181420 0.743926 0.010000
0.220147 0.743175 0.010000
0.259855 0.742406 0.010000
0.300455 0.741622 0.010000
0.341874 0.740824 0.010000
0.384053 0.740014 0.010000
0.426939 0.739192 0.010000
0.470240 0.738364 0.010000
0.513068 0.737547 0.010000
0.555321 0.736744 0.010000
0.596968 0.735954 0.010000
0.637971 0.735178 0.010000
0.678286 0.734417 0.010000
0.717865 0.733672 0.010000
0.756438 0.732799 0.010000
0.793794 0.731912 0.010000
0.829949 0.731120 0.010000
0.869109 0.730418 0.010000
0.927548 0.729803 0.010000
0.962277 0.729271 0.010000
0.983608 0.728842 0.010000
0.996584 0.728453 0.010000
1.000000 0.728105 0.010000
1.000000 0.727872 0.010000
1.000000 0.727872 0.010000
1.000000 0.727872 0.010000
0.010000 0.781260 0.010000
0.010000 0.780858 0.010000
0.010000 0.780336 0.010000
0.039742 0.779758 0.010000
0.072874 0.779140 0.010000
0.107720 0.778493 0.010000
0.143995 0.777820 0.010000
0.181503 0.777125 0.010000
0.220101 0.776413 0.010000
0.259676 0.775684 0.010000
0.300140 0.774941 0.010000
0.341421 0.774184 0.010000
0.383458 0.773416 0.010000
0.426201 0.772637 0.010000
0.469357 0.771852 0.010000
0.512042 0.771079 0.010000
0.554154 0.770317 0.010000
0.595662 0.769569 0.010000
0.636527 0.768834 0.010000
0.676708 0.768114 0.010000
0.716154 0.767408 0.010000
0.754807 0.766718 0.010000
0.792345 0.765877 0.010000
0.828609 0.765044 0.010000
0.866367 0.764302 0.010000
0.925998 0.763649 0.010000
0.961384 0.763081 0.010000
0.983072 0.762652 0.010000
0.996231 0.762265 0.010000
1.000000 0.761920 0.010000
1.000000 0.761688 0.010000
1.000000 0.761688 0.010000
1.000000 0.761688 0.010000
0.010000 0.813434 0.010000
0.010000 0.813052 0.010000
0.010000 0.812558 0.010000
0.040513 0.812010 0.010000
0.073536 0.811425 0.010000
0.108268 0.810812 0.010000
0.144424 0.810174 0.010000
0.181809 0.809517 0.010000
0.220280 0.808842 0.010000
0.259725 0.808152 0.010000
0.300056 0.807448 0.010000
0.341202 0.806732 0.010000
0.383101 0.806005 0.010000
0.425703 0.805268 0.010000
0.468718 0.804526 0.010000
0.511263 0.803794 0.010000
0.553238 0.803074 0.010000
0.594609 0.802367 0.010000
0.635341 0.801672 0.010000
0.675390 0.800991 0.010000
0.714707 0.800324 0.010000
0.753233 0.799672 0.010000
0.790898 0.799037 0.010000
0.827322 0.798225 0.010000
0.863692 0.797445 0.010000
0.924489 0.796755 0.010000
0.960518 0.796151 0.010000
0.982547 0.795727 0.010000
0.995886 0.795342 0.010000
1.000000 0.794999 0.010000
1.000000 0.794768 0.010000
1.000000 0.794768 0.010000
1.000000 0.794768 0.010000
0.010000 0.844738 0.010000
0.010000 0.844376 0.010000
0.010719 0.843909 0.010000
0.041479 0.843391 0.010000
0.074396 0.842838 0.010000
0.109016 0.842257 0.010000
0.145056 0.841655 0.010000
0.182321 0.841033 0.010000
0.220668 0.840395 0.010000
0.259987 0.839743 0.010000
0.300189 0.839078 0.010000
0.341202 0.838402 0.010000
0.382967 0.837715 0.010000
0.425433 0.837019 0.010000
0.468310 0.836318 0.010000
0.510718 0.835627 0.010000
0.552558 0.834947 0.010000
0.593797 0.834279 0.010000
0.634398 0.833624 0.010000
0.674319 0.832981 0.010000
0.713510 0.832352 0.010000
0.751913 0.831737 0.010000
0.789457 0.831138 0.010000
0.826056 0.830555 0.010000
0.861266 0.829773 0.010000
0.923028 0.829046 0.010000
0.959682 0.828408 0.010000
0.982036 0.827992 0.010000
0.995551 0.827610 0.010000
1.000000 0.827268 0.010000
1.000000 0.827039 0.010000
1.000000 0.827039 0.010000
1.000000 0.827039 0.010000
0.010000 0.890129 0.010000
0.010000 0.889479 0.010000
0.011956 0.888634 0.010000
0.042619 0.887691 0.010000
0.075433 0.886677 0.010000
0.109945 0.885606 0.010000
0.145872 0.884484 0.010000
0.183021 0.883318 0.010000
0.221248 0.882110 0.010000
0.260444 0.880865 0.010000
0.300520 0.879585 0.010000
0.341405 0.878270 0.010000
0.383039 0.876923 0.010000
0.425372 0.875546 0.010000
0.468115 0.874146 0.010000
0.510391 0.872752 0.010000
