creator-kit/luts/AK_Nordic_Steel.cube
# AK_Nordic_Steel
# Cold, high-contrast and desaturated. Steel blues in the shadows with a hard midtone roll - reads as weight and consequence.
# Best for: Overcast days, battle and combat sequences, winter, dramatic beats.
# Apply AFTER a D-Log M -> Rec.709 conversion, not instead of one.
TITLE "AK_Nordic_Steel"
LUT_3D_SIZE 9
DOMAIN_MIN 0.0 0.0 0.0
DOMAIN_MAX 1.0 1.0 1.0
0.012000 0.012000 0.042544
0.061064 0.012000 0.042913
0.166177 0.012000 0.043756
0.291126 0.012000 0.042476
0.429268 0.012000 0.040515
0.561230 0.012141 0.038681
0.663272 0.013773 0.038313
0.746058 0.015618 0.038493
0.833429 0.018171 0.039715
0.012000 0.086610 0.044078
0.067511 0.088006 0.044413
0.176891 0.075962 0.021025
0.302846 0.065546 0.012000
0.441726 0.064728 0.012000
0.573029 0.065199 0.012380
0.676069 0.067202 0.014492
0.759688 0.069465 0.016763
0.851589 0.072454 0.019943
0.012000 0.206508 0.047946
0.078109 0.208129 0.048256
0.182363 0.211171 0.045221
0.314648 0.203320 0.012000
0.457613 0.196459 0.012000
0.589790 0.192825 0.013029
0.695718 0.191675 0.016246
0.781505 0.191636 0.019439
0.877192 0.192965 0.023759
0.026716 0.348772 0.055246
0.092569 0.350620 0.055653
0.195886 0.353147 0.057119
0.320300 0.357962 0.048924
0.467810 0.353603 0.012000
0.605236 0.347593 0.014014
0.716756 0.343594 0.018653
0.821306 0.341318 0.023826
0.903233 0.340334 0.028553
0.045738 0.504944 0.066744
0.110839 0.507000 0.067385
0.213052 0.509819 0.069330
0.335809 0.513214 0.071719
0.474813 0.519978 0.057594
0.618672 0.519257 0.022622
0.746427 0.511724 0.012000
0.856087 0.508293 0.028929
0.926933 0.505633 0.033908
0.065837 0.651573 0.080949
0.130308 0.653794 0.081901
0.231483 0.656891 0.084300
0.352995 0.660620 0.087237
0.488374 0.665984 0.083937
0.626017 0.673172 0.069875
0.755729 0.674918 0.041313
0.902775 0.665919 0.012000
0.980165 0.661623 0.012000
0.085506 0.781516 0.096367
0.149458 0.783868 0.097645
0.249711 0.787214 0.100451
0.370116 0.791242 0.103876
0.505483 0.795783 0.107800
0.637443 0.802434 0.099335
0.762773 0.809739 0.084593
0.914606 0.812751 0.061920
0.985013 0.808435 0.040427
0.103276 0.931828 0.111311
0.166808 0.934444 0.112880
0.266287 0.938105 0.116027
0.385766 0.942322 0.119863
0.520093 0.946837 0.124250
0.650647 0.952220 0.120937
0.771676 0.957433 0.113584
0.922181 0.962725 0.099307
0.988664 0.965165 0.082785
0.115512 0.984392 0.122070
0.178768 0.985609 0.123829
0.277744 0.987327 0.127200
0.396617 0.989302 0.131306
0.530264 0.991412 0.135998
0.661781 0.993380 0.140696
0.779714 0.996005 0.130666
0.927955 0.998202 0.120861
0.990295 1.000000 0.107890
0.012000 0.012000 0.128103
0.061646 0.012000 0.128719
0.165986 0.012342 0.129239
0.289788 0.012038 0.127824
0.427285 0.012000 0.125623
0.559254 0.012121 0.123277
0.661511 0.013808 0.121549
0.744535 0.015701 0.120514
0.831340 0.018277 0.120499
0.012000 0.087163 0.130021
0.068295 0.088590 0.130794
0.173228 0.090709 0.131473
0.299578 0.084652 0.125516
0.439179 0.075828 0.115258
0.571451 0.067699 0.105237
0.675162 0.062387 0.097797
0.759037 0.058836 0.092426
0.850864 0.057709 0.089784
0.012290 0.207175 0.133390
0.078659 0.208862 0.133842
0.183106 0.211128 0.134512
0.317320 0.200359 0.104671
0.458515 0.181077 0.086730
0.590118 0.169113 0.076411
0.695616 0.161759 0.070701
0.780957 0.157031 0.067175
0.875883 0.155177 0.066544
0.027586 0.349511 0.139844
0.092813 0.351571 0.139991
0.195937 0.354232 0.140710
0.320979 0.358469 0.137097
0.470847 0.352429 0.098276
0.608225 0.327784 0.066576
0.718392 0.309438 0.052942
0.823528 0.298034 0.047742
0.901301 0.291495 0.046233
0.046667 0.505764 0.150406
0.110631 0.508240 0.150227
0.212409 0.511295 0.151131
0.335868 0.514502 0.153329
0.475554 0.520748 0.144005
0.621291 0.519945 0.108852
0.750319 0.502077 0.072458
0.860422 0.484920 0.063942
0.926524 0.472031 0.054452
0.066822 0.652469 0.163727
0.129592 0.655341 0.163248
0.230181 0.658737 0.164423
0.352395 0.662278 0.167170
0.489794 0.666270 0.170332
0.626859 0.674163 0.154487
0.758041 0.676085 0.125587
0.907748 0.665730 0.094516
0.982429 0.653346 0.072143
0.086542 0.782480 0.178358
0.148246 0.785705 0.177621
0.247818 0.789390 0.179088
0.368925 0.793230 0.182327
0.505081 0.797559 0.186043
0.638017 0.803629 0.180867
0.763726 0.810911 0.167546
0.917263 0.814142 0.144568
0.986494 0.809360 0.122201
0.104355 0.932926 0.192642
0.165163 0.936611 0.191695
0.263897 0.940547 0.193426
0.384076 0.944473 0.197079
0.519191 0.948685 0.201262
0.652153 0.952632 0.205458
0.772312 0.958444 0.194263
0.923449 0.963685 0.180867
0.989504 0.966222 0.164140
0.116619 0.984907 0.202969
0.176841 0.986664 0.201889
0.275027 0.988509 0.203795
0.394601 0.990347 0.207720
0.529035 0.992315 0.212210
0.661328 0.994155 0.216711
0.780168 0.996526 0.209863
0.928834 0.998649 0.201100
0.990235 1.000000 0.188291
0.012000 0.012000 0.251289
0.062569 0.012000 0.252216
0.166396 0.013662 0.253248
0.290497 0.016797 0.254002
0.426721 0.021399 0.253982
0.558288 0.020045 0.251282
0.660583 0.020530 0.247294
0.743709 0.020690 0.243536
0.829881 0.021705 0.240723
0.012000 0.088021 0.253879
0.069706 0.089545 0.255478
0.173976 0.091806 0.256697
0.298768 0.094730 0.257486
0.436830 0.095822 0.256693
0.568829 0.093805 0.253158
0.673459 0.091832 0.248123
0.758354 0.090153 0.243567
0.850746 0.090040 0.240517
0.014170 0.207988 0.258102
0.080255 0.209686 0.259283
0.184207 0.212012 0.260814
0.310078 0.214591 0.261875
0.452446 0.208835 0.256424
0.586373 0.201174 0.247433
0.694355 0.195413 0.239758
0.781695 0.191320 0.233941
0.878559 0.189706 0.230809
0.028859 0.350592 0.263699
0.094034 0.352603 0.264506
0.196553 0.355420 0.265465
0.321661 0.358239 0.266501
0.475756 0.351018 0.237126
0.610528 0.330835 0.219051
0.720428 0.319489 0.210914
0.827306 0.312895 0.206841
0.904871 0.309173 0.204865
0.048026 0.506963 0.272892
0.111937 0.509389 0.273373
0.212491 0.512855 0.273828
0.335793 0.516224 0.274891
0.476387 0.521439 0.272017
0.625788 0.520602 0.238199
0.756025 0.499766 0.205625
0.867960 0.483589 0.198894
0.930093 0.472556 0.192132
0.068263 0.653781 0.284918
0.130980 0.656602 0.285101
0.229674 0.660682 0.285097
0.351354 0.664542 0.286283
0.489908 0.668224 0.289136
0.627853 0.675286 0.280257
0.761673 0.677703 0.251466
0.915127 0.665220 0.220083
0.985603 0.651280 0.199079
0.088057 0.783893 0.298396
0.149708 0.787068 0.298321
0.246742 0.791698 0.297920
0.367018 0.795977 0.299271
0.504328 0.799996 0.302684
0.638742 0.805153 0.301565
0.764895 0.812351 0.291034
0.921096 0.816108 0.267943
0.988677 0.810459 0.244509
0.105932 0.934511 0.311713
0.166688 0.938084 0.311429
0.262327 0.943079 0.310706
0.381439 0.947376 0.312218
0.517708 0.951175 0.316103
0.651806 0.954748 0.320007
0.773110 0.959700 0.314027
0.925026 0.964893 0.302397
0.990675 0.967673 0.285571
0.118237 0.985650 0.321409
0.178406 0.987354 0.320992
0.273133 0.989736 0.320065
0.391485 0.991760 0.321687
0.527072 0.993535 0.325882
0.660500 0.995200 0.330095
0.780711 0.997203 0.327341
0.929910 0.999205 0.320482
0.990148 1.000000 0.307829
0.012000 0.012000 0.392202
0.063884 0.012921 0.393487
0.166696 0.015604 0.394837
0.290213 0.018820 0.396492
0.428319 0.022741 0.397674
0.559977 0.028072 0.396875
0.661103 0.035439 0.394433
0.744351 0.042586 0.393540
0.831397 0.039950 0.388346
0.012000 0.089269 0.395578
0.071590 0.090906 0.398142
0.174830 0.093419 0.399903
0.298936 0.096470 0.401458
0.437748 0.100186 0.402602
0.570623 0.105101 0.402367
0.673056 0.112024 0.400890
0.758877 0.110356 0.396684
0.851674 0.113041 0.394502
0.017709 0.208834 0.400998
0.083086 0.210645 0.403143
0.185935 0.213148 0.406174
0.310860 0.215930 0.408028
0.450833 0.219303 0.409213
0.585575 0.223584 0.409847
0.692042 0.222290 0.406112
0.780363 0.222047 0.403031
0.878627 0.222626 0.400566
0.031634 0.351535 0.407919
0.096480 0.353558 0.409577
0.198500 0.356391 0.411855
0.322924 0.359292 0.414110
0.464295 0.362226 0.415663
0.604894 0.358205 0.412239
0.715731 0.353172 0.405652
0.821415 0.349059 0.400030
0.906577 0.346622 0.396285
0.049611 0.508366 0.416116
0.113462 0.510733 0.417370
0.213920 0.514107 0.419028
0.336446 0.517663 0.420551
0.476765 0.520938 0.422038
0.629065 0.521404 0.404454
0.759651 0.500463 0.379367
0.871717 0.490577 0.375686
0.933091 0.484154 0.371554
0.069944 0.655315 0.426629
0.132601 0.658078 0.427586
0.231199 0.662067 0.428785
0.351488 0.666363 0.429763
0.489796 0.670264 0.431201
0.628450 0.675655 0.429958
0.766977 0.679568 0.403129
0.923846 0.663702 0.374456
0.988793 0.648870 0.357955
0.089825 0.785546 0.438758
0.151415 0.788662 0.439458
0.248352 0.793200 0.440261
0.366643 0.798158 0.440771
0.503202 0.802600 0.442224
0.639652 0.806209 0.445316
0.765853 0.813494 0.438249
0.925814 0.818425 0.415996
0.991375 0.811271 0.392070
0.107774 0.936332 0.450945
0.168467 0.939777 0.451435
0.264010 0.944593 0.451918
0.380621 0.949597 0.452048
0.515726 0.953784 0.453542
0.651151 0.956950 0.457106
0.773844 0.960844 0.456131
0.926413 0.965967 0.447568
0.992007 0.969283 0.431151
0.120126 0.986504 0.459904
0.180234 0.988147 0.460261
0.274863 0.990444 0.460540
0.390375 0.992835 0.460430
0.524529 0.994817 0.461958
0.659282 0.996293 0.465835
0.781715 0.997580 0.469434
0.930856 0.999698 0.462689
0.990051 1.000000 0.450418
0.012000 0.013109 0.537686
0.065552 0.014979 0.539341
0.167291 0.017946 0.541028
0.289517 0.021505 0.543086
0.426978 0.025499 0.545443
0.561783 0.029625 0.547319
0.679356 0.035171 0.545764
0.780218 0.040463 0.544925
0.833796 0.051801 0.535571
0.012000 0.090878 0.541891
0.073861 0.092634 0.545477
0.176010 0.095414 0.547803
0.298827 0.098808 0.549761
0.436950 0.102618 0.552008
0.572348 0.106586 0.553735
0.691028 0.111755 0.552694
0.792858 0.116718 0.552302
0.853537 0.127611 0.544516
0.021733 0.210017 0.548575
0.086360 0.211949 0.551741
0.188043 0.214639 0.556359
0.311654 0.217738 0.558943
0.450789 0.221271 0.561037
0.587177 0.224966 0.562637
0.707556 0.229560 0.562386
0.810869 0.234022 0.562683
0.879546 0.243955 0.557744
0.036860 0.352214 0.556993
0.100956 0.354357 0.559670
0.201810 0.357378 0.563533
0.324833 0.360505 0.567691
0.465039 0.363687 0.570247
0.602719 0.367014 0.571834
0.725127 0.370925 0.572531
0.843049 0.369976 0.571584
0.906633 0.374600 0.567902
0.053204 0.509361 0.566928
0.116710 0.511741 0.569081
0.216643 0.515131 0.572135
0.338554 0.518703 0.575329
0.478072 0.522068 0.578308
0.617151 0.524965 0.580261
0.744593 0.524629 0.580103
0.885841 0.519266 0.575030
0.933081 0.518345 0.571678
0.071721 0.656940 0.576633
0.134312 0.659640 0.578409
0.232810 0.663533 0.580882
0.352976 0.667713 0.583391
0.490509 0.671768 0.585614
0.628468 0.675035 0.587436
0.766260 0.680089 0.581568
0.922865 0.667484 0.564678
0.988773 0.654977 0.551104
0.091694 0.787295 0.587334
0.153218 0.790349 0.588853
0.250054 0.794792 0.590932
0.368222 0.799634 0.592973
0.503503 0.804434 0.594680
0.639576 0.808300 0.596358
0.765718 0.812851 0.597237
0.928393 0.819803 0.583415
0.993889 0.811760 0.559919
0.109720 0.938221 0.598324
0.170348 0.941535 0.599635
0.265787 0.946166 0.601393
0.382275 0.950976 0.603057
0.515663 0.955525 0.604347
0.650167 0.958987 0.605935
0.774486 0.961417 0.608925
0.926746 0.966135 0.605411
0.993134 0.970621 0.591727
0.122123 0.987388 0.606502
0.182164 0.988969 0.607680
0.276690 0.991180 0.609236
0.392078 0.993479 0.610660
0.524225 0.995661 0.611688
0.657701 0.997312 0.613228
0.781409 0.998443 0.616510
0.931479 0.999994 0.615763
0.990156 1.000000 0.605620
0.012000 0.015077 0.666418
0.067311 0.017102 0.668402
0.168076 0.020328 0.670395
0.289133 0.024197 0.672818
0.425278 0.028541 0.675585
0.559297 0.032811 0.678354
0.681089 0.036690 0.680902
0.782035 0.042076 0.678881
0.893991 0.046612 0.677629
0.012000 0.092593 0.671373
0.076168 0.094458 0.675886
0.177329 0.097481 0.678718
0.298976 0.101186 0.681041
0.435784 0.105346 0.683698
0.570453 0.109437 0.686361
0.692688 0.113212 0.688672
0.794603 0.118270 0.687099
0.912624 0.122548 0.686199
0.025631 0.211347 0.679202
0.089578 0.213388 0.683294
0.190202 0.216248 0.689351
0.312622 0.219636 0.692590
0.450443 0.223519 0.695092
0.586107 0.227338 0.697608
0.709104 0.230924 0.699655
0.812502 0.235481 0.698772
0.934861 0.239364 0.698415
0.041850 0.353085 0.688975
0.105266 0.355338 0.692576
0.205062 0.358530 0.697876
0.326813 0.361862 0.703760
0.465675 0.365364 0.707115
0.602522 0.368864 0.709476
0.726541 0.372179 0.711350
0.843107 0.376140 0.711295
0.954091 0.379555 0.711588
0.059406 0.509729 0.700391
0.122232 0.512219 0.703467
0.221108 0.515780 0.707955
0.341747 0.519558 0.712872
0.479836 0.523155 0.717787
0.617800 0.526287 0.720719
0.743065 0.529257 0.722553
0.877777 0.532563 0.723418
0.969807 0.532484 0.723482
0.075678 0.657805 0.711854
0.137942 0.660521 0.714448
0.235941 0.664435 0.718193
0.355521 0.668638 0.722226
0.492410 0.672714 0.726159
0.629645 0.676056 0.729411
0.756011 0.678690 0.731557
0.903667 0.680041 0.732918
0.981291 0.678297 0.731466
0.093386 0.788883 0.722143
0.154851 0.791881 0.724405
0.251595 0.796236 0.727640
0.369651 0.800973 0.731072
0.504806 0.805655 0.734343
0.640314 0.809598 0.736958
0.765659 0.812573 0.738951
0.926629 0.819285 0.739451
0.991742 0.814155 0.731555
0.111482 0.939901 0.732047
0.172051 0.943100 0.734101
0.267398 0.947569 0.737017
0.383773 0.952207 0.740072
0.517034 0.956589 0.742928
0.650672 0.960150 0.745145
0.774491 0.962735 0.746969
0.926001 0.965379 0.748814
0.992760 0.970251 0.744668
0.123931 0.988175 0.739515
0.183913 0.989701 0.741438
0.278345 0.991834 0.744152
0.393620 0.994053 0.746969
0.525639 0.996156 0.749564
0.658051 0.997875 0.751533
0.780869 0.999123 0.753260
0.931674 0.999969 0.755940
0.990908 1.000000 0.752469
0.012000 0.016979 0.775467
0.069026 0.019139 0.777732
0.168946 0.022589 0.779988
0.288990 0.026727 0.782728
0.423995 0.031375 0.785851
0.556891 0.035943 0.788968
0.677672 0.040090 0.791841
0.783032 0.043705 0.794378
0.896424 0.048075 0.792909
0.014557 0.094276 0.781072
0.078357 0.096235 0.786387
0.178661 0.099469 0.789653
0.299295 0.103444 0.792292
0.434964 0.107908 0.795303
0.568511 0.112297 0.798314
0.689882 0.116283 0.801093
0.795756 0.119758 0.803551
0.914639 0.123958 0.802209
0.029199 0.212697 0.789891
0.092556 0.214832 0.794784
0.192264 0.217840 0.802087
0.313652 0.221478 0.805890
0.450334 0.225665 0.808744
0.584877 0.229784 0.811606
0.707150 0.233525 0.814254
0.813809 0.236788 0.816601
0.936388 0.240694 0.815547
0.046365 0.354038 0.800835
0.109191 0.356386 0.805236
0.208070 0.359726 0.811781
0.328720 0.363236 0.819159
0.466418 0.367016 0.824559
0.602144 0.370816 0.830648
0.725489 0.374269 0.836135
0.845783 0.377309 0.840733
0.955207 0.380790 0.839656
0.064973 0.510245 0.813532
0.127210 0.512831 0.817407
0.225169 0.516541 0.824407
0.344707 0.520497 0.838554
0.481556 0.524295 0.852078
0.618368 0.527695 0.859225
0.742890 0.530832 0.863680
0.879732 0.533628 0.867300
0.969767 0.536592 0.867687
0.082244 0.657910 0.831277
0.143919 0.660722 0.838633
0.241001 0.664785 0.848948
0.359480 0.669167 0.859720
0.495130 0.673445 0.869993
0.631145 0.676985 0.878455
0.756577 0.679816 0.883354
0.902256 0.682345 0.886462
0.979398 0.684823 0.887894
0.097403 0.789591 0.855876
0.158574 0.792605 0.861534
0.254868 0.796984 0.869458
0.372393 0.801747 0.877710
0.506964 0.806456 0.885533
0.641908 0.810421 0.891911
0.766675 0.813449 0.896699
0.916689 0.815746 0.899878
0.986169 0.817579 0.902438
0.113008 0.941333 0.873920
0.173524 0.944434 0.878522
0.268791 0.948765 0.884959
0.385069 0.953258 0.891644
0.518219 0.957499 0.897946
0.651748 0.960938 0.903035
0.775217 0.963505 0.906802
0.925923 0.965341 0.909543
0.992208 0.969650 0.914026
0.125496 0.988844 0.885339
0.185426 0.990324 0.889395
0.279777 0.992393 0.895064
0.394954 0.994543 0.900938
0.526862 0.996580 0.906457
0.659164 0.998242 0.910889
0.781513 0.999494 0.914143
0.931894 1.000000 0.916564
0.991441 1.000000 0.917973
0.012000 0.018603 0.892822
0.070497 0.020869 0.896539
0.169755 0.024496 0.900126
0.289001 0.028846 0.904347
0.423110 0.033732 0.908981
0.555124 0.038535 0.913429
0.675103 0.042896 0.917375
0.779764 0.046698 0.920743
0.896621 0.049688 0.923346
0.016866 0.095728 0.901794
0.080202 0.097761 0.909947
0.179833 0.101162 0.914630
0.299670 0.105348 0.918245
0.434443 0.110051 0.922224
0.567108 0.114676 0.926054
0.687678 0.118876 0.929460
0.792853 0.122538 0.932374
0.915094 0.125419 0.934630
0.032129 0.213886 0.914688
0.095023 0.216096 0.921502
0.194009 0.219220 0.930960
0.314587 0.223056 0.935474
0.450373 0.227482 0.938669
0.584034 0.231837 0.941757
0.705506 0.235792 0.944513
0.811466 0.239242 0.946878
0.937019 0.241957 0.948715
0.050040 0.354916 0.928819
0.112403 0.357339 0.934266
0.210561 0.360795 0.941857
0.330345 0.364445 0.949742
0.467128 0.368444 0.953665
0.601972 0.372480 0.956104
0.724516 0.376147 0.958291
0.842479 0.379347 0.960176
0.955860 0.381866 0.961643
0.069476 0.510780 0.942960
0.131250 0.513440 0.947151
0.228488 0.517267 0.953013
0.347159 0.521364 0.959128
0.483035 0.525320 0.964976
0.618941 0.528931 0.967934
0.742662 0.532284 0.969675
0.878424 0.535210 0.971182
0.970339 0.537514 0.972359
0.087533 0.658122 0.954996
0.148745 0.661009 0.958215
0.245106 0.665189 0.962728
0.362719 0.669712 0.967449
0.497395 0.674148 0.971972
0.632450 0.677844 0.975731
0.757055 0.680864 0.977772
0.902115 0.683534 0.979025
0.979864 0.685637 0.980007
0.103397 0.789515 0.964703
0.164105 0.792605 0.967208
0.259677 0.797101 0.970725
0.376337 0.802005 0.974408
0.509933 0.806872 0.977935
0.643917 0.810994 0.980859
0.767812 0.814165 0.983108
0.917260 0.816606 0.984484
0.985950 0.818535 0.985334
0.116540 0.941848 0.972135
0.176821 0.944944 0.974141
0.271727 0.949267 0.976957
0.387579 0.953750 0.979904
0.520261 0.957981 0.982721
0.653335 0.961413 0.985046
0.776394 0.963974 0.986823
0.926822 0.965817 0.988140
0.989751 0.967059 0.988992
0.126726 0.989363 0.976429
0.186614 0.990807 0.978177
0.280902 0.992826 0.980631
0.396001 0.994923 0.983199
0.527822 0.996909 0.985650
0.660037 0.998528 0.987668
0.782306 0.999746 0.989205
0.932575 1.000000 0.990338
0.991740 1.000000 0.991108
0.012000 0.019162 0.928600
0.071006 0.021464 0.931409
0.170044 0.025148 0.934115
0.289028 0.029568 0.937296
0.422842 0.034532 0.940784
0.554566 0.039413 0.944126
0.674281 0.043845 0.947088
0.778712 0.047708 0.949613
0.894788 0.050746 0.951562
0.017649 0.096231 0.935370
0.080833 0.098289 0.941552
0.180243 0.101743 0.945082
0.299818 0.106000 0.947798
0.434295 0.110782 0.950784
0.566670 0.115484 0.953653
0.686976 0.119754 0.956201
0.791921 0.123478 0.958379
0.913674 0.126407 0.960062
0.033117 0.214303 0.945066
0.095859 0.216537 0.950232
0.194608 0.219699 0.957391
0.314918 0.223600 0.960782
0.450410 0.228105 0.963168
0.583781 0.232537 0.965470
0.704989 0.236563 0.967522
0.810719 0.240075 0.969281
0.936066 0.242838 0.970644
0.051274 0.355230 0.955650
0.113484 0.357678 0.959779
0.211405 0.361172 0.965526
0.330904 0.364868 0.971486
0.467385 0.368939 0.974423
0.601940 0.373053 0.976231
0.724220 0.376791 0.977850
0.841379 0.380052 0.979243
0.955286 0.382619 0.980326
0.070983 0.510981 0.966188
0.132604 0.513666 0.969368
0.229604 0.517531 0.973812
0.347991 0.521675 0.978442
0.483545 0.525682 0.982866
0.619153 0.529363 0.985076
0.742611 0.532786 0.986356
0.877951 0.535774 0.987462
0.970040 0.538127 0.988325
0.089299 0.658217 0.975114
0.150358 0.661128 0.977560
0.246482 0.665347 0.980989
0.363810 0.669916 0.984573
0.498165 0.674404 0.988008
0.632904 0.678152 0.990865
0.757237 0.681234 0.992392
0.902047 0.683966 0.993305
0.979740 0.686117 0.994020
0.105395 0.789515 0.982279
0.165950 0.792629 0.984188
0.261285 0.797164 0.986868
0.377660 0.802115 0.989675
0.510935 0.807034 0.992367
0.644603 0.811208 0.994605
0.768210 0.814425 0.996333
0.917459 0.816919 0.997365
0.985946 0.818892 0.997985
0.118733 0.941771 0.987744
0.178861 0.944893 0.989277
0.273530 0.949253 0.991431
0.389097 0.953776 0.993687
0.521457 0.958046 0.995849
0.654215 0.961513 0.997643
0.776987 0.964104 0.999022
0.927210 0.965972 1.000000
0.989818 0.967238 1.000000
0.127370 0.989504 0.991059
0.187218 0.990941 0.992379
0.281446 0.992949 0.994234
0.396482 0.995034 0.996176
0.528238 0.997008 0.998036
0.660394 0.998616 0.999575
0.782611 0.999824 1.000000
0.932854 1.000000 1.000000
0.991830 1.000000 1.000000
