creator-kit/luts/AK_Nordic_Steel.cube
# AK_Nordic_Steel
# Cold, high-contrast and desaturated. Steel blues in the shadows with a hard midtone roll - reads as weight and consequence.
# Best for: Overcast days, battle and combat sequences, winter, dramatic beats.
# Apply AFTER a D-Log M -> Rec.709 conversion, not instead of one.
TITLE "AK_Nordic_Steel"
LUT_3D_SIZE 5
DOMAIN_MIN 0.0 0.0 0.0
DOMAIN_MAX 1.0 1.0 1.0
0.012000 0.012000 0.042544
0.166177 0.012000 0.043756
0.429268 0.012000 0.040515
0.663272 0.013773 0.038313
0.833429 0.018171 0.039715
0.012000 0.206508 0.047946
0.182363 0.211171 0.045221
0.457613 0.196459 0.012000
0.695718 0.191675 0.016246
0.877192 0.192965 0.023759
0.045738 0.504944 0.066744
0.213052 0.509819 0.069330
0.474813 0.519978 0.057594
0.746427 0.511724 0.012000
0.926933 0.505633 0.033908
0.085506 0.781516 0.096367
0.249711 0.787214 0.100451
0.505483 0.795783 0.107800
0.762773 0.809739 0.084593
0.985013 0.808435 0.040427
0.115512 0.984392 0.122070
0.277744 0.987327 0.127200
0.530264 0.991412 0.135998
0.779714 0.996005 0.130666
0.990295 1.000000 0.107890
0.012000 0.012000 0.251289
0.166396 0.013662 0.253248
0.426721 0.021399 0.253982
0.660583 0.020530 0.247294
0.829881 0.021705 0.240723
0.014170 0.207988 0.258102
0.184207 0.212012 0.260814
0.452446 0.208835 0.256424
0.694355 0.195413 0.239758
0.878559 0.189706 0.230809
0.048026 0.506963 0.272892
0.212491 0.512855 0.273828
0.476387 0.521439 0.272017
0.756025 0.499766 0.205625
0.930093 0.472556 0.192132
0.088057 0.783893 0.298396
0.246742 0.791698 0.297920
0.504328 0.799996 0.302684
0.764895 0.812351 0.291034
0.988677 0.810459 0.244509
0.118237 0.985650 0.321409
0.273133 0.989736 0.320065
0.527072 0.993535 0.325882
0.780711 0.997203 0.327341
0.990148 1.000000 0.307829
0.012000 0.013109 0.537686
0.167291 0.017946 0.541028
0.426978 0.025499 0.545443
0.679356 0.035171 0.545764
0.833796 0.051801 0.535571
0.021733 0.210017 0.548575
0.188043 0.214639 0.556359
0.450789 0.221271 0.561037
0.707556 0.229560 0.562386
0.879546 0.243955 0.557744
0.053204 0.509361 0.566928
0.216643 0.515131 0.572135
0.478072 0.522068 0.578308
0.744593 0.524629 0.580103
0.933081 0.518345 0.571678
0.091694 0.787295 0.587334
0.250054 0.794792 0.590932
0.503503 0.804434 0.594680
0.765718 0.812851 0.597237
0.993889 0.811760 0.559919
0.122123 0.987388 0.606502
0.276690 0.991180 0.609236
0.524225 0.995661 0.611688
0.781409 0.998443 0.616510
0.990156 1.000000 0.605620
0.012000 0.016979 0.775467
0.168946 0.022589 0.779988
0.423995 0.031375 0.785851
0.677672 0.040090 0.791841
0.896424 0.048075 0.792909
0.029199 0.212697 0.789891
0.192264 0.217840 0.802087
0.450334 0.225665 0.808744
0.707150 0.233525 0.814254
0.936388 0.240694 0.815547
0.064973 0.510245 0.813532
0.225169 0.516541 0.824407
0.481556 0.524295 0.852078
0.742890 0.530832 0.863680
0.969767 0.536592 0.867687
0.097403 0.789591 0.855876
0.254868 0.796984 0.869458
0.506964 0.806456 0.885533
0.766675 0.813449 0.896699
0.986169 0.817579 0.902438
0.125496 0.988844 0.885339
0.279777 0.992393 0.895064
0.526862 0.996580 0.906457
0.781513 0.999494 0.914143
0.991441 1.000000 0.917973
0.012000 0.019162 0.928600
0.170044 0.025148 0.934115
0.422842 0.034532 0.940784
0.674281 0.043845 0.947088
0.894788 0.050746 0.951562
0.033117 0.214303 0.945066
0.194608 0.219699 0.957391
0.450410 0.228105 0.963168
0.704989 0.236563 0.967522
0.936066 0.242838 0.970644
0.070983 0.510981 0.966188
0.229604 0.517531 0.973812
0.483545 0.525682 0.982866
0.742611 0.532786 0.986356
0.970040 0.538127 0.988325
0.105395 0.789515 0.982279
0.261285 0.797164 0.986868
0.510935 0.807034 0.992367
0.768210 0.814425 0.996333
0.985946 0.818892 0.997985
0.127370 0.989504 0.991059
0.281446 0.992949 0.994234
0.528238 0.997008 0.998036
0.782611 0.999824 1.000000
0.991830 1.000000 1.000000
