creator-kit/luts/AK_Neutral_Punch.cube
# AK_Neutral_Punch
# Clean and accurate with just enough contrast and colour to survive Instagram's encoder. Nothing stylistic - this is the safe default.
# Best for: Daily driver. Use when the location already looks good, or when you are not sure which look fits.
# Apply AFTER a D-Log M -> Rec.709 conversion, not instead of one.
TITLE "AK_Neutral_Punch"
LUT_3D_SIZE 9
DOMAIN_MIN 0.0 0.0 0.0
DOMAIN_MAX 1.0 1.0 1.0
0.006000 0.006000 0.006000
0.113106 0.006000 0.006000
0.253407 0.006000 0.006000
0.407886 0.006000 0.006000
0.567053 0.006216 0.006216
0.695911 0.008439 0.008439
0.804639 0.011260 0.011260
0.901224 0.014677 0.014677
0.906079 0.014876 0.014876
0.006000 0.104666 0.006000
0.101096 0.101096 0.006000
0.242213 0.096590 0.006000
0.397608 0.092305 0.006000
0.559029 0.088717 0.006166
0.691585 0.087903 0.009165
0.803490 0.088704 0.012670
0.905430 0.091011 0.016855
0.912552 0.089399 0.017141
0.006000 0.235083 0.006000
0.086133 0.231756 0.006000
0.227332 0.227332 0.006000
0.383943 0.222562 0.006000
0.547671 0.218369 0.006000
0.686058 0.216457 0.010229
0.802961 0.216278 0.014910
0.912439 0.217766 0.020412
0.923570 0.216234 0.020997
0.006000 0.380293 0.006000
0.071935 0.377238 0.006000
0.211795 0.373176 0.006000
0.368621 0.368621 0.006000
0.533804 0.363848 0.006000
0.679147 0.360702 0.011201
0.801737 0.359413 0.017223
0.919066 0.359918 0.024236
0.935923 0.358455 0.025321
0.006000 0.533974 0.006000
0.059799 0.531209 0.006000
0.198230 0.527533 0.006000
0.353454 0.523411 0.006000
0.519014 0.519014 0.006000
0.676481 0.514691 0.006000
0.799697 0.512178 0.019459
0.924327 0.511571 0.028068
0.949100 0.510147 0.029933
0.006000 0.680924 0.006000
0.051040 0.678438 0.006000
0.188094 0.675134 0.006000
0.341774 0.671429 0.006000
0.505687 0.667477 0.006000
0.663668 0.663668 0.006000
0.808314 0.659890 0.006000
0.958048 0.657143 0.006000
1.000000 0.655239 0.006000
0.006000 0.816283 0.006000
0.045490 0.814057 0.006000
0.181266 0.811098 0.006000
0.333513 0.807780 0.006000
0.495897 0.804240 0.006000
0.652405 0.800829 0.006000
0.797663 0.797663 0.006000
0.945864 0.794478 0.006000
1.000000 0.792574 0.006000
0.006000 0.959376 0.006000
0.042592 0.957074 0.006000
0.177236 0.953867 0.006000
0.328213 0.950060 0.006000
0.489244 0.945742 0.006000
0.644446 0.941310 0.006000
0.788493 0.936945 0.006000
0.932837 0.932837 0.006000
1.000000 0.929606 0.006000
0.006000 1.000000 0.006000
0.036186 1.000000 0.006000
0.170829 1.000000 0.006000
0.321807 1.000000 0.006000
0.482837 1.000000 0.006000
0.638040 1.000000 0.006000
0.782087 1.000000 0.006000
0.921456 1.000000 0.006000
1.000000 1.000000 0.006000
0.006000 0.006000 0.115463
0.111894 0.006000 0.111894
0.252277 0.006000 0.106654
0.406848 0.006000 0.101546
0.566260 0.006217 0.097052
0.695512 0.008525 0.094604
0.804575 0.011420 0.093943
0.901719 0.014917 0.094839
0.906785 0.015123 0.093163
0.006000 0.103454 0.103454
0.099884 0.099884 0.099884
0.241982 0.095218 0.095218
0.398476 0.090753 0.090753
0.560875 0.086998 0.086998
0.694412 0.086119 0.086119
0.807079 0.086867 0.086867
0.907681 0.089087 0.089087
0.913135 0.088891 0.088891
0.006000 0.233953 0.088330
0.084187 0.230951 0.084187
0.226284 0.226284 0.079520
0.383996 0.221335 0.076272
0.548897 0.216950 0.073701
0.688237 0.214955 0.075497
0.805964 0.214705 0.078696
0.914725 0.216121 0.083341
0.924076 0.215711 0.084139
0.006000 0.379255 0.073953
0.069166 0.376889 0.069166
0.209924 0.372585 0.064861
0.367758 0.367758 0.060035
0.534115 0.362794 0.058919
0.680546 0.359528 0.063319
0.804029 0.358146 0.069295
0.921311 0.358583 0.076726
0.936344 0.357915 0.078810
0.006000 0.533035 0.061625
0.056152 0.531348 0.056152
0.195482 0.527429 0.052234
0.351714 0.523035 0.047839
0.518348 0.518348 0.043153
0.676946 0.513841 0.044447
0.801170 0.511250 0.058989
0.926372 0.510566 0.069403
0.949429 0.509588 0.073127
0.006000 0.680079 0.052681
0.046547 0.679047 0.046547
0.184500 0.675500 0.043000
0.339188 0.671523 0.039023
0.504175 0.667280 0.034781
0.663192 0.663192 0.030692
0.808888 0.659243 0.033998
0.959748 0.656343 0.037569
1.000000 0.654550 0.040642
0.006000 0.815527 0.046960
0.040213 0.815102 0.040213
0.176887 0.811900 0.037011
0.330142 0.808310 0.033420
0.493601 0.804480 0.029591
0.651144 0.800789 0.025900
0.797364 0.797364 0.022475
0.946735 0.794024 0.027153
1.000000 0.791898 0.031059
0.006000 0.958605 0.043910
0.036659 0.958716 0.036659
0.172193 0.955307 0.033764
0.324170 0.951242 0.030519
0.486266 0.946603 0.027058
0.642496 0.941815 0.023722
0.787496 0.937075 0.020625
0.932591 0.932591 0.017864
1.000000 0.928449 0.022513
0.006000 1.000000 0.037504
0.035287 1.000000 0.035287
0.169964 1.000000 0.032624
0.320980 1.000000 0.029639
0.482051 1.000000 0.026454
0.637292 1.000000 0.023385
0.781375 1.000000 0.020536
0.920160 1.000000 0.017996
1.000000 1.000000 0.016085
0.006000 0.006000 0.258525
0.109575 0.006000 0.255198
0.250774 0.006000 0.250774
0.405469 0.006000 0.244088
0.565208 0.006218 0.237697
0.695052 0.008663 0.231783
0.804632 0.011683 0.227978
0.902587 0.015312 0.226002
0.907966 0.015536 0.224244
0.006000 0.101709 0.247332
0.098299 0.098299 0.245063
0.240397 0.093633 0.240397
0.397014 0.089291 0.234354
0.559706 0.085665 0.228770
0.693818 0.085057 0.224373
0.806992 0.086051 0.221934
0.908435 0.088512 0.221233
0.914240 0.088411 0.219983
0.006000 0.232451 0.232451
0.082602 0.229366 0.229366
0.224700 0.224700 0.224700
0.383873 0.219511 0.219511
0.550311 0.214874 0.214874
0.691121 0.212824 0.212824
0.810084 0.212528 0.212528
0.917871 0.213870 0.213870
0.924991 0.213245 0.213245
0.006000 0.377876 0.216495
0.067704 0.375428 0.212767
0.207246 0.371608 0.207246
0.366419 0.366419 0.202057
0.534335 0.361200 0.198873
0.682418 0.357841 0.199614
0.807269 0.356400 0.202105
0.924530 0.356788 0.206211
0.937290 0.355925 0.206762
0.006000 0.531786 0.202484
0.054822 0.530017 0.198070
0.191637 0.527100 0.191637
0.349208 0.522344 0.186881
0.517271 0.517271 0.181808
0.677372 0.512518 0.181108
0.803380 0.509974 0.190677
0.929461 0.509251 0.197780
0.950408 0.508105 0.199847
0.006000 0.678957 0.191917
0.045343 0.677842 0.186842
0.179530 0.675795 0.179530
0.335558 0.671456 0.175191
0.501974 0.666828 0.170563
0.662367 0.662367 0.166103
0.809458 0.658190 0.167558
0.961749 0.655088 0.169478
1.000000 0.653141 0.171310
0.006000 0.814522 0.184690
0.039125 0.814014 0.179002
0.170874 0.812774 0.170874
0.325468 0.808822 0.166922
0.490356 0.804607 0.162707
0.649276 0.800544 0.158644
0.796774 0.796774 0.154873
0.947635 0.793230 0.157901
1.000000 0.790952 0.160566
0.006000 0.957563 0.180306
0.035676 0.957580 0.174105
0.165249 0.956970 0.165249
0.318566 0.952560 0.161642
0.482090 0.947490 0.157795
0.639697 0.942217 0.154087
0.785975 0.936959 0.150646
0.931953 0.931953 0.147577
1.000000 0.927508 0.150984
0.006000 1.000000 0.173900
0.034383 1.000000 0.171723
0.162320 1.000000 0.162320
0.314675 1.000000 0.158973
0.477175 1.000000 0.155403
0.633793 1.000000 0.151962
0.779154 1.000000 0.148768
0.918062 1.000000 0.145920
1.000000 1.000000 0.143777
0.006000 0.006000 0.415594
0.107236 0.006000 0.412539
0.247096 0.006000 0.408477
0.403922 0.006000 0.403922
0.565753 0.006000 0.395797
0.694528 0.008817 0.385635
0.804688 0.011975 0.378301
0.903552 0.015753 0.373088
0.909292 0.016000 0.371227
0.006000 0.100013 0.405316
0.096783 0.096783 0.404507
0.237541 0.092479 0.400202
0.395375 0.087652 0.395375
0.559257 0.084061 0.387936
0.693144 0.083864 0.379434
0.806888 0.085134 0.373417
0.909269 0.087867 0.369423
0.915478 0.087873 0.366978
0.006000 0.230270 0.391651
0.082302 0.227365 0.390026
0.222938 0.222938 0.387300
0.382111 0.217749 0.382111
0.548719 0.213256 0.375584
0.690283 0.211505 0.369535
0.809837 0.211489 0.365607
0.918617 0.213106 0.363590
0.926233 0.212591 0.361754
0.006000 0.376329 0.376329
0.066065 0.373788 0.373788
0.205484 0.369846 0.369846
0.364657 0.364657 0.364657
0.534322 0.359152 0.359152
0.684292 0.355695 0.355695
0.810700 0.354193 0.354193
0.927810 0.354525 0.354525
0.938358 0.353446 0.353446
0.006000 0.530387 0.360430
0.053329 0.528525 0.357204
0.190022 0.525484 0.352349
0.346138 0.521308 0.346138
0.515803 0.515803 0.340633
0.677590 0.510775 0.337696
0.805643 0.508293 0.341546
0.932623 0.507528 0.344862
0.951513 0.506194 0.345150
0.006000 0.677699 0.348044
0.043992 0.676491 0.344157
0.178057 0.674321 0.338423
0.331226 0.671120 0.331226
0.499245 0.666060 0.326166
0.661182 0.661182 0.321289
0.809838 0.656750 0.320668
0.963637 0.653419 0.320738
1.000000 0.651301 0.321177
0.006000 0.813395 0.339129
0.037906 0.812795 0.334628
0.169532 0.811432 0.328078
0.319967 0.809136 0.319967
0.486456 0.804489 0.315319
0.646921 0.800009 0.310840
0.795852 0.795852 0.306682
0.948278 0.792080 0.307859
1.000000 0.789630 0.309131
0.006000 0.956371 0.333249
0.034574 0.956280 0.328225
0.164024 0.955508 0.320948
0.312020 0.953683 0.312020
0.477147 0.948118 0.307741
0.636298 0.942283 0.303616
0.784009 0.936415 0.299788
0.930788 0.930788 0.296374
1.000000 0.925973 0.298389
0.006000 1.000000 0.326843
0.033369 1.000000 0.324710
0.161183 1.000000 0.316886
0.307345 1.000000 0.307345
0.471447 1.000000 0.303342
0.629609 1.000000 0.299485
0.776403 1.000000 0.295904
0.915130 1.000000 0.292711
1.000000 1.000000 0.290309
0.006000 0.006000 0.579220
0.105045 0.006000 0.576455
0.243476 0.006000 0.572778
0.398700 0.006000 0.568656
0.564260 0.006000 0.564260
0.717151 0.006000 0.555361
0.856212 0.006000 0.547869
0.904570 0.016222 0.529982
0.910705 0.016495 0.527997
0.006000 0.098508 0.569918
0.095469 0.095469 0.570665
0.234799 0.091551 0.566746
0.391031 0.087156 0.562352
0.557665 0.082470 0.557665
0.712533 0.080033 0.549427
0.853428 0.078539 0.542549
0.910147 0.087177 0.527495
0.916799 0.087299 0.523761
0.006000 0.228248 0.557551
0.082286 0.225535 0.557482
0.221362 0.221362 0.556825
0.378934 0.216606 0.552069
0.546997 0.211534 0.546997
0.704492 0.208227 0.539638
0.847826 0.205926 0.533575
0.919396 0.212288 0.523297
0.927557 0.211893 0.520150
0.006000 0.373728 0.543684
0.067504 0.371379 0.542700
0.205363 0.367690 0.540826
0.362788 0.362788 0.537958
0.532453 0.357283 0.532453
0.692895 0.353001 0.526080
0.810236 0.352932 0.519454
0.928421 0.353562 0.516086
0.939686 0.352608 0.513652
0.006000 0.528893 0.528893
0.051738 0.526933 0.526933
0.188299 0.523762 0.523762
0.344268 0.519439 0.519439
0.513933 0.513933 0.513933
0.677518 0.508612 0.508612
0.807805 0.506206 0.506206
0.935689 0.505401 0.505401
0.952699 0.503867 0.503867
0.006000 0.676357 0.514567
0.042551 0.675051 0.511946
0.176485 0.672749 0.507895
0.329508 0.669401 0.502586
0.496030 0.664937 0.496030
0.659615 0.659615 0.490708
0.809939 0.654910 0.487874
0.965271 0.651336 0.485969
1.000000 0.649035 0.484923
0.006000 0.812193 0.503850
0.036605 0.811495 0.500615
0.168100 0.810001 0.495749
0.318388 0.807558 0.489526
0.481994 0.804059 0.481994
0.644105 0.799135 0.477070
0.794564 0.794564 0.472500
0.948550 0.790550 0.471702
1.000000 0.787917 0.471489
0.006000 0.955074 0.496375
0.033398 0.954861 0.492606
0.162718 0.953909 0.487013
0.310567 0.951846 0.479973
0.471571 0.948373 0.471571
0.632369 0.941903 0.467002
0.781609 0.935342 0.462761
0.929000 0.929000 0.458979
1.000000 0.923746 0.459509
0.006000 1.000000 0.489969
0.032287 1.000000 0.487884
0.159971 1.000000 0.481743
0.305986 1.000000 0.474090
0.465034 1.000000 0.465034
0.624843 1.000000 0.460731
0.773165 1.000000 0.456738
0.911270 1.000000 0.453176
1.000000 1.000000 0.450498
0.006000 0.006000 0.733113
0.103229 0.006000 0.730628
0.240283 0.006000 0.727323
0.393964 0.006000 0.723618
0.557876 0.006000 0.719666
0.715857 0.006000 0.715857
0.855053 0.006000 0.706629
0.990812 0.006000 0.699054
1.000000 0.006000 0.697150
0.006000 0.097353 0.724752
0.094500 0.094500 0.726999
0.232452 0.090953 0.723452
0.387140 0.086975 0.719475
0.552128 0.082733 0.715233
0.711144 0.078645 0.711144
0.852175 0.077286 0.702530
0.990159 0.076696 0.695470
1.000000 0.076640 0.690547
0.006000 0.226596 0.713636
0.082567 0.224067 0.715067
0.220140 0.220140 0.716404
0.376167 0.215801 0.712065
0.542583 0.211173 0.707438
0.702977 0.206713 0.702977
0.846447 0.204546 0.695179
0.988277 0.203237 0.688846
1.000000 0.202639 0.684470
0.006000 0.371517 0.701171
0.069188 0.369352 0.701687
0.205543 0.365910 0.701808
0.361282 0.361282 0.701176
0.529301 0.356222 0.696116
0.691238 0.351345 0.691238
0.837442 0.348273 0.684354
0.984424 0.346156 0.678838
1.000000 0.344951 0.675076
0.006000 0.526087 0.687877
0.054917 0.524311 0.687417
0.189975 0.521385 0.686240
0.344259 0.517338 0.684153
0.512126 0.512126 0.681033
0.675711 0.506804 0.675711
0.824832 0.502767 0.669802
0.977478 0.499789 0.665156
1.000000 0.497936 0.662048
0.006000 0.675063 0.675063
0.041163 0.673662 0.673662
0.174970 0.671235 0.671235
0.327852 0.667745 0.667745
0.494223 0.663129 0.663129
0.657808 0.657808 0.657808
0.809740 0.652840 0.652840
0.966505 0.649032 0.649032
1.000000 0.646555 0.646555
0.006000 0.811035 0.662611
0.035352 0.810241 0.660596
0.166720 0.808621 0.657353
0.316867 0.806037 0.652949
0.480322 0.802386 0.647357
0.641095 0.797995 0.641095
0.793027 0.793027 0.636127
0.948411 0.788779 0.633427
1.000000 0.785970 0.631783
0.006000 0.953796 0.653598
0.032265 0.953462 0.651039
0.161459 0.952327 0.647068
0.309166 0.950025 0.641848
0.470020 0.946242 0.635387
0.628286 0.941093 0.628286
0.778999 0.933808 0.623647
0.926713 0.926713 0.619510
1.000000 0.920986 0.618609
0.006000 1.000000 0.647191
0.031245 1.000000 0.645152
0.158802 1.000000 0.640634
0.304676 1.000000 0.634800
0.463572 1.000000 0.627684
0.619953 1.000000 0.619953
0.769748 1.000000 0.615562
0.906762 1.000000 0.611646
1.000000 1.000000 0.608700
0.006000 0.006000 0.872598
0.101805 0.006000 0.870372
0.237581 0.006000 0.867413
0.389828 0.006000 0.864094
0.552212 0.006000 0.860555
0.708720 0.006000 0.857144
0.853978 0.006000 0.853978
0.990327 0.006000 0.844976
1.000000 0.006000 0.843071
0.006000 0.096543 0.865110
0.093860 0.093860 0.868749
0.230535 0.090658 0.865547
0.383790 0.087068 0.861957
0.547248 0.083239 0.858128
0.704792 0.079548 0.854437
0.851011 0.076122 0.851011
0.989616 0.075645 0.842515
1.000000 0.075673 0.836511
0.006000 0.225323 0.855155
0.083089 0.222965 0.857978
0.219266 0.219266 0.861166
0.373860 0.215314 0.857214
0.538748 0.211099 0.852999
0.697669 0.207036 0.848937
0.845166 0.203266 0.845166
0.987628 0.202068 0.837397
1.000000 0.201554 0.831941
0.006000 0.369725 0.843992
0.071011 0.367732 0.845900
0.205971 0.364518 0.847872
0.360146 0.360146 0.849315
0.526635 0.355498 0.844668
0.687100 0.351019 0.840188
0.836031 0.346861 0.836031
0.983599 0.344856 0.829077
1.000000 0.343735 0.824234
0.006000 0.523743 0.832086
0.058128 0.522138 0.833018
0.191791 0.519440 0.833692
0.344511 0.515648 0.833680
0.510709 0.510709 0.832774
0.672821 0.505785 0.827850
0.823280 0.501215 0.823280
0.976358 0.498349 0.817197
1.000000 0.496580 0.813008
0.006000 0.672186 0.820610
0.045712 0.670957 0.820602
0.178124 0.668757 0.820025
0.329441 0.665523 0.818611
0.494144 0.661180 0.816209
0.656120 0.656120 0.813021
0.808053 0.651152 0.808053
0.964925 0.647457 0.802808
1.000000 0.645064 0.799250
0.006000 0.809960 0.809960
0.034189 0.809078 0.809078
0.165440 0.807340 0.807340
0.315455 0.804625 0.804625
0.478770 0.800834 0.800834
0.639408 0.796308 0.796308
0.791340 0.791340 0.791340
0.947928 0.786874 0.786874
1.000000 0.783902 0.783902
0.006000 0.952587 0.799519
0.031214 0.952134 0.798084
0.160290 0.950822 0.795619
0.307866 0.948288 0.792087
0.468579 0.944204 0.787427
0.626710 0.938695 0.782062
0.776316 0.931921 0.776316
0.924057 0.924057 0.771850
1.000000 0.917838 0.769620
0.006000 1.000000 0.793113
0.030278 1.000000 0.791116
0.157718 1.000000 0.788104
0.303460 1.000000 0.783959
0.462216 1.000000 0.778644
0.618462 1.000000 0.772648
0.766317 1.000000 0.766317
0.901809 1.000000 0.762071
1.000000 1.000000 0.758878
0.006000 0.006000 0.998123
0.100746 0.006000 0.997408
0.235390 0.006000 0.996413
0.386368 0.006000 0.995232
0.547398 0.006000 0.993892
0.702601 0.006000 0.992516
0.846648 0.006000 0.991162
0.989887 0.006000 0.989887
1.000000 0.006000 0.988884
0.006000 0.096028 0.995601
0.093501 0.093501 0.997446
0.229036 0.090607 0.996360
0.381013 0.087362 0.995065
0.543109 0.083901 0.993587
0.699339 0.080565 0.992061
0.844339 0.077468 0.990551
0.989122 0.074707 0.989122
1.000000 0.074810 0.985144
0.006000 0.224398 0.991674
0.083765 0.222194 0.993527
0.218698 0.218698 0.995571
0.372015 0.215091 0.994066
0.535539 0.211244 0.992336
0.693146 0.207536 0.990538
0.839424 0.204095 0.988744
0.987036 0.201026 0.987036
1.000000 0.200587 0.983103
0.006000 0.368342 0.986345
0.072848 0.366499 0.988115
0.206564 0.363488 0.990044
0.359344 0.359344 0.991680
0.524470 0.355064 0.989533
0.683621 0.350939 0.987281
0.831332 0.347111 0.985017
0.982845 0.343697 0.982845
1.000000 0.342651 0.978791
0.006000 0.521869 0.979345
0.061204 0.520412 0.980869
0.193622 0.517917 0.982454
0.344947 0.514353 0.983657
0.509657 0.509657 0.984336
0.670455 0.505088 0.981329
0.819694 0.500847 0.978280
0.975332 0.497064 0.975332
1.000000 0.495371 0.970938
0.006000 0.669841 0.971015
0.049981 0.668755 0.972081
0.181149 0.666758 0.973011
0.331071 0.663752 0.973383
0.494285 0.659652 0.973019
0.654827 0.654827 0.971904
0.805540 0.650189 0.967633
0.963474 0.646052 0.963474
1.000000 0.643734 0.958513
0.006000 0.807177 0.961578
0.039565 0.806435 0.961944
0.169572 0.804901 0.961851
0.318192 0.802413 0.960908
0.480018 0.798866 0.958874
0.639222 0.794574 0.955802
0.789823 0.789823 0.951825
0.945833 0.785357 0.945833
1.000000 0.782460 0.940086
0.006000 0.951488 0.951488
0.030276 0.950926 0.950926
0.159248 0.949450 0.949450
0.306707 0.946700 0.946700
0.467295 0.942336 0.942336
0.625306 0.936491 0.936491
0.774799 0.929329 0.929329
0.921222 0.921222 0.921222
1.000000 0.914514 0.914514
0.006000 1.000000 0.942673
0.029415 1.000000 0.939743
0.156751 1.000000 0.937153
0.302375 1.000000 0.932878
0.461007 1.000000 0.926472
0.617132 1.000000 0.918132
0.764875 1.000000 0.908048
0.898941 1.000000 0.898941
1.000000 1.000000 0.895527
0.006000 0.006000 1.000000
0.100100 0.006000 1.000000
0.234743 0.006000 1.000000
0.385721 0.006000 1.000000
0.546751 0.006000 1.000000
0.701954 0.006000 1.000000
0.846001 0.006000 1.000000
0.989551 0.006000 1.000000
1.000000 0.006000 1.000000
0.006000 0.095381 1.000000
0.093363 0.093363 1.000000
0.228040 0.090700 1.000000
0.379056 0.087715 1.000000
0.540126 0.084530 1.000000
0.695368 0.081461 1.000000
0.839451 0.078612 1.000000
0.985906 0.076072 1.000000
1.000000 0.074161 1.000000
0.006000 0.223752 1.000000
0.084405 0.221746 1.000000
0.218402 0.218402 1.000000
0.370758 0.215055 1.000000
0.533257 0.211485 1.000000
0.689875 0.208044 1.000000
0.835236 0.204850 1.000000
0.984014 0.202002 1.000000
1.000000 0.199860 1.000000
0.006000 0.367695 1.000000
0.074361 0.365703 1.000000
0.207142 0.362844 1.000000
0.358872 0.358872 1.000000
0.522973 0.354869 1.000000
0.681135 0.351011 1.000000
0.827929 0.347430 1.000000
0.979945 0.344237 1.000000
1.000000 0.341835 1.000000
0.006000 0.521223 1.000000
0.063649 0.519245 1.000000
0.195131 0.516903 1.000000
0.345406 0.513510 1.000000
0.508997 0.508997 1.000000
0.668806 0.504694 1.000000
0.817129 0.500701 1.000000
0.972498 0.497140 1.000000
1.000000 0.494461 1.000000
0.006000 0.669194 1.000000
0.053323 0.667231 1.000000
0.183555 0.665387 1.000000
0.332428 0.662552 1.000000
0.494523 0.658635 1.000000
0.653986 0.653986 1.000000
0.803782 0.649595 1.000000
0.960702 0.645679 1.000000
1.000000 0.642733 1.000000
0.006000 0.806530 1.000000
0.043740 0.804579 1.000000
0.172811 0.803198 1.000000
0.320382 0.800881 1.000000
0.481089 0.797517 1.000000
0.639214 0.793401 1.000000
0.788814 0.788814 1.000000
0.943221 0.784569 1.000000
1.000000 0.781375 1.000000
0.006000 0.950649 1.000000
0.035194 0.948066 1.000000
0.163230 0.946737 1.000000
0.309640 0.944121 1.000000
0.469108 0.939872 1.000000
0.626040 0.934120 1.000000
0.774533 0.927035 1.000000
0.918995 0.918995 1.000000
1.000000 0.912129 1.000000
0.006000 1.000000 1.000000
0.028766 1.000000 1.000000
0.156023 1.000000 1.000000
0.301560 1.000000 1.000000
0.460097 1.000000 1.000000
0.616131 1.000000 1.000000
0.763790 1.000000 1.000000
0.897781 1.000000 1.000000
1.000000 1.000000 1.000000
