creator-kit/luts/AK_Night_City.cube
# AK_Night_City
# Low-light rescue. Opens the shadows without amplifying the noise floor, splits shadows cyan against magenta-warm highlights, and holds saturation back so neon and streetlight do not bloom out.
# Best for: Night vlogs, bars, streets, torch and firelight, indoor low light.
# Apply AFTER a D-Log M -> Rec.709 conversion, not instead of one.
TITLE "AK_Night_City"
LUT_3D_SIZE 33
DOMAIN_MIN 0.0 0.0 0.0
DOMAIN_MAX 1.0 1.0 1.0
0.026000 0.031938 0.056209
0.038085 0.031667 0.055770
0.068438 0.031363 0.055166
0.100292 0.031103 0.054537
0.133083 0.030891 0.053948
0.166527 0.030735 0.053410
0.200445 0.030640 0.052929
0.234717 0.030609 0.052511
0.269253 0.030647 0.052162
0.303985 0.030756 0.051884
0.338856 0.030939 0.051680
0.373821 0.031197 0.051555
0.408842 0.031533 0.051509
0.443887 0.031949 0.051546
0.478604 0.032442 0.051666
0.512583 0.033003 0.051865
0.545827 0.033630 0.052140
0.575109 0.034628 0.052750
0.602871 0.035760 0.053500
0.629584 0.036976 0.054347
0.655271 0.038269 0.055284
0.679947 0.039632 0.056305
0.703623 0.041058 0.057401
0.726304 0.042538 0.058564
0.747988 0.044062 0.059785
0.789316 0.046180 0.061574
0.820749 0.048150 0.063246
0.844187 0.049948 0.064774
0.861760 0.051584 0.066165
0.874905 0.053055 0.067418
0.884434 0.054321 0.068497
0.887191 0.054730 0.068846
0.887191 0.054730 0.068846
0.026000 0.057488 0.054558
0.037787 0.057240 0.054076
0.068204 0.056916 0.053494
0.100200 0.056608 0.052931
0.133139 0.056347 0.052411
0.166731 0.056141 0.051943
0.200800 0.055995 0.051536
0.235223 0.055913 0.051194
0.269911 0.055900 0.050921
0.304794 0.055957 0.050722
0.339816 0.056089 0.050598
0.374933 0.056295 0.050554
0.410105 0.056580 0.050591
0.445300 0.056945 0.050712
0.480165 0.057386 0.050917
0.514288 0.057898 0.051200
0.547672 0.058476 0.051559
0.576995 0.059430 0.052322
0.604996 0.060499 0.053211
0.631939 0.061654 0.054195
0.657846 0.062888 0.055267
0.682732 0.064193 0.056419
0.706609 0.065564 0.057643
0.729483 0.066990 0.058932
0.753079 0.068505 0.060319
0.794788 0.070568 0.062281
0.825586 0.072462 0.064074
0.848541 0.074193 0.065705
0.865745 0.075769 0.067185
0.878608 0.077189 0.068514
0.887928 0.078413 0.069658
0.890624 0.078808 0.070027
0.890624 0.078808 0.070027
0.026000 0.086821 0.052743
0.037576 0.086622 0.052214
0.067879 0.086335 0.051616
0.099929 0.086009 0.051090
0.132952 0.085713 0.050674
0.166631 0.085472 0.050313
0.200789 0.085291 0.050015
0.235302 0.085173 0.049784
0.270082 0.085122 0.049624
0.305058 0.085143 0.049538
0.340175 0.085236 0.049531
0.375387 0.085404 0.049603
0.410655 0.085650 0.049758
0.445948 0.085976 0.049997
0.480910 0.086378 0.050320
0.515129 0.086851 0.050720
0.548608 0.087392 0.051194
0.578078 0.088295 0.052144
0.606321 0.089305 0.053209
0.633499 0.090403 0.054365
0.659633 0.091580 0.055605
0.684739 0.092832 0.056921
0.708829 0.094149 0.058306
0.731907 0.095524 0.059751
0.757370 0.097025 0.061338
0.798767 0.099010 0.063485
0.829327 0.100836 0.065434
0.852097 0.102508 0.067199
0.869155 0.104033 0.068796
0.881904 0.105409 0.070228
0.891138 0.106595 0.071457
0.893808 0.106979 0.071853
0.893808 0.106979 0.071853
0.026000 0.117735 0.051033
0.037526 0.117588 0.050454
0.067704 0.117339 0.049859
0.099676 0.117040 0.049309
0.132769 0.116728 0.048875
0.166540 0.116449 0.048628
0.200791 0.116230 0.048445
0.235400 0.116074 0.048331
0.270277 0.115984 0.048290
0.305352 0.115965 0.048325
0.340568 0.116018 0.048439
0.375881 0.116146 0.048635
0.411252 0.116351 0.048914
0.446648 0.116636 0.049279
0.481713 0.116997 0.049727
0.516034 0.117429 0.050250
0.549613 0.117930 0.050846
0.579248 0.118779 0.051998
0.607749 0.119726 0.053249
0.635176 0.120763 0.054587
0.661550 0.121881 0.056004
0.686889 0.123075 0.057494
0.711203 0.124336 0.059049
0.734498 0.125656 0.060658
0.761923 0.127139 0.062465
0.802985 0.129044 0.064804
0.833289 0.130799 0.066915
0.855859 0.132409 0.068820
0.872762 0.133880 0.070539
0.885389 0.135209 0.072078
0.894531 0.136357 0.073396
0.897174 0.136728 0.073821
0.897174 0.136728 0.073821
0.026000 0.149695 0.049485
0.037661 0.149603 0.048856
0.067719 0.149390 0.048272
0.099586 0.149119 0.047762
0.132606 0.148840 0.047237
0.166461 0.148545 0.046921
0.200810 0.148287 0.046858
0.235518 0.148091 0.046865
0.270496 0.147961 0.046948
0.305673 0.147900 0.047108
0.340993 0.147912 0.047348
0.376411 0.147998 0.047671
0.411888 0.148161 0.048079
0.447390 0.148403 0.048574
0.482563 0.148721 0.049152
0.516989 0.149112 0.049803
0.550615 0.149575 0.050536
0.580490 0.150361 0.051890
0.609258 0.151244 0.053334
0.636944 0.152217 0.054861
0.663569 0.153274 0.056463
0.689150 0.154407 0.058134
0.713698 0.155610 0.059864
0.737218 0.156873 0.061644
0.766660 0.158334 0.063688
0.807370 0.160156 0.066222
0.837404 0.161839 0.068498
0.859766 0.163385 0.070546
0.876505 0.164801 0.072390
0.889004 0.166082 0.074038
0.898050 0.167190 0.075448
0.900664 0.167549 0.075901
0.900664 0.167549 0.075901
0.026000 0.182436 0.048134
0.037998 0.182398 0.047453
0.067944 0.182218 0.046892
0.099704 0.181978 0.046423
0.132612 0.181729 0.045939
0.166401 0.181474 0.045446
0.200846 0.181200 0.045271
0.235657 0.180963 0.045403
0.270739 0.180792 0.045612
0.306021 0.180689 0.045900
0.341448 0.180658 0.046271
0.376974 0.180701 0.046725
0.412559 0.180821 0.047265
0.448172 0.181018 0.047893
0.483454 0.181293 0.048603
0.517989 0.181640 0.049386
0.551637 0.182068 0.050271
0.581797 0.182785 0.051828
0.610841 0.183601 0.053470
0.638793 0.184509 0.055191
0.665677 0.185503 0.056983
0.691507 0.186575 0.058839
0.716296 0.187717 0.060749
0.740049 0.188922 0.062705
0.771545 0.190356 0.065001
0.811887 0.192093 0.067731
0.841641 0.193702 0.070174
0.863784 0.195184 0.072367
0.880353 0.196544 0.074338
0.892720 0.197777 0.076096
0.901665 0.198845 0.077599
0.904249 0.199191 0.078082
0.904249 0.199191 0.078082
0.026000 0.215794 0.047004
0.038553 0.215812 0.046269
0.068393 0.215662 0.045743
0.100043 0.215451 0.045315
0.132838 0.215234 0.044874
0.166510 0.215011 0.044425
0.200900 0.214784 0.043970
0.235818 0.214532 0.043955
0.271006 0.214319 0.044293
0.306396 0.214173 0.044712
0.341932 0.214099 0.045215
0.377568 0.214098 0.045803
0.413265 0.214173 0.046478
0.448990 0.214326 0.047242
0.484385 0.214556 0.048088
0.519031 0.214858 0.049004
0.552714 0.215247 0.050049
0.583165 0.215895 0.051814
0.612491 0.216643 0.053659
0.640718 0.217485 0.055579
0.667865 0.218413 0.057565
0.693952 0.219422 0.059610
0.718988 0.220503 0.061705
0.742978 0.221649 0.063841
0.776553 0.223051 0.066402
0.816515 0.224703 0.069329
0.845977 0.226238 0.071939
0.867896 0.227655 0.074277
0.884288 0.228957 0.076376
0.896518 0.230141 0.078246
0.905360 0.231168 0.079843
0.907913 0.231501 0.080356
0.907913 0.231501 0.080356
0.026000 0.249658 0.046112
0.039334 0.249733 0.045324
0.069078 0.249609 0.044844
0.100616 0.249430 0.044458
0.133295 0.249244 0.044061
0.166850 0.249054 0.043657
0.201119 0.248860 0.043248
0.235993 0.248664 0.042835
0.271297 0.248436 0.042997
0.306797 0.248246 0.043550
0.342444 0.248128 0.044187
0.378193 0.248082 0.044911
0.414003 0.248112 0.045723
0.449843 0.248219 0.046625
0.485353 0.248403 0.047610
0.520112 0.248661 0.048663
0.553844 0.249009 0.049876
0.584593 0.249586 0.051852
0.614207 0.250264 0.053904
0.642713 0.251038 0.056026
0.670131 0.251900 0.058210
0.696479 0.252845 0.060448
0.721768 0.253863 0.062731
0.746001 0.254948 0.065050
0.781670 0.256313 0.067890
0.821238 0.257880 0.071013
0.850401 0.259340 0.073791
0.872087 0.260692 0.076275
0.888298 0.261937 0.078501
0.900386 0.263072 0.080483
0.909121 0.264058 0.082175
0.911643 0.264378 0.082719
0.911643 0.264378 0.082719
0.026000 0.283948 0.045475
0.040352 0.284082 0.044632
0.070008 0.283979 0.044210
0.101434 0.283831 0.043866
0.133996 0.283678 0.043514
0.167430 0.283521 0.043155
0.201577 0.283362 0.042792
0.236327 0.283200 0.042427
0.271601 0.283036 0.042059
0.307225 0.282832 0.042418
0.342986 0.282668 0.043192
0.378848 0.282577 0.044054
0.414775 0.282561 0.045005
0.450731 0.282622 0.046048
0.486357 0.282760 0.047173
0.521231 0.282972 0.048364
0.555026 0.283276 0.049754
0.586079 0.283780 0.051945
0.615987 0.284388 0.054207
0.644777 0.285093 0.056535
0.672471 0.285888 0.058920
0.699085 0.286767 0.061354
0.724631 0.287722 0.063829
0.749112 0.288745 0.066334
0.786882 0.290069 0.069464
0.826046 0.291550 0.072783
0.854900 0.292935 0.075728
0.876347 0.294221 0.078357
0.892372 0.295410 0.080711
0.904315 0.296494 0.082806
0.912941 0.297439 0.084593
0.915431 0.297746 0.085167
0.915431 0.297746 0.085167
0.026000 0.318603 0.045104
0.041614 0.318795 0.044206
0.071193 0.318711 0.043853
0.102503 0.318595 0.043553
0.134947 0.318474 0.043245
0.168260 0.318351 0.042932
0.202283 0.318226 0.042617
0.236907 0.318099 0.042299
0.272054 0.317971 0.041980
0.307665 0.317841 0.041661
0.343556 0.317662 0.042234
0.379535 0.317525 0.043236
0.415578 0.317462 0.044328
0.451652 0.317476 0.045513
0.487396 0.317568 0.046779
0.522387 0.317734 0.048110
0.556261 0.317991 0.049687
0.587622 0.318421 0.052095
0.617829 0.318957 0.054571
0.646909 0.319592 0.057107
0.674883 0.320319 0.059696
0.701768 0.321132 0.062329
0.727575 0.322022 0.064998
0.752309 0.322982 0.067692
0.792181 0.324259 0.071125
0.830930 0.325655 0.074638
0.859467 0.326966 0.077749
0.880669 0.328186 0.080522
0.896503 0.329317 0.083004
0.908298 0.330352 0.085211
0.916813 0.331256 0.087094
0.919269 0.331550 0.087698
0.919269 0.331550 0.087698
0.026000 0.353573 0.045010
0.043129 0.353825 0.044057
0.072638 0.353756 0.043784
0.103834 0.353671 0.043528
0.136158 0.353584 0.043266
0.169348 0.353495 0.043000
0.203246 0.353405 0.042731
0.237742 0.353313 0.042462
0.272760 0.353221 0.042192
0.308241 0.353128 0.041923
0.344137 0.353034 0.041654
0.380251 0.352879 0.042459
0.416413 0.352769 0.043694
0.452607 0.352736 0.045023
0.488470 0.352780 0.046432
0.523579 0.352899 0.047905
0.557937 0.353091 0.049436
0.589223 0.353463 0.052305
0.619734 0.353927 0.054997
0.649108 0.354490 0.057745
0.677367 0.355148 0.060540
0.704527 0.355893 0.063375
0.730599 0.356718 0.066240
0.755588 0.357615 0.069125
0.797558 0.358841 0.072872
0.835882 0.360152 0.076577
0.864095 0.361387 0.079853
0.885046 0.362543 0.082770
0.900685 0.363616 0.085380
0.912329 0.364601 0.087699
0.920730 0.365464 0.089676
0.923153 0.365745 0.090311
0.923153 0.365745 0.090311
0.026000 0.388820 0.045204
0.044926 0.389123 0.044217
0.074352 0.389073 0.044014
0.105431 0.389021 0.043802
0.137634 0.388967 0.043585
0.170701 0.388913 0.043366
0.204472 0.388858 0.043146
0.238840 0.388802 0.042925
0.273727 0.388746 0.042705
0.309076 0.388689 0.042486
0.344839 0.388633 0.042268
0.380979 0.388576 0.042052
0.417280 0.388446 0.043106
0.453595 0.388365 0.044580
0.489579 0.388361 0.046134
0.524808 0.388433 0.047749
0.559283 0.388578 0.049421
0.593005 0.388793 0.051145
0.621700 0.389259 0.055488
0.651373 0.389751 0.058449
0.679920 0.390339 0.061453
0.707359 0.391016 0.064492
0.733701 0.391774 0.067556
0.758950 0.392606 0.070634
0.803007 0.393777 0.074706
0.840897 0.395002 0.078601
0.868778 0.396164 0.082039
0.889474 0.397254 0.085100
0.904914 0.398270 0.087836
0.916403 0.399206 0.090268
0.924688 0.400027 0.092340
0.927077 0.400295 0.093006
0.927077 0.400295 0.093006
0.026000 0.424310 0.045692
0.047025 0.424649 0.044711
0.076339 0.424630 0.044550
0.107301 0.424611 0.044382
0.139382 0.424591 0.044212
0.172324 0.424572 0.044040
0.205968 0.424552 0.043868
0.240206 0.424532 0.043697
0.274962 0.424513 0.043527
0.310178 0.424493 0.043358
0.345806 0.424474 0.043191
0.381810 0.424455 0.043027
0.418159 0.424436 0.042865
0.454616 0.424331 0.044186
0.490722 0.424279 0.045887
0.526072 0.424304 0.047646
0.560666 0.424402 0.049459
0.594505 0.424570 0.051324
0.627587 0.424806 0.053235
0.659904 0.425105 0.055188
0.682543 0.425860 0.062436
0.710265 0.426468 0.065681
0.736880 0.427160 0.068946
0.762392 0.427927 0.072220
0.808521 0.429037 0.076627
0.845968 0.430178 0.080709
0.873512 0.431266 0.084309
0.893947 0.432291 0.087512
0.909184 0.433250 0.090374
0.920516 0.434136 0.092917
0.928684 0.434915 0.095085
0.931038 0.435170 0.095780
0.931038 0.435170 0.095780
0.026000 0.460015 0.046484
0.049404 0.460387 0.045518
0.078606 0.460400 0.045400
0.109449 0.460413 0.045277
0.141408 0.460428 0.045153
0.174224 0.460443 0.045029
0.207739 0.460459 0.044906
0.241847 0.460476 0.044784
0.276471 0.460494 0.044664
0.311552 0.460512 0.044546
0.347045 0.460530 0.044431
0.382912 0.460550 0.044319
0.419123 0.460570 0.044210
0.455652 0.460590 0.044103
0.491899 0.460510 0.045692
0.527370 0.460487 0.047596
0.562085 0.460537 0.049553
0.596043 0.460659 0.051558
0.629241 0.460849 0.053608
0.661674 0.461103 0.055698
0.693328 0.461418 0.057823
0.724188 0.461790 0.059977
0.740134 0.462849 0.070413
0.765913 0.463551 0.073884
0.814096 0.464596 0.078635
0.851091 0.465653 0.082902
0.878291 0.466667 0.086662
0.898461 0.467628 0.090005
0.913493 0.468530 0.092992
0.924666 0.469367 0.095647
0.932714 0.470105 0.097909
0.935033 0.470347 0.098635
0.935033 0.470347 0.098635
0.027686 0.495580 0.047573
0.052043 0.495981 0.046634
0.081133 0.496025 0.046558
0.111858 0.496071 0.046480
0.143695 0.496120 0.046402
0.176385 0.496171 0.046326
0.209772 0.496222 0.046251
0.243749 0.496276 0.046179
0.278241 0.496330 0.046109
0.313188 0.496385 0.046042
0.348546 0.496442 0.045978
0.384276 0.496499 0.045918
0.420349 0.496558 0.045861
0.456739 0.496617 0.045808
0.493084 0.496677 0.045759
0.528691 0.496622 0.047601
0.563526 0.496625 0.049701
0.597602 0.496700 0.051847
0.630918 0.496844 0.054036
0.663465 0.497053 0.056262
0.695232 0.497323 0.058521
0.726203 0.497652 0.060806
0.756355 0.498036 0.063112
0.785655 0.498469 0.065431
0.819673 0.500100 0.080711
0.856214 0.501076 0.085158
0.883068 0.502017 0.089074
0.902971 0.502914 0.092555
0.917796 0.503760 0.095666
0.928808 0.504548 0.098430
0.936737 0.505246 0.100786
0.939021 0.505475 0.101542
0.939021 0.505475 0.101542
0.030635 0.530581 0.048942
0.054903 0.531006 0.048038
0.083883 0.531081 0.048003
0.114491 0.531160 0.047969
0.146207 0.531242 0.047937
0.178774 0.531327 0.047908
0.212035 0.531415 0.047881
0.245884 0.531504 0.047857
0.280245 0.531595 0.047837
0.315060 0.531687 0.047820
0.350284 0.531781 0.047807
0.385880 0.531876 0.047798
0.421817 0.531972 0.047793
0.458070 0.532070 0.047792
0.494278 0.532168 0.047795
0.530007 0.532265 0.047802
0.564971 0.532233 0.049901
0.599164 0.532262 0.052186
0.632595 0.532360 0.054511
0.665256 0.532525 0.056872
0.697135 0.532752 0.059262
0.728216 0.533037 0.061678
0.758475 0.533379 0.064111
0.790667 0.533771 0.066554
0.847408 0.534209 0.068998
0.861274 0.536021 0.087449
0.887784 0.536892 0.091516
0.907422 0.537727 0.095131
0.922041 0.538519 0.098362
0.932895 0.539259 0.101232
0.940705 0.539917 0.103679
0.942954 0.540133 0.104465
0.942954 0.540133 0.104465
0.033785 0.565012 0.050577
0.057974 0.565458 0.049717
0.086845 0.565563 0.049723
0.117338 0.565675 0.049733
0.148936 0.565790 0.049746
0.181380 0.565909 0.049762
0.214516 0.566031 0.049783
0.248239 0.566156 0.049807
0.282471 0.566283 0.049835
0.317157 0.566412 0.049868
0.352249 0.566542 0.049905
0.387712 0.566675 0.049946
0.423515 0.566809 0.049992
0.459633 0.566944 0.050042
0.495706 0.567080 0.050096
0.531303 0.567214 0.050154
0.566414 0.567347 0.050215
0.600727 0.567336 0.052573
0.634272 0.567389 0.055033
0.667045 0.567510 0.057526
0.699034 0.567694 0.060047
0.730223 0.567937 0.062589
0.760589 0.568237 0.065148
0.795643 0.568588 0.067713
0.851394 0.568987 0.070277
0.892825 0.569428 0.072829
0.892436 0.571284 0.093984
0.911812 0.572058 0.097729
0.926227 0.572797 0.101076
0.936924 0.573491 0.104051
0.944616 0.574110 0.106587
0.946831 0.574314 0.107401
0.946831 0.574314 0.107401
0.037125 0.598866 0.052466
0.061243 0.599330 0.051658
0.090007 0.599466 0.051705
0.120387 0.599609 0.051757
0.151868 0.599757 0.051814
0.184192 0.599910 0.051876
0.217205 0.600066 0.051943
0.250803 0.600226 0.052014
0.284909 0.600388 0.052090
0.319466 0.600553 0.052172
0.354429 0.600720 0.052257
0.389761 0.600889 0.052348
0.425432 0.601060 0.052444
0.461417 0.601233 0.052545
0.497357 0.601406 0.052649
0.532823 0.601577 0.052757
0.567805 0.601746 0.052867
0.602290 0.601911 0.053006
0.635947 0.601920 0.055598
0.668830 0.601997 0.058222
0.700928 0.602139 0.060871
0.732224 0.602340 0.063539
0.762694 0.602599 0.066221
0.800496 0.602910 0.068907
0.855277 0.603270 0.071589
0.895950 0.603673 0.074255
0.926299 0.604113 0.076890
0.949032 0.604582 0.079474
0.966082 0.605071 0.081978
0.940892 0.607234 0.106883
0.948469 0.607815 0.109506
0.950649 0.608007 0.110348
0.950649 0.608007 0.110348
0.040643 0.632134 0.054596
0.064699 0.632612 0.053847
0.093357 0.632777 0.053933
0.123626 0.632951 0.054027
0.154991 0.633132 0.054128
0.187197 0.633318 0.054235
0.220090 0.633508 0.054347
0.253564 0.633702 0.054465
0.287546 0.633900 0.054588
0.321977 0.634100 0.054717
0.356812 0.634303 0.054851
0.392015 0.634508 0.054991
0.427557 0.634716 0.055136
0.463410 0.634925 0.055286
0.499220 0.635135 0.055441
0.534557 0.635342 0.055597
0.569412 0.635547 0.055755
0.603774 0.635749 0.055915
0.637617 0.635938 0.056205
0.670609 0.635973 0.058957
0.702815 0.636072 0.061732
0.734216 0.636233 0.064525
0.764789 0.636451 0.067328
0.805224 0.636723 0.070133
0.859055 0.637044 0.072930
0.898987 0.637410 0.075709
0.928757 0.637813 0.078453
0.951038 0.638248 0.081142
0.967736 0.638703 0.083747
0.980182 0.639165 0.086215
0.989155 0.639603 0.088425
0.991739 0.639752 0.089154
0.991739 0.639752 0.089154
0.044326 0.664800 0.056954
0.068328 0.665290 0.056269
0.096882 0.665484 0.056395
0.127042 0.665689 0.056530
0.158293 0.665901 0.056674
0.190383 0.666120 0.056824
0.223157 0.666343 0.056982
0.256511 0.666571 0.057145
0.290369 0.666803 0.057315
0.324676 0.667038 0.057491
0.359386 0.667276 0.057672
0.394463 0.667517 0.057860
0.429876 0.667761 0.058053
0.465601 0.668007 0.058252
0.501282 0.668253 0.058455
0.536492 0.668496 0.058660
0.571221 0.668736 0.058866
0.605460 0.668972 0.059072
0.639193 0.669206 0.059279
0.672381 0.669417 0.059730
0.704692 0.669475 0.062629
0.736197 0.669596 0.065543
0.766872 0.669774 0.068466
0.809827 0.670007 0.071387
0.862727 0.670291 0.074299
0.901935 0.670619 0.077188
0.931141 0.670987 0.080040
0.952981 0.671387 0.082833
0.969336 0.671810 0.085535
0.981518 0.672242 0.088095
0.990294 0.672652 0.090386
0.992821 0.672793 0.091142
0.992821 0.672793 0.091142
0.048161 0.696844 0.059525
0.072116 0.697343 0.058911
0.100569 0.697566 0.059075
0.130620 0.697801 0.059251
0.161760 0.698045 0.059436
0.193735 0.698296 0.059630
0.226392 0.698552 0.059831
0.259628 0.698813 0.060040
0.293366 0.699079 0.060255
0.327551 0.699348 0.060477
0.362137 0.699621 0.060705
0.397089 0.699897 0.060939
0.432377 0.700176 0.061180
0.467975 0.700458 0.061427
0.503529 0.700739 0.061678
0.538615 0.701018 0.061930
0.573221 0.701292 0.062182
0.607339 0.701563 0.062435
0.640953 0.701830 0.062687
0.674043 0.702093 0.062940
0.706556 0.702324 0.063558
0.738163 0.702405 0.066592
0.768938 0.702544 0.069632
0.814301 0.702739 0.072668
0.866293 0.702986 0.075692
0.904795 0.703278 0.078690
0.933450 0.703611 0.081647
0.954862 0.703977 0.084541
0.970883 0.704368 0.087341
0.982808 0.704769 0.089990
0.991394 0.705153 0.092361
0.993864 0.705285 0.093143
0.993864 0.705285 0.093143
0.052134 0.728242 0.062293
0.076048 0.728748 0.061755
0.104401 0.728998 0.061957
0.134347 0.729263 0.062172
0.165377 0.729538 0.062399
0.197240 0.729820 0.062635
0.229782 0.730109 0.062879
0.262901 0.730403 0.063132
0.296521 0.730702 0.063391
0.330586 0.731005 0.063658
0.365051 0.731312 0.063932
0.399881 0.731623 0.064213
0.435045 0.731937 0.064501
0.470519 0.732253 0.064795
0.505949 0.732570 0.065093
0.540912 0.732883 0.065391
0.575398 0.733191 0.065689
0.609397 0.733496 0.065987
0.642893 0.733796 0.066284
0.675869 0.734092 0.066579
0.708299 0.734383 0.066874
0.740113 0.734631 0.067668
0.770986 0.734732 0.070823
0.818644 0.734890 0.073972
0.869750 0.735099 0.077106
0.907564 0.735356 0.080211
0.935684 0.735654 0.083272
0.956679 0.735987 0.086265
0.972377 0.736347 0.089159
0.984053 0.736719 0.091897
0.992453 0.737077 0.094346
0.994869 0.737200 0.095153
0.994869 0.737200 0.095153
0.056229 0.758962 0.065243
0.080108 0.759471 0.064784
0.108362 0.759750 0.065023
0.138205 0.760044 0.065277
0.169128 0.760349 0.065544
0.200881 0.760662 0.065822
0.233311 0.760983 0.066109
0.266315 0.761309 0.066404
0.299819 0.761641 0.066707
0.333766 0.761977 0.067019
0.368113 0.762317 0.067337
0.402823 0.762662 0.067663
0.437866 0.763010 0.067997
0.473218 0.763361 0.068337
0.508526 0.763712 0.068681
0.543369 0.764058 0.069025
0.577737 0.764401 0.069367
0.611619 0.764738 0.069709
0.645001 0.765071 0.070050
0.677863 0.765398 0.070388
0.710183 0.765721 0.070725
0.741929 0.766037 0.071059
0.773011 0.766299 0.072035
0.822854 0.766420 0.075295
0.873096 0.766594 0.078537
0.910241 0.766816 0.081747
0.937841 0.767081 0.084909
0.958432 0.767381 0.088000
0.973816 0.767710 0.090987
0.985251 0.768053 0.093812
0.993472 0.768386 0.096337
0.995836 0.768501 0.097169
0.995836 0.768501 0.097169
0.060427 0.793105 0.068355
0.084277 0.794251 0.067979
0.112435 0.794931 0.068254
0.142176 0.795649 0.068547
0.172994 0.796391 0.068853
0.204639 0.797151 0.069171
0.236959 0.797925 0.069499
0.269851 0.798711 0.069836
0.303242 0.799506 0.070183
0.337074 0.800310 0.070537
0.371305 0.801122 0.070900
0.405897 0.801939 0.071270
0.440822 0.802762 0.071648
0.476054 0.803590 0.072033
0.511244 0.804414 0.072422
0.545969 0.805225 0.072810
0.580221 0.806022 0.073197
0.613989 0.806806 0.073582
0.647258 0.807576 0.073965
0.680010 0.808332 0.074346
0.712221 0.809073 0.074724
0.743861 0.809799 0.075098
0.774894 0.810508 0.075469
0.826924 0.811077 0.076633
0.876329 0.811365 0.079980
0.912824 0.811754 0.083292
0.939920 0.812233 0.086554
0.960120 0.812788 0.089741
0.975201 0.813402 0.092819
0.986403 0.814049 0.095728
0.994451 0.814679 0.098328
0.996765 0.814896 0.099185
0.996765 0.814896 0.099185
0.064706 0.850505 0.071608
0.088532 0.851378 0.071318
0.116597 0.851941 0.071628
0.146239 0.852535 0.071958
0.176954 0.853148 0.072303
0.208494 0.853776 0.072660
0.240707 0.854415 0.073028
0.273490 0.855064 0.073407
0.306769 0.855721 0.073795
0.340490 0.856384 0.074192
0.374607 0.857053 0.074597
0.409085 0.857727 0.075010
0.443894 0.858405 0.075432
0.479010 0.859087 0.075861
0.514083 0.859766 0.076294
0.548693 0.860433 0.076726
0.582832 0.861089 0.077155
0.616489 0.861734 0.077582
0.649649 0.862367 0.078007
0.682293 0.862988 0.078428
0.714398 0.863597 0.078847
0.745934 0.864194 0.079261
0.776864 0.864776 0.079671
0.830631 0.865345 0.080075
0.879443 0.865787 0.081430
0.915309 0.866029 0.084843
0.941919 0.866341 0.088201
0.961741 0.866712 0.091481
0.976530 0.867130 0.094648
0.987507 0.867576 0.097640
0.995389 0.868015 0.100314
0.997654 0.868168 0.101194
0.997654 0.868168 0.101194
0.069043 0.893097 0.074978
0.092849 0.893766 0.074775
0.120822 0.894231 0.075119
0.150368 0.894722 0.075485
0.180984 0.895228 0.075867
0.212421 0.895747 0.076263
0.244529 0.896275 0.076671
0.277206 0.896810 0.077089
0.310378 0.897352 0.077518
0.343990 0.897899 0.077955
0.377996 0.898451 0.078402
0.412362 0.899006 0.078858
0.447059 0.899565 0.079322
0.482062 0.900127 0.079794
0.517022 0.900686 0.080270
0.551521 0.901235 0.080743
0.585550 0.901775 0.081214
0.619098 0.902305 0.081682
0.652151 0.902826 0.082147
0.684690 0.903337 0.082609
0.716691 0.903837 0.083067
0.748126 0.904327 0.083519
0.778957 0.904806 0.083967
0.834376 0.905273 0.084408
0.882272 0.905727 0.084842
0.917694 0.906068 0.086391
0.943835 0.906268 0.089844
0.963294 0.906515 0.093215
0.977801 0.906800 0.096468
0.988562 0.907108 0.099541
0.996285 0.907415 0.102285
0.998504 0.907522 0.103189
0.998504 0.907522 0.103189
0.073406 0.924823 0.078434
0.097196 0.925338 0.078320
0.125081 0.925723 0.078696
0.154533 0.926129 0.079097
0.185053 0.926549 0.079516
0.216391 0.926978 0.079949
0.248398 0.927414 0.080394
0.280972 0.927857 0.080851
0.314039 0.928305 0.081319
0.347545 0.928757 0.081797
0.381444 0.929213 0.082284
0.415703 0.929672 0.082780
0.450290 0.930133 0.083285
0.485183 0.930596 0.083799
