creator-kit/luts/AK_Night_City.cube
# AK_Night_City
# Low-light rescue. Opens the shadows without amplifying the noise floor, splits shadows cyan against magenta-warm highlights, and holds saturation back so neon and streetlight do not bloom out.
# Best for: Night vlogs, bars, streets, torch and firelight, indoor low light.
# Apply AFTER a D-Log M -> Rec.709 conversion, not instead of one.
TITLE "AK_Night_City"
LUT_3D_SIZE 9
DOMAIN_MIN 0.0 0.0 0.0
DOMAIN_MAX 1.0 1.0 1.0
0.026000 0.031938 0.056209
0.133083 0.030891 0.053948
0.269253 0.030647 0.052162
0.408842 0.031533 0.051509
0.545827 0.033630 0.052140
0.655271 0.038269 0.055284
0.747988 0.044062 0.059785
0.861760 0.051584 0.066165
0.887191 0.054730 0.068846
0.026000 0.149695 0.049485
0.132606 0.148840 0.047237
0.270496 0.147961 0.046948
0.411888 0.148161 0.048079
0.550615 0.149575 0.050536
0.663569 0.153274 0.056463
0.766660 0.158334 0.063688
0.876505 0.164801 0.072390
0.900664 0.167549 0.075901
0.026000 0.283948 0.045475
0.133996 0.283678 0.043514
0.271601 0.283036 0.042059
0.414775 0.282561 0.045005
0.555026 0.283276 0.049754
0.672471 0.285888 0.058920
0.786882 0.290069 0.069464
0.892372 0.295410 0.080711
0.915431 0.297746 0.085167
0.026000 0.424310 0.045692
0.139382 0.424591 0.044212
0.274962 0.424513 0.043527
0.418159 0.424436 0.042865
0.560666 0.424402 0.049459
0.682543 0.425860 0.062436
0.808521 0.429037 0.076627
0.909184 0.433250 0.090374
0.931038 0.435170 0.095780
0.033785 0.565012 0.050577
0.148936 0.565790 0.049746
0.282471 0.566283 0.049835
0.423515 0.566809 0.049992
0.566414 0.567347 0.050215
0.699034 0.567694 0.060047
0.851394 0.568987 0.070277
0.926227 0.572797 0.101076
0.946831 0.574314 0.107401
0.048161 0.696844 0.059525
0.161760 0.698045 0.059436
0.293366 0.699079 0.060255
0.432377 0.700176 0.061180
0.573221 0.701292 0.062182
0.706556 0.702324 0.063558
0.866293 0.702986 0.075692
0.970883 0.704368 0.087341
0.993864 0.705285 0.093143
0.064706 0.850505 0.071608
0.176954 0.853148 0.072303
0.306769 0.855721 0.073795
0.443894 0.858405 0.075432
0.582832 0.861089 0.077155
0.714398 0.863597 0.078847
0.879443 0.865787 0.081430
0.976530 0.867130 0.094648
0.997654 0.868168 0.101194
0.082030 0.966232 0.085436
0.193132 0.967388 0.086887
0.321353 0.968605 0.088978
0.456797 0.969869 0.091247
0.594038 0.971127 0.093612
0.723999 0.972296 0.095913
0.890792 0.973365 0.098107
0.981229 0.974234 0.101753
1.000000 0.974484 0.108962
0.091098 0.991547 0.093007
0.201671 0.992320 0.094833
0.329135 0.993160 0.097207
0.463782 0.994030 0.099777
0.600217 0.994893 0.102447
0.729416 0.995694 0.105039
0.896931 0.996425 0.107505
0.983254 0.997064 0.109751
1.000000 0.997314 0.112855
0.026000 0.031612 0.180649
0.132618 0.030719 0.179126
0.269351 0.030448 0.175976
0.409103 0.031507 0.173162
0.546254 0.033779 0.171602
0.656045 0.038688 0.171442
0.749112 0.044725 0.172912
0.863234 0.052498 0.176158
0.888559 0.055727 0.177711
0.026000 0.149287 0.174680
0.132450 0.148489 0.173355
0.271830 0.147381 0.170982
0.414919 0.147342 0.169513
0.554989 0.148547 0.169352
0.669388 0.152153 0.171524
0.780711 0.157303 0.175414
0.883061 0.163546 0.180590
0.905409 0.166168 0.182784
0.026000 0.283788 0.168890
0.132834 0.283954 0.166492
0.271728 0.283014 0.164228
0.416907 0.282200 0.164662
0.558959 0.282610 0.166700
0.678150 0.285053 0.172065
0.800095 0.289223 0.179207
0.898643 0.294315 0.186925
0.919989 0.296511 0.190054
0.026000 0.424318 0.167052
0.137041 0.425590 0.163627
0.273654 0.425320 0.161829
0.418711 0.424745 0.160666
0.563257 0.424372 0.164650
0.686955 0.425655 0.173810
0.818750 0.428759 0.184533
0.914321 0.432755 0.194860
0.934864 0.434547 0.198970
0.034276 0.565191 0.169857
0.145247 0.567581 0.165403
0.279709 0.567928 0.164242
0.422614 0.567955 0.163902
0.567400 0.567987 0.163625
0.701957 0.568017 0.170924
0.859254 0.569019 0.178770
0.930321 0.572923 0.203817
0.949987 0.574320 0.208883
0.048816 0.697186 0.176840
0.156673 0.700635 0.171421
0.289227 0.701517 0.170991
0.430100 0.702114 0.171428
0.572832 0.702723 0.171936
0.707958 0.703278 0.172806
0.871222 0.703647 0.182560
0.973636 0.704769 0.192089
0.995876 0.705563 0.196885
0.065513 0.851346 0.187100
0.170478 0.858730 0.180796
0.301350 0.860911 0.181138
0.440337 0.862721 0.182292
0.581164 0.864540 0.183529
0.714517 0.866249 0.184762
0.881996 0.867727 0.186809
0.978310 0.868654 0.197911
0.999021 0.869493 0.203453
0.082971 0.966626 0.199306
0.185359 0.969862 0.192222
0.314790 0.970885 0.193312
0.452098 0.971817 0.195106
0.591227 0.972748 0.196991
0.722976 0.973619 0.198840
0.891643 0.974417 0.200617
0.982261 0.975063 0.203712
1.000000 0.975241 0.209920
0.092103 0.991818 0.206108
0.193268 0.993989 0.198658
0.322029 0.994691 0.200120
0.458540 0.995349 0.202217
0.596862 0.996006 0.204411
0.727850 0.996619 0.206554
0.897054 0.997180 0.208607
0.983989 0.997673 0.210487
1.000000 0.997861 0.213205
0.026000 0.031590 0.315654
0.131555 0.031131 0.314950
0.268478 0.030645 0.313403
0.409398 0.031479 0.309415
0.546734 0.033946 0.305402
0.656918 0.039160 0.301527
0.750783 0.045482 0.299598
0.864886 0.053525 0.299334
0.890092 0.056846 0.299629
0.026000 0.148656 0.311431
0.132752 0.148158 0.312618
0.271375 0.147200 0.311021
0.415082 0.147162 0.307764
0.555324 0.148570 0.305083
0.670193 0.152482 0.303446
0.782525 0.157938 0.303694
0.884589 0.164432 0.305524
0.906859 0.167146 0.306506
0.026000 0.283438 0.306899
0.133209 0.283527 0.306610
0.271609 0.282640 0.305310
0.418675 0.281535 0.303106
0.562513 0.281687 0.302084
0.683483 0.284014 0.303166
0.811793 0.288214 0.306252
0.904335 0.293086 0.310234
0.924192 0.295156 0.311951
0.026000 0.424327 0.303001
0.137255 0.425440 0.301602
0.272236 0.425736 0.299037
0.418998 0.424745 0.297024
0.565829 0.423993 0.298073
0.691614 0.425092 0.302787
0.829096 0.428123 0.309387
0.919565 0.431871 0.315986
0.938788 0.433520 0.318677
0.034826 0.565392 0.303478
0.145655 0.567623 0.301052
0.276851 0.569205 0.297312
0.421275 0.568892 0.295907
0.568173 0.568357 0.295072
0.704902 0.568034 0.299521
0.867145 0.568709 0.304697
0.934550 0.572734 0.323028
0.953269 0.573998 0.326705
0.049550 0.697568 0.308260
0.157265 0.700858 0.304873
0.284881 0.703657 0.300033
0.427219 0.703938 0.299334
0.572066 0.703979 0.299292
0.709198 0.704001 0.299583
0.876088 0.704043 0.306672
0.976400 0.704873 0.313827
0.997900 0.705528 0.317497
0.066417 0.852281 0.316479
0.171240 0.859369 0.312208
0.295531 0.865644 0.306360
0.436023 0.866890 0.306410
0.578964 0.867787 0.307103
0.714321 0.868636 0.307825
0.884349 0.869344 0.309256
0.980074 0.869816 0.317990
1.000000 0.870438 0.322409
0.084026 0.967063 0.326869
0.186272 0.970184 0.321820
0.307598 0.973039 0.315086
0.446503 0.973734 0.315865
0.587747 0.974323 0.317214
0.721500 0.974876 0.318560
0.892153 0.975386 0.319871
0.983238 0.975790 0.322336
1.000000 0.975892 0.327424
0.093229 0.992118 0.332811
0.194252 0.994216 0.327397
0.314171 0.996156 0.320247
0.452336 0.996655 0.321389
0.592774 0.997097 0.323051
0.725765 0.997510 0.324695
0.896769 0.997891 0.326287
0.984649 0.998228 0.327759
1.000000 0.998350 0.330030
0.026000 0.031956 0.451777
0.130821 0.031951 0.451916
0.265695 0.032016 0.450977
0.408190 0.032079 0.450024
0.547238 0.034123 0.445203
0.673340 0.037765 0.440172
0.753005 0.046288 0.431925
0.866611 0.054601 0.428013
0.891693 0.058018 0.426999
0.026000 0.148385 0.449378
0.133444 0.148200 0.453189
0.269999 0.147774 0.452450
0.414340 0.147356 0.451123
0.556170 0.148535 0.447003
0.685477 0.151124 0.443262
0.784424 0.158606 0.437693
0.886187 0.165362 0.436045
0.908374 0.168169 0.435764
0.026000 0.282434 0.446934
0.135698 0.282837 0.449268
0.271871 0.282311 0.450983
0.418313 0.281327 0.449460
0.563508 0.281445 0.446326
0.696506 0.282824 0.444077
0.813418 0.288719 0.442278
0.905826 0.293846 0.442923
0.925638 0.296009 0.443417
0.026000 0.424100 0.444780
0.138094 0.425121 0.445576
0.272603 0.425308 0.445533
0.418956 0.424356 0.444376
0.567871 0.423285 0.442487
0.704771 0.423388 0.441821
0.837820 0.427280 0.444539
0.924128 0.430826 0.447404
0.942265 0.432354 0.448672
0.035403 0.565600 0.443120
0.146083 0.567665 0.442813
0.277108 0.569056 0.441514
0.419767 0.569380 0.439044
0.568609 0.568352 0.437414
0.707606 0.567662 0.438867
0.874458 0.567996 0.441254
0.938612 0.572167 0.452270
0.956449 0.573291 0.454516
0.050318 0.697966 0.445604
0.157885 0.701090 0.444338
0.285331 0.703698 0.441942
0.424211 0.705307 0.438323
0.570893 0.704900 0.437359
0.710123 0.704365 0.437031
0.880486 0.704065 0.441338
0.978963 0.704590 0.446014
0.999781 0.705101 0.448508
0.067363 0.853252 0.451691
0.172038 0.860033 0.449544
0.296158 0.865984 0.446141
0.431527 0.870311 0.441469
0.576293 0.870518 0.441225
0.713743 0.870498 0.441414
0.886257 0.870422 0.442188
0.981677 0.870427 0.448449
1.000000 0.870827 0.451695
0.085130 0.967517 0.460183
0.187228 0.970518 0.457262
0.308383 0.973251 0.452975
0.440622 0.975389 0.447380
0.583738 0.975713 0.447840
0.719584 0.975951 0.448661
0.892192 0.976172 0.449488
0.984068 0.976331 0.451280
1.000000 0.976355 0.455198
0.094407 0.992430 0.465226
0.195282 0.994451 0.461941
0.315030 0.996313 0.457241
0.445783 0.997802 0.451214
0.588129 0.998073 0.452026
0.723212 0.998290 0.453150
0.895992 0.998492 0.454262
0.985160 0.998671 0.455311
1.000000 0.998727 0.457100
0.026000 0.032721 0.583219
0.130472 0.033173 0.584190
0.263290 0.033791 0.583859
0.403614 0.034438 0.583548
0.545821 0.035088 0.583274
0.674033 0.038138 0.577932
0.790558 0.042674 0.572035
0.868342 0.055683 0.557032
0.893298 0.059195 0.554714
0.026000 0.148512 0.582646
0.134525 0.148641 0.589087
0.269007 0.148749 0.589195
0.411177 0.148917 0.588506
0.555253 0.149081 0.587856
0.686034 0.151338 0.583115
0.822264 0.154897 0.578416
0.887790 0.166296 0.566918
0.909894 0.169198 0.565376
0.026000 0.281827 0.582293
0.138580 0.282544 0.587255
0.272521 0.282381 0.591995
0.416780 0.281969 0.591272
0.563008 0.281575 0.590210
0.696909 0.282854 0.586340
0.848673 0.285289 0.583025
0.907324 0.294609 0.575974
0.927089 0.296866 0.575244
0.031128 0.422718 0.582335
0.142882 0.424055 0.585757
0.275158 0.424604 0.588734
0.419153 0.424036 0.590768
0.567646 0.423043 0.589394
0.705013 0.423223 0.586633
0.867842 0.424472 0.584787
0.925543 0.431409 0.582798
0.943664 0.433030 0.582870
0.037006 0.565535 0.582868
0.147298 0.567498 0.584754
0.277891 0.568768 0.585974
0.420104 0.568961 0.586164
0.568666 0.567953 0.585209
0.709701 0.566955 0.583751
0.880279 0.567005 0.583402
0.942108 0.571388 0.586835
0.959244 0.572398 0.587689
0.051090 0.698365 0.583364
0.158508 0.701322 0.584227
0.285782 0.703738 0.584281
0.424482 0.705144 0.583252
0.569477 0.705366 0.581076
0.710669 0.704330 0.579986
0.884244 0.703687 0.581503
0.981233 0.703906 0.583694
1.000000 0.704271 0.585009
0.068312 0.854218 0.587314
0.172839 0.860694 0.587297
0.296788 0.866323 0.586348
0.431977 0.870332 0.584269
0.573416 0.872499 0.581040
0.712780 0.871737 0.580519
0.887628 0.870889 0.580620
0.983057 0.870428 0.584402
1.000000 0.870607 0.586472
0.086237 0.967968 0.593905
0.188186 0.970852 0.593116
0.309171 0.973462 0.591286
0.441230 0.975482 0.588287
0.579497 0.976828 0.584137
0.717279 0.976796 0.584275
0.891725 0.976736 0.584618
0.984712 0.976657 0.585720
1.000000 0.976603 0.588467
0.095588 0.992740 0.598047
0.196315 0.994685 0.596896
0.315892 0.996469 0.594654
0.446464 0.997885 0.591225
0.583225 0.998877 0.586647
0.720269 0.998926 0.587116
0.894711 0.998954 0.587750
0.985495 0.998980 0.588377
1.000000 0.998972 0.589666
0.026000 0.033806 0.702298
0.130497 0.034689 0.704041
0.261380 0.035828 0.704282
0.399661 0.037025 0.704573
0.539798 0.038232 0.704909
0.672517 0.039370 0.705265
0.792403 0.043197 0.699566
0.937523 0.048180 0.693256
0.970955 0.050805 0.690541
0.026000 0.148996 0.703442
0.135895 0.149422 0.712359
0.268427 0.150034 0.713251
0.408554 0.150752 0.713162
0.550559 0.151474 0.713117
0.685045 0.152154 0.713119
0.823618 0.155270 0.707916
0.951998 0.159383 0.702672
0.981012 0.161595 0.700462
0.030273 0.281620 0.705055
0.141647 0.282634 0.712490
0.273486 0.282812 0.720076
0.415691 0.282940 0.720093
0.559848 0.283104 0.719633
0.696370 0.283257 0.719247
0.849609 0.285489 0.714793
0.964104 0.288602 0.710782
0.989412 0.290339 0.709156
0.037815 0.421783 0.707160
0.147743 0.423417 0.713053
0.277917 0.424308 0.718874
0.419691 0.424101 0.723909
0.566108 0.423663 0.723197
0.704778 0.423258 0.722426
0.868449 0.424489 0.718955
0.973067 0.426546 0.716251
0.995653 0.427783 0.715245
0.045513 0.563864 0.709770
0.153978 0.566125 0.714124
0.282468 0.567737 0.718184
0.422461 0.568291 0.721373
0.568773 0.567652 0.723435
0.709618 0.566683 0.722301
0.880624 0.566837 0.720003
0.979210 0.567826 0.718632
0.999991 0.568556 0.718258
0.052885 0.698453 0.712738
0.159966 0.701306 0.715658
0.286861 0.703601 0.718079
0.425166 0.704876 0.719549
0.569765 0.704966 0.719904
0.710821 0.703937 0.719185
0.886937 0.703022 0.718144
0.982936 0.703002 0.718045
1.000000 0.703254 0.718275
0.069207 0.855122 0.714992
0.173593 0.861313 0.716982
0.297382 0.866641 0.718342
0.432401 0.870351 0.718704
0.573668 0.872226 0.717949
0.711574 0.872312 0.716200
0.888435 0.870769 0.715605
0.984161 0.869868 0.717055
1.000000 0.869839 0.718019
0.087279 0.968390 0.719794
0.189089 0.971163 0.721014
0.309913 0.973659 0.721497
0.441802 0.975570 0.720941
0.579897 0.976811 0.719270
0.714799 0.977379 0.716666
0.890818 0.977068 0.716517
0.985153 0.976767 0.716956
1.000000 0.976641 0.718600
0.096701 0.993029 0.723089
0.197287 0.994904 0.723948
0.316704 0.996616 0.724020
0.447106 0.997963 0.723037
0.583694 0.998890 0.720939
0.717167 0.999393 0.717940
0.893035 0.999266 0.718106
0.985652 0.999151 0.718339
1.000000 0.999083 0.719143
0.026000 0.035127 0.833275
0.130826 0.036409 0.837796
0.259918 0.038030 0.839197
0.396307 0.039736 0.840731
0.534526 0.041460 0.842342
0.665430 0.043088 0.843922
0.788980 0.044597 0.845439
0.938319 0.048806 0.835197
0.971511 0.051498 0.828514
0.026414 0.149760 0.838315
0.137470 0.150460 0.857707
0.268197 0.151539 0.860325
0.406432 0.152767 0.861076
0.546520 0.154007 0.861904
0.679190 0.155177 0.862753
0.821726 0.156262 0.863600
0.952585 0.159870 0.854949
0.981421 0.162149 0.849800
0.035110 0.281745 0.844469
0.144793 0.283033 0.860875
0.274685 0.283527 0.876583
0.414989 0.284156 0.877592
0.557229 0.284838 0.877732
0.691934 0.285481 0.877934
0.848764 0.286077 0.878186
0.964518 0.288929 0.871182
0.989701 0.290733 0.867409
0.044314 0.421234 0.851420
0.152550 0.423142 0.864807
0.280778 0.424350 0.877607
0.420496 0.424477 0.888575
0.564991 0.424554 0.888425
0.701844 0.424641 0.888086
0.868193 0.424720 0.887836
0.973348 0.426704 0.882426
0.995852 0.428008 0.879806
0.053696 0.562633 0.858959
0.160469 0.565169 0.869448
0.287012 0.567099 0.879379
0.424948 0.567988 0.887726
0.569179 0.567691 0.894172
0.708207 0.567214 0.893366
0.880630 0.566772 0.892686
0.979393 0.567813 0.888823
1.000000 0.568610 0.887180
0.062664 0.696579 0.866564
0.168053 0.699708 0.874479
0.293000 0.702321 0.881797
0.429248 0.703932 0.887688
0.571762 0.704362 0.891933
0.710852 0.703665 0.894330
0.886986 0.702729 0.893276
0.983043 0.702827 0.890903
1.000000 0.703147 0.890094
0.071095 0.855482 0.874038
0.175196 0.861494 0.879726
0.298659 0.866630 0.884734
0.433336 0.870148 0.888399
0.574253 0.871833 0.890534
0.711822 0.871738 0.891163
0.888747 0.870186 0.890533
0.984942 0.868941 0.889648
1.000000 0.868751 0.889597
0.088245 0.968777 0.879096
0.189925 0.971450 0.883472
0.310601 0.973841 0.887103
0.442332 0.975651 0.889420
0.580268 0.976795 0.890256
0.715018 0.977275 0.889682
0.889565 0.977206 0.887966
0.985422 0.976700 0.887711
1.000000 0.976506 0.888559
0.097731 0.993295 0.882672
0.198188 0.995105 0.886454
0.317456 0.996751 0.889464
0.447700 0.998034 0.891178
0.584129 0.998902 0.891443
0.717449 0.999351 0.890350
0.891060 0.999451 0.888189
0.985660 0.999206 0.888013
1.000000 0.999084 0.888479
0.026000 0.036554 0.948015
0.131366 0.038192 0.950425
0.258866 0.040242 0.951381
0.393574 0.042401 0.952405
0.530090 0.044583 0.953457
0.659380 0.046646 0.954469
0.779590 0.048559 0.955421
0.937026 0.050263 0.956281
0.972001 0.052114 0.954851
0.029563 0.150693 0.951257
0.139115 0.151637 0.960825
0.268240 0.153132 0.962324
0.404794 0.154814 0.962958
0.543178 0.156513 0.963622
0.674236 0.158118 0.964272
0.808573 0.159608 0.964895
0.951918 0.160934 0.965465
0.981782 0.162642 0.964078
0.039654 0.282110 0.955041
0.147834 0.283642 0.963200
0.275998 0.284417 0.970981
0.414613 0.285492 0.971723
0.555149 0.286634 0.972063
0.688241 0.287713 0.972409
0.839586 0.288715 0.972753
0.964265 0.289607 0.973079
0.989956 0.291084 0.971819
0.050334 0.421001 0.959112
0.157067 0.423153 0.965879
0.283566 0.424642 0.972360
0.421457 0.425067 0.977959
0.564245 0.425602 0.978173
0.699485 0.426125 0.978282
0.862126 0.426611 0.978408
0.973320 0.427045 0.978541
0.996028 0.428209 0.977467
0.061213 0.561795 0.963318
0.166483 0.564576 0.968776
0.291296 0.566787 0.974007
0.427405 0.567975 0.978511
0.569787 0.567982 0.982138
0.707200 0.567943 0.982061
0.877007 0.567908 0.982016
0.979459 0.567878 0.981998
1.000000 0.568660 0.981145
0.071598 0.695170 0.967373
0.175484 0.698544 0.971691
0.298701 0.701439 0.975807
0.433122 0.703349 0.979309
0.573783 0.704082 0.982099
0.711127 0.703680 0.984023
0.885296 0.703152 0.983843
0.983125 0.702685 0.983707
1.000000 0.703053 0.983090
0.081348 0.852230 0.971200
0.183945 0.858754 0.974549
0.305678 0.864419 0.977697
0.438526 0.868445 0.980309
0.577590 0.870610 0.982298
0.713404 0.870952 0.983634
0.888697 0.869823 0.984348
0.984985 0.868499 0.984107
1.000000 0.868402 0.983746
0.090131 0.968953 0.974654
0.191578 0.971562 0.977215
0.311983 0.973887 0.979563
0.443425 0.975632 0.981424
0.581059 0.976716 0.982724
0.715513 0.977140 0.983452
0.889825 0.977023 0.983713
0.985540 0.976509 0.983606
1.000000 0.976266 0.983485
0.098647 0.993529 0.975799
0.198989 0.995283 0.978109
0.318124 0.996870 0.980200
0.448229 0.998097 0.981815
0.584515 0.998913 0.982886
0.717700 0.999313 0.983410
0.891186 0.999373 0.983488
0.985557 0.999172 0.983242
1.000000 0.999002 0.983207
0.026000 0.037314 0.975804
0.131702 0.039120 0.977583
0.258449 0.041373 0.978341
0.392361 0.043746 0.979147
0.528070 0.046146 0.979971
0.656597 0.048414 0.980758
0.776097 0.050519 0.981495
0.933237 0.052394 0.982156
0.970970 0.053283 0.982471
0.031134 0.151219 0.978337
0.139975 0.152278 0.985193
0.268341 0.153971 0.986320
0.404099 0.155866 0.986841
0.541677 0.157783 0.987382
0.671971 0.159594 0.987906
0.802238 0.161276 0.988403
0.949122 0.162773 0.988855
0.981219 0.163483 0.989072
0.041887 0.282367 0.981250
0.149355 0.284015 0.987104
0.276700 0.284923 0.992665
0.414516 0.286209 0.993254
0.554245 0.287569 0.993562
0.686573 0.288854 0.993869
0.835233 0.290048 0.994168
0.962290 0.291111 0.994445
0.989707 0.291615 0.994580
0.053265 0.420974 0.984331
0.159287 0.423243 0.989204
0.284967 0.424865 0.993863
0.421993 0.425430 0.997885
0.563974 0.426182 0.998103
0.698448 0.426912 0.998245
0.859309 0.427591 0.998392
0.971967 0.428196 0.998536
0.995956 0.428483 0.998608
0.064853 0.561482 0.987459
0.169412 0.564379 0.991420
0.293406 0.566724 0.995220
0.428649 0.568052 0.998503
0.570156 0.568205 1.000000
0.706804 0.568372 1.000000
0.875382 0.568530 1.000000
0.978574 0.568672 1.000000
1.000000 0.568740 1.000000
0.075910 0.694586 0.990426
0.179083 0.698077 0.993599
0.301481 0.701105 0.996639
0.435036 0.703157 0.999253
0.574821 0.704033 1.000000
0.711338 0.703772 1.000000
0.884602 0.703437 1.000000
0.982588 0.703142 1.000000
1.000000 0.703008 1.000000
0.086284 0.850813 0.993184
0.188169 0.857579 0.995692
0.309082 0.863495 0.998079
0.441064 0.867763 1.000000
0.579251 0.870156 1.000000
0.714234 0.870706 1.000000
0.888782 0.869780 1.000000
0.984735 0.868708 1.000000
1.000000 0.868237 1.000000
0.095623 0.968313 0.995639
0.196358 0.971016 0.997610
0.315943 0.973437 0.999460
0.446519 0.975273 1.000000
0.583275 0.976439 1.000000
0.716897 0.976938 1.000000
0.890642 0.976888 1.000000
0.985512 0.976437 1.000000
1.000000 0.976180 1.000000
0.100089 0.993538 0.996802
0.200276 0.995280 0.998537
0.319230 0.996854 1.000000
0.449136 0.998069 1.000000
0.585209 0.998873 1.000000
0.718180 0.999265 1.000000
0.891535 0.999317 1.000000
0.985574 0.999113 1.000000
1.000000 0.998939 1.000000
