creator-kit/luts/AK_Neutral_Punch.cube
# AK_Neutral_Punch
# Clean and accurate with just enough contrast and colour to survive Instagram's encoder. Nothing stylistic - this is the safe default.
# Best for: Daily driver. Use when the location already looks good, or when you are not sure which look fits.
# Apply AFTER a D-Log M -> Rec.709 conversion, not instead of one.
TITLE "AK_Neutral_Punch"
LUT_3D_SIZE 33
DOMAIN_MIN 0.0 0.0 0.0
DOMAIN_MAX 1.0 1.0 1.0
0.006000 0.006000 0.006000
0.025839 0.006000 0.006000
0.052144 0.006000 0.006000
0.081544 0.006000 0.006000
0.113106 0.006000 0.006000
0.146341 0.006000 0.006000
0.180939 0.006000 0.006000
0.216682 0.006000 0.006000
0.253407 0.006000 0.006000
0.290985 0.006000 0.006000
0.329312 0.006000 0.006000
0.368304 0.006000 0.006000
0.407886 0.006000 0.006000
0.447995 0.006000 0.006000
0.488577 0.006000 0.006000
0.529303 0.006000 0.006000
0.567053 0.006216 0.006216
0.601203 0.006701 0.006701
0.634051 0.007236 0.007236
0.665615 0.007816 0.007816
0.695911 0.008439 0.008439
0.724954 0.009099 0.009099
0.752754 0.009792 0.009792
0.779316 0.010514 0.010514
0.804639 0.011260 0.011260
0.828717 0.012024 0.012024
0.865684 0.013307 0.013307
0.889018 0.014191 0.014191
0.901224 0.014677 0.014677
0.906079 0.014876 0.014876
0.906079 0.014876 0.014876
0.906079 0.014876 0.014876
0.906079 0.014876 0.014876
0.006000 0.024219 0.006000
0.023534 0.023534 0.006000
0.049867 0.022631 0.006000
0.079297 0.021645 0.006000
0.110893 0.020613 0.006000
0.144163 0.019557 0.006000
0.178799 0.018491 0.006000
0.214580 0.017426 0.006000
0.251344 0.016372 0.006000
0.288962 0.015334 0.006000
0.327332 0.014321 0.006000
0.366366 0.013335 0.006000
0.405992 0.012384 0.006000
0.446146 0.011470 0.006000
0.486773 0.010598 0.006000
0.527544 0.009777 0.006000
0.565558 0.009219 0.006200
0.599790 0.009013 0.006688
0.632708 0.008923 0.007223
0.664331 0.008944 0.007801
0.694679 0.009068 0.008419
0.723765 0.009289 0.009073
0.751610 0.009763 0.009763
0.778224 0.010484 0.010484
0.803597 0.011228 0.011228
0.827720 0.011991 0.011991
0.864292 0.013256 0.013256
0.888288 0.014162 0.014162
0.900827 0.014661 0.014661
0.906079 0.014876 0.014876
0.906079 0.014876 0.014876
0.906079 0.014876 0.014876
0.906079 0.014876 0.014876
0.006000 0.048416 0.006000
0.020503 0.047739 0.006000
0.046838 0.046838 0.006000
0.076310 0.045836 0.006000
0.107950 0.044786 0.006000
0.141268 0.043711 0.006000
0.175952 0.042626 0.006000
0.211785 0.041541 0.006000
0.248601 0.040465 0.006000
0.286274 0.039406 0.006000
0.324699 0.038370 0.006000
0.363790 0.037363 0.006000
0.403474 0.036388 0.006000
0.443686 0.035451 0.006000
0.484373 0.034555 0.006000
0.525205 0.033710 0.006000
0.563623 0.033092 0.006198
0.598124 0.032835 0.006746
0.631303 0.032695 0.007340
0.663180 0.032666 0.007976
0.693773 0.032743 0.008650
0.723098 0.032917 0.009360
0.751167 0.033184 0.010101
0.777985 0.033534 0.010868
0.803554 0.033962 0.011657
0.827865 0.034458 0.012462
0.864048 0.035467 0.013770
0.889093 0.036226 0.014755
0.902155 0.036601 0.015294
0.907938 0.036275 0.015526
0.907893 0.035758 0.015511
0.907853 0.035298 0.015496
0.907823 0.034951 0.015486
0.006000 0.075512 0.006000
0.017192 0.074845 0.006000
0.043482 0.073957 0.006000
0.072961 0.072961 0.006000
0.104651 0.071891 0.006000
0.138022 0.070796 0.006000
0.172761 0.069688 0.006000
0.208651 0.068581 0.006000
0.245526 0.067482 0.006000
0.283260 0.066399 0.006000
0.321747 0.065338 0.006000
0.360902 0.064305 0.006000
0.400650 0.063304 0.006000
0.440929 0.062341 0.006000
0.481683 0.061418 0.006000
0.522583 0.060546 0.006000
0.561427 0.059866 0.006187
0.596229 0.059551 0.006803
0.629701 0.059354 0.007463
0.661863 0.059270 0.008164
0.692733 0.059293 0.008902
0.722327 0.059415 0.009674
0.750655 0.059630 0.010475
0.777725 0.059932 0.011302
0.803535 0.060311 0.012148
0.828079 0.060760 0.013009
0.863759 0.061683 0.014369
0.890056 0.062431 0.015454
0.903750 0.062791 0.016048
0.910214 0.062485 0.016323
0.910169 0.061968 0.016307
0.910129 0.061507 0.016293
0.910099 0.061160 0.016283
0.006000 0.104666 0.006000
0.013728 0.104008 0.006000
0.039969 0.103134 0.006000
0.069393 0.102153 0.006000
0.101096 0.101096 0.006000
0.134524 0.099978 0.006000
0.169323 0.098847 0.006000
0.205274 0.097715 0.006000
0.242213 0.096590 0.006000
0.280012 0.095481 0.006000
0.318566 0.094394 0.006000
0.357789 0.093333 0.006000
0.397608 0.092305 0.006000
0.437958 0.091313 0.006000
0.478784 0.090362 0.006000
0.519757 0.089461 0.006000
0.559029 0.088717 0.006166
0.594157 0.088339 0.006855
0.627945 0.088082 0.007586
0.660415 0.087939 0.008358
0.691585 0.087903 0.009165
0.721468 0.087969 0.010004
0.750077 0.088129 0.010871
0.777418 0.088377 0.011761
0.803490 0.088704 0.012670
0.828285 0.089104 0.013591
0.863307 0.089932 0.014997
0.891023 0.090665 0.016199
0.905430 0.091011 0.016855
0.912667 0.090723 0.017182
0.912622 0.090207 0.017166
0.912582 0.089746 0.017152
0.912552 0.089399 0.017141
0.006000 0.135438 0.006000
0.010184 0.134791 0.006000
0.036373 0.133930 0.006000
0.065739 0.132965 0.006000
0.097379 0.131925 0.006000
0.130826 0.130826 0.006000
0.165688 0.129670 0.006000
0.201704 0.128512 0.006000
0.238711 0.127361 0.006000
0.276579 0.126224 0.006000
0.315204 0.125109 0.006000
0.354500 0.124019 0.006000
0.394392 0.122962 0.006000
0.434817 0.121940 0.006000
0.475720 0.120958 0.006000
0.516770 0.120026 0.006000
0.556457 0.119220 0.006132
0.591930 0.118777 0.006898
0.626055 0.118455 0.007706
0.658852 0.118249 0.008552
0.690338 0.118152 0.009432
0.720529 0.118157 0.010343
0.749435 0.118259 0.011279
0.777064 0.118450 0.012237
0.803413 0.118723 0.013212
0.828475 0.119069 0.014198
0.862661 0.119795 0.015642
0.891960 0.120512 0.016976
0.907161 0.120842 0.017703
0.915260 0.120575 0.018089
0.915215 0.120058 0.018073
0.915175 0.119597 0.018059
0.915145 0.119250 0.018049
0.006000 0.167552 0.006000
0.006607 0.166915 0.006000
0.032742 0.166069 0.006000
0.062048 0.165121 0.006000
0.093623 0.164098 0.006000
0.127000 0.163018 0.006000
0.161889 0.161889 0.006000
0.197973 0.160703 0.006000
0.235050 0.159524 0.006000
0.272990 0.158359 0.006000
0.311690 0.157214 0.006000
0.351061 0.156094 0.006000
0.391030 0.155006 0.006000
0.431534 0.153952 0.006000
0.472517 0.152939 0.006000
0.513648 0.151975 0.006000
0.553728 0.151109 0.006084
0.589564 0.150597 0.006932
0.624041 0.150207 0.007819
0.657180 0.149935 0.008744
0.688999 0.149774 0.009700
0.719513 0.149717 0.010686
0.748731 0.149757 0.011696
0.776661 0.149889 0.012725
0.803301 0.150104 0.013769
0.828643 0.150395 0.014822
0.861792 0.151014 0.016294
0.892841 0.151712 0.017776
0.908919 0.152024 0.018582
0.917795 0.151771 0.019028
0.917926 0.151260 0.019022
0.917886 0.150799 0.019008
0.917856 0.150452 0.018997
0.006000 0.200814 0.006000
0.006000 0.200189 0.006000
0.029114 0.199358 0.006000
0.058357 0.198427 0.006000
0.089864 0.197423 0.006000
0.123170 0.196362 0.006000
0.157983 0.195253 0.006000
0.194102 0.194102 0.006000
0.231252 0.192894 0.006000
0.269267 0.191698 0.006000
0.308043 0.190523 0.006000
0.347493 0.189372 0.006000
0.387543 0.188252 0.006000
0.428128 0.187166 0.006000
0.469194 0.186119 0.006000
0.510409 0.185122 0.006000
0.550854 0.184200 0.006021
0.587067 0.183616 0.006954
0.621911 0.183156 0.007925
0.655407 0.182815 0.008930
0.687572 0.182587 0.009967
0.718421 0.182465 0.011030
0.747965 0.182442 0.012116
0.776209 0.182512 0.013220
0.803152 0.182667 0.014336
0.828784 0.182900 0.015459
0.860668 0.183406 0.016945
0.893644 0.184084 0.018592
0.910683 0.184376 0.019487
0.920064 0.184126 0.019982
0.920738 0.183632 0.020006
0.920698 0.183171 0.019992
0.920667 0.182825 0.019982
0.006000 0.235083 0.006000
0.006000 0.234470 0.006000
0.025518 0.233655 0.006000
0.054696 0.232740 0.006000
0.086133 0.231756 0.006000
0.119365 0.230714 0.006000
0.154100 0.229626 0.006000
0.190139 0.228497 0.006000
0.227332 0.227332 0.006000
0.265425 0.226106 0.006000
0.304280 0.224899 0.006000
0.343811 0.223716 0.006000
0.383943 0.222562 0.006000
0.424613 0.221443 0.006000
0.465765 0.220362 0.006000
0.507066 0.219330 0.006000
0.547671 0.218369 0.006000
0.584445 0.217698 0.006962
0.619669 0.217166 0.008020
0.653534 0.216754 0.009110
0.686058 0.216457 0.010229
0.717255 0.216267 0.011374
0.747135 0.216178 0.012539
0.775704 0.216184 0.013719
0.802961 0.216278 0.014910
0.828895 0.216451 0.016105
0.859257 0.216841 0.017587
0.894346 0.217494 0.019418
0.912439 0.217766 0.020412
0.922370 0.217517 0.020962
0.923640 0.217042 0.021022
0.923600 0.216581 0.021008
0.923570 0.216234 0.020997
0.006000 0.270247 0.006000
0.006000 0.269646 0.006000
0.021979 0.268847 0.006000
0.051089 0.267951 0.006000
0.082454 0.266985 0.006000
0.115610 0.265965 0.006000
0.150266 0.264898 0.006000
0.186223 0.263791 0.006000
0.223330 0.262649 0.006000
0.261475 0.261475 0.006000
0.300412 0.260235 0.006000
0.340026 0.259019 0.006000
0.380243 0.257832 0.006000
0.421000 0.256678 0.006000
0.462240 0.255562 0.006000
0.503630 0.254495 0.006000
0.544323 0.253498 0.006000
0.581703 0.252740 0.006957
0.617319 0.252133 0.008103
0.651565 0.251648 0.009280
0.684458 0.251279 0.010485
0.716014 0.251019 0.011713
0.746241 0.250863 0.012960
0.775146 0.250803 0.014220
0.802727 0.250833 0.015488
0.828972 0.250944 0.016758
0.857525 0.251216 0.018214
0.894928 0.251841 0.020250
0.914169 0.252090 0.021353
0.924699 0.251842 0.021963
0.926623 0.251384 0.022066
0.926583 0.250923 0.022052
0.926553 0.250577 0.022041
0.006000 0.306217 0.006000
0.006000 0.305628 0.006000
0.018517 0.304846 0.006000
0.047559 0.303968 0.006000
0.078850 0.303023 0.006000
0.111928 0.302023 0.006000
0.146502 0.300978 0.006000
0.182374 0.299895 0.006000
0.219394 0.298776 0.006000
0.257449 0.297626 0.006000
0.296448 0.296448 0.006000
0.336147 0.295198 0.006000
0.376452 0.293976 0.006000
0.417297 0.292786 0.006000
0.458627 0.291635 0.006000
0.500108 0.290531 0.006000
0.540891 0.289499 0.006000
0.578843 0.288657 0.006936
0.614862 0.287973 0.008173
0.649499 0.287413 0.009441
0.682773 0.286970 0.010733
0.714698 0.286639 0.012047
0.745283 0.286413 0.013378
0.774533 0.286286 0.014720
0.802446 0.286250 0.016067
0.829011 0.286298 0.017414
0.855434 0.286449 0.018820
0.895366 0.287042 0.021082
0.915860 0.287266 0.022306
0.927039 0.287020 0.022983
0.929680 0.286579 0.023136
0.929640 0.286118 0.023122
0.929610 0.285771 0.023111
0.006000 0.342920 0.006000
0.006000 0.342344 0.006000
0.015150 0.341578 0.006000
0.044122 0.340719 0.006000
0.075338 0.339794 0.006000
0.108336 0.338816 0.006000
0.142827 0.337794 0.006000
0.178612 0.336733 0.006000
0.215543 0.335639 0.006000
0.253507 0.334514 0.006000
0.292411 0.333361 0.006000
0.332182 0.332182 0.006000
0.372576 0.330925 0.006000
0.413512 0.329699 0.006000
0.454934 0.328511 0.006000
0.496508 0.327370 0.006000
0.537383 0.326301 0.006000
0.575866 0.325381 0.006898
0.612299 0.324619 0.008230
0.647339 0.323981 0.009589
0.681003 0.323464 0.010972
0.713306 0.323059 0.012375
0.744258 0.322762 0.013791
0.773862 0.322565 0.015217
0.802117 0.322462 0.016647
0.829011 0.322445 0.018073
0.854519 0.322507 0.019487
0.895639 0.323030 0.021910
0.917497 0.323227 0.023268
0.929381 0.322981 0.024019
0.932805 0.322557 0.024230
0.932765 0.322096 0.024216
0.932735 0.321749 0.024205
0.006000 0.380293 0.006000
0.006000 0.379730 0.006000
0.011896 0.378981 0.006000
0.040796 0.378142 0.006000
0.071935 0.377238 0.006000
0.104851 0.376282 0.006000
0.139258 0.375282 0.006000
0.174955 0.374246 0.006000
0.211795 0.373176 0.006000
0.249664 0.372076 0.006000
0.288473 0.370949 0.006000
0.328146 0.369797 0.006000
0.368621 0.368621 0.006000
0.409650 0.367359 0.006000
0.451166 0.366133 0.006000
0.492835 0.364955 0.006000
0.533804 0.363848 0.006000
0.574004 0.362813 0.006000
0.609632 0.362013 0.008271
0.645083 0.361296 0.009725
0.679147 0.360702 0.011201
0.711838 0.360222 0.012693
0.743165 0.359852 0.014198
0.773132 0.359585 0.015710
0.801737 0.359413 0.017223
0.828968 0.359329 0.018731
0.854798 0.359327 0.020224
0.895724 0.359750 0.022731
0.919066 0.359918 0.024236
0.931715 0.359671 0.025068
0.935993 0.359263 0.025346
0.935953 0.358802 0.025332
0.935923 0.358455 0.025321
0.006000 0.418284 0.006000
0.006000 0.417734 0.006000
0.008767 0.417003 0.006000
0.037595 0.416183 0.006000
0.068656 0.415300 0.006000
0.101489 0.414367 0.006000
0.135809 0.413391 0.006000
0.171416 0.412378 0.006000
0.208163 0.411333 0.006000
0.245937 0.410259 0.006000
0.284648 0.409159 0.006000
0.324221 0.408033 0.006000
0.364595 0.406885 0.006000
0.405716 0.405716 0.006000
0.447329 0.404452 0.006000
0.489094 0.403235 0.006000
0.530159 0.402090 0.006000
0.570454 0.401018 0.006000
0.609958 0.400016 0.006000
0.642733 0.399310 0.009846
0.677206 0.398637 0.011417
0.710293 0.398081 0.013002
0.742004 0.397636 0.014598
0.772342 0.397296 0.016198
0.801305 0.397054 0.017797
0.828879 0.396903 0.019387
0.855040 0.396835 0.020960
0.895596 0.397155 0.023538
0.920553 0.397290 0.025207
0.934030 0.397042 0.026128
0.939241 0.396649 0.026482
0.939201 0.396188 0.026468
0.939171 0.395841 0.026458
0.006000 0.456847 0.006000
0.006000 0.456311 0.006000
0.006000 0.455598 0.006000
0.034533 0.454798 0.006000
0.065514 0.453936 0.006000
0.098263 0.453025 0.006000
0.132495 0.452073 0.006000
0.168010 0.451085 0.006000
0.204663 0.450066 0.006000
0.242340 0.449018 0.006000
0.280952 0.447944 0.006000
0.320423 0.446846 0.006000
0.360693 0.445726 0.006000
0.401709 0.444586 0.006000
0.443425 0.443425 0.006000
0.485290 0.442169 0.006000
0.526452 0.440986 0.006000
0.566842 0.439875 0.006000
0.606441 0.438836 0.006000
0.645225 0.437865 0.006000
0.683166 0.436963 0.006000
0.708669 0.436593 0.013300
0.740772 0.436072 0.014988
0.771489 0.435658 0.016679
0.800818 0.435344 0.018365
0.828744 0.435124 0.020040
0.855241 0.434990 0.021695
0.895230 0.435203 0.024328
0.921943 0.435304 0.026177
0.936316 0.435052 0.027196
0.942544 0.434674 0.027638
0.942504 0.434213 0.027624
0.942474 0.433866 0.027614
0.006000 0.495675 0.006000
0.006000 0.495152 0.006000
0.006000 0.494457 0.006000
0.031641 0.493678 0.006000
0.062541 0.492838 0.006000
0.095206 0.491950 0.006000
0.129349 0.491022 0.006000
0.164772 0.490059 0.006000
0.201330 0.489065 0.006000
0.238909 0.488044 0.006000
0.277420 0.486997 0.006000
0.316789 0.485927 0.006000
0.356954 0.484835 0.006000
0.397864 0.483723 0.006000
0.439472 0.482592 0.006000
0.481451 0.481451 0.006000
0.522711 0.480228 0.006000
0.563198 0.479079 0.006000
0.602892 0.478001 0.006000
0.641770 0.476994 0.006000
0.679804 0.476055 0.006000
0.716963 0.475182 0.006000
0.753208 0.474375 0.006000
0.770579 0.474369 0.017148
0.800278 0.473983 0.018923
0.828560 0.473692 0.020684
0.855398 0.473491 0.022422
0.894603 0.473597 0.025092
0.923213 0.473659 0.027138
0.938549 0.473403 0.028264
0.945876 0.473037 0.028805
0.945836 0.472576 0.028791
0.945806 0.472230 0.028780
0.006000 0.533974 0.006000
0.006000 0.533464 0.006000
0.006000 0.532787 0.006000
0.028978 0.532027 0.006000
0.059799 0.531209 0.006000
0.092379 0.530344 0.006000
0.126434 0.529439 0.006000
0.161766 0.528501 0.006000
0.198230 0.527533 0.006000
0.235713 0.526537 0.006000
0.274125 0.525517 0.006000
0.313392 0.524474 0.006000
0.353454 0.523411 0.006000
0.394258 0.522327 0.006000
0.435759 0.521225 0.006000
0.477630 0.520113 0.006000
0.519014 0.519014 0.006000
0.559597 0.517827 0.006000
0.599385 0.516711 0.006000
0.638356 0.515667 0.006000
0.676481 0.514691 0.006000
0.713729 0.513783 0.006000
0.750062 0.512941 0.006000
0.785434 0.512162 0.006000
0.799697 0.512178 0.019459
0.828332 0.511818 0.021305
0.855509 0.511550 0.023126
0.893712 0.511551 0.025811
0.924327 0.511571 0.028068
0.940679 0.511309 0.029307
0.949170 0.510954 0.029957
0.949130 0.510493 0.029943
0.949100 0.510147 0.029933
0.006000 0.571673 0.006000
0.006000 0.571177 0.006000
0.006000 0.570517 0.006000
0.026542 0.569777 0.006000
0.057284 0.568980 0.006000
0.089781 0.568137 0.006000
0.123749 0.567256 0.006000
0.158992 0.566342 0.006000
0.195362 0.565399 0.006000
0.232750 0.564429 0.006000
0.271064 0.563436 0.006000
0.310232 0.562420 0.006000
0.350192 0.561383 0.006000
0.390892 0.560328 0.006000
0.432288 0.559254 0.006000
0.474052 0.558171 0.006000
0.515330 0.557101 0.006000
0.556045 0.556045 0.006000
0.595926 0.554892 0.006000
0.634988 0.553811 0.006000
0.673203 0.552800 0.006000
0.710540 0.551857 0.006000
0.746960 0.550980 0.006000
0.782416 0.550167 0.006000
0.816854 0.549419 0.006000
0.850202 0.548731 0.006000
0.855574 0.549095 0.023807
0.892550 0.548992 0.026482
0.925282 0.548968 0.028964
0.942699 0.548699 0.030325
0.951862 0.548343 0.031049
0.952378 0.547892 0.031080
0.952348 0.547546 0.031070
0.006000 0.608750 0.006000
0.006000 0.608267 0.006000
0.006000 0.607624 0.006000
0.024325 0.606904 0.006000
0.054990 0.606127 0.006000
0.087406 0.605306 0.006000
0.121288 0.604448 0.006000
0.156442 0.603558 0.006000
0.192721 0.602640 0.006000
0.230015 0.601696 0.006000
0.268233 0.600728 0.006000
0.307302 0.599739 0.006000
0.347162 0.598729 0.006000
0.387760 0.597702 0.006000
0.429051 0.596656 0.006000
0.470710 0.595601 0.006000
0.511885 0.594559 0.006000
0.552497 0.593530 0.006000
0.592517 0.592517 0.006000
0.631669 0.591400 0.006000
0.669973 0.590353 0.006000
0.707397 0.589375 0.006000
0.743902 0.588464 0.006000
0.779442 0.587619 0.006000
0.813961 0.586838 0.006000
0.847388 0.586119 0.006000
0.879635 0.585461 0.006000
0.921516 0.584864 0.006000
0.926072 0.585824 0.029827
0.944607 0.585546 0.031316
0.954356 0.585187 0.032110
0.955580 0.584746 0.032201
0.955549 0.584400 0.032190
0.006000 0.645177 0.006000
0.006000 0.644707 0.006000
0.006000 0.644081 0.006000
0.022322 0.643379 0.006000
0.052911 0.642624 0.006000
0.085246 0.641825 0.006000
0.119045 0.640989 0.006000
0.154111 0.640123 0.006000
0.190301 0.639229 0.006000
0.227502 0.638309 0.006000
0.265625 0.637367 0.006000
0.304597 0.636404 0.006000
0.344358 0.635422 0.006000
0.384855 0.634421 0.006000
0.426044 0.633403 0.006000
0.467600 0.632376 0.006000
0.508672 0.631361 0.006000
0.549184 0.630360 0.006000
0.589104 0.629374 0.006000
0.628403 0.628403 0.006000
0.666794 0.627321 0.006000
0.704303 0.626309 0.006000
0.740892 0.625364 0.006000
0.776514 0.624486 0.006000
0.811114 0.623673 0.006000
0.844619 0.622923 0.006000
0.876941 0.622236 0.006000
0.916423 0.621609 0.006000
0.960881 0.621041 0.006000
0.984806 0.620478 0.006000
0.956760 0.621456 0.033146
0.958731 0.621025 0.033304
0.958701 0.620679 0.033293
0.006000 0.680924 0.006000
0.006000 0.680466 0.006000
0.006000 0.679857 0.006000
0.020525 0.679174 0.006000
0.051040 0.678438 0.006000
0.083296 0.677660 0.006000
0.117012 0.676847 0.006000
0.151993 0.676004 0.006000
0.188094 0.675134 0.006000
0.225203 0.674239 0.006000
0.263233 0.673322 0.006000
0.302110 0.672385 0.006000
0.341774 0.671429 0.006000
0.382172 0.670455 0.006000
0.423260 0.669464 0.006000
0.464715 0.668464 0.006000
0.505687 0.667477 0.006000
0.546099 0.666502 0.006000
0.585922 0.665542 0.006000
0.625124 0.664597 0.006000
0.663668 0.663668 0.006000
0.701261 0.662622 0.006000
0.737933 0.661645 0.006000
0.773636 0.660734 0.006000
0.808314 0.659890 0.006000
0.841896 0.659109 0.006000
0.874292 0.658392 0.006000
0.911147 0.657737 0.006000
0.958048 0.657143 0.006000
0.983213 0.656579 0.006000
0.996597 0.656056 0.006000
1.000000 0.655590 0.006000
1.000000 0.655239 0.006000
0.006000 0.715953 0.006000
0.006000 0.715508 0.006000
0.006000 0.714915 0.006000
0.018929 0.714251 0.006000
0.049369 0.713535 0.006000
0.081548 0.712778 0.006000
0.115183 0.711987 0.006000
0.150080 0.711166 0.006000
0.186094 0.710320 0.006000
0.223114 0.709449 0.006000
0.261053 0.708557 0.006000
0.299836 0.707645 0.006000
0.339404 0.706714 0.006000
0.379705 0.705766 0.006000
0.420694 0.704802 0.006000
0.462049 0.703830 0.006000
0.502922 0.702869 0.006000
0.543237 0.701921 0.006000
0.582965 0.700986 0.006000
0.622072 0.700067 0.006000
0.660523 0.699163 0.006000
0.698275 0.698275 0.006000
0.735027 0.697265 0.006000
0.770810 0.696323 0.006000
0.805565 0.695448 0.006000
0.839222 0.694637 0.006000
0.871691 0.693891 0.006000
0.905694 0.693208 0.006000
0.955124 0.692588 0.006000
0.981568 0.692024 0.006000
0.995633 0.691501 0.006000
1.000000 0.691035 0.006000
1.000000 0.690684 0.006000
0.006000 0.750225 0.006000
0.006000 0.749791 0.006000
0.006000 0.749215 0.006000
0.017524 0.748568 0.006000
0.047893 0.747872 0.006000
0.079996 0.747136 0.006000
0.113551 0.746366 0.006000
0.148365 0.745568 0.006000
0.184294 0.744744 0.006000
0.221227 0.743897 0.006000
0.259076 0.743029 0.006000
0.297767 0.742142 0.006000
0.337242 0.741236 0.006000
0.377447 0.740314 0.006000
0.418340 0.739377 0.006000
0.459597 0.738430 0.006000
0.500373 0.737495 0.006000
0.540593 0.736573 0.006000
0.580227 0.735664 0.006000
0.619242 0.734769 0.006000
0.657602 0.733890 0.006000
0.695264 0.733026 0.006000
0.732179 0.732179 0.006000
0.768040 0.731207 0.006000
0.802871 0.730301 0.006000
0.836602 0.729461 0.006000
0.869142 0.728686 0.006000
0.900373 0.727976 0.006000
0.952114 0.727330 0.006000
0.979875 0.726767 0.006000
0.994641 0.726243 0.006000
1.000000 0.725777 0.006000
1.000000 0.725426 0.006000
0.006000 0.783688 0.006000
0.006000 0.783266 0.006000
0.006000 0.782705 0.006000
0.016304 0.782077 0.006000
0.046603 0.781399 0.006000
0.078631 0.780683 0.006000
0.112108 0.779935 0.006000
0.146841 0.779158 0.006000
0.182687 0.778357 0.006000
0.219535 0.777533 0.006000
0.257295 0.776689 0.006000
0.295898 0.775825 0.006000
0.335280 0.774945 0.006000
0.375393 0.774048 0.006000
0.416190 0.773136 0.006000
0.457352 0.772216 0.006000
0.498034 0.771306 0.006000
0.538160 0.770409 0.006000
0.577702 0.769525 0.006000
0.616626 0.768655 0.006000
0.654897 0.767799 0.006000
0.692472 0.766959 0.006000
0.729302 0.766135 0.006000
0.765330 0.765330 0.006000
0.800235 0.764395 0.006000
0.834039 0.763526 0.006000
0.866649 0.762723 0.006000
0.897947 0.761986 0.006000
0.949024 0.761315 0.006000
0.978137 0.760752 0.006000
0.993622 0.760229 0.006000
1.000000 0.759762 0.006000
1.000000 0.759411 0.006000
0.006000 0.816283 0.006000
0.006000 0.815873 0.006000
0.006000 0.815328 0.006000
0.015260 0.814716 0.006000
0.045490 0.814057 0.006000
0.077445 0.813361 0.006000
0.110847 0.812633 0.006000
0.145502 0.811877 0.006000
0.181266 0.811098 0.006000
0.218030 0.810297 0.006000
0.255705 0.809476 0.006000
0.294220 0.808636 0.006000
0.333513 0.807780 0.006000
0.373535 0.806907 0.006000
0.414240 0.806020 0.006000
0.455308 0.805125 0.006000
0.495897 0.804240 0.006000
0.535933 0.803368 0.006000
0.575385 0.802508 0.006000
0.614221 0.801662 0.006000
0.652405 0.800829 0.006000
0.689895 0.800012 0.006000
0.726642 0.799211 0.006000
0.762587 0.798428 0.006000
0.797663 0.797663 0.006000
0.831537 0.796767 0.006000
0.864216 0.795937 0.006000
0.895579 0.795173 0.006000
0.945864 0.794478 0.006000
0.976360 0.793915 0.006000
0.992580 0.793392 0.006000
1.000000 0.792925 0.006000
1.000000 0.792574 0.006000
0.006000 0.847937 0.006000
0.006000 0.847538 0.006000
0.006000 0.847008 0.006000
0.014384 0.846413 0.006000
0.044547 0.845772 0.006000
0.076431 0.845095 0.006000
0.109759 0.844387 0.006000
0.144337 0.843652 0.006000
0.180022 0.842894 0.006000
0.216705 0.842114 0.006000
0.254297 0.841316 0.006000
0.292726 0.840499 0.006000
0.331933 0.839666 0.006000
0.371866 0.838818 0.006000
0.412481 0.837955 0.006000
0.453458 0.837085 0.006000
0.493958 0.836224 0.006000
0.533905 0.835375 0.006000
0.573270 0.834539 0.006000
0.612020 0.833716 0.006000
0.650120 0.832906 0.006000
0.687527 0.832112 0.006000
0.724192 0.831333 0.006000
0.760058 0.830571 0.006000
0.795057 0.829827 0.006000
0.829104 0.829104 0.006000
0.861849 0.828248 0.006000
0.893276 0.827458 0.006000
0.942646 0.826740 0.006000
0.974550 0.826176 0.006000
0.991519 0.825653 0.006000
1.000000 0.825186 0.006000
1.000000 0.824835 0.006000
0.006000 0.878556 0.006000
0.006000 0.878168 0.006000
0.006000 0.877652 0.006000
0.013665 0.877074 0.006000
0.043763 0.876451 0.006000
0.075579 0.875792 0.006000
0.108836 0.875103 0.006000
0.143339 0.874388 0.006000
0.178948 0.873651 0.006000
0.215552 0.872893 0.006000
0.253063 0.872116 0.006000
0.291410 0.871322 0.006000
0.330532 0.870512 0.006000
0.370380 0.869686 0.006000
0.410907 0.868847 0.006000
