creator-kit/luts/AK_Night_City.cube
# AK_Night_City
# Low-light rescue. Opens the shadows without amplifying the noise floor, splits shadows cyan against magenta-warm highlights, and holds saturation back so neon and streetlight do not bloom out.
# Best for: Night vlogs, bars, streets, torch and firelight, indoor low light.
# Apply AFTER a D-Log M -> Rec.709 conversion, not instead of one.
TITLE "AK_Night_City"
LUT_3D_SIZE 5
DOMAIN_MIN 0.0 0.0 0.0
DOMAIN_MAX 1.0 1.0 1.0
0.026000 0.031938 0.056209
0.269253 0.030647 0.052162
0.545827 0.033630 0.052140
0.747988 0.044062 0.059785
0.887191 0.054730 0.068846
0.026000 0.283948 0.045475
0.271601 0.283036 0.042059
0.555026 0.283276 0.049754
0.786882 0.290069 0.069464
0.915431 0.297746 0.085167
0.033785 0.565012 0.050577
0.282471 0.566283 0.049835
0.566414 0.567347 0.050215
0.851394 0.568987 0.070277
0.946831 0.574314 0.107401
0.064706 0.850505 0.071608
0.306769 0.855721 0.073795
0.582832 0.861089 0.077155
0.879443 0.865787 0.081430
0.997654 0.868168 0.101194
0.091098 0.991547 0.093007
0.329135 0.993160 0.097207
0.600217 0.994893 0.102447
0.896931 0.996425 0.107505
1.000000 0.997314 0.112855
0.026000 0.031590 0.315654
0.268478 0.030645 0.313403
0.546734 0.033946 0.305402
0.750783 0.045482 0.299598
0.890092 0.056846 0.299629
0.026000 0.283438 0.306899
0.271609 0.282640 0.305310
0.562513 0.281687 0.302084
0.811793 0.288214 0.306252
0.924192 0.295156 0.311951
0.034826 0.565392 0.303478
0.276851 0.569205 0.297312
0.568173 0.568357 0.295072
0.867145 0.568709 0.304697
0.953269 0.573998 0.326705
0.066417 0.852281 0.316479
0.295531 0.865644 0.306360
0.578964 0.867787 0.307103
0.884349 0.869344 0.309256
1.000000 0.870438 0.322409
0.093229 0.992118 0.332811
0.314171 0.996156 0.320247
0.592774 0.997097 0.323051
0.896769 0.997891 0.326287
1.000000 0.998350 0.330030
0.026000 0.032721 0.583219
0.263290 0.033791 0.583859
0.545821 0.035088 0.583274
0.790558 0.042674 0.572035
0.893298 0.059195 0.554714
0.026000 0.281827 0.582293
0.272521 0.282381 0.591995
0.563008 0.281575 0.590210
0.848673 0.285289 0.583025
0.927089 0.296866 0.575244
0.037006 0.565535 0.582868
0.277891 0.568768 0.585974
0.568666 0.567953 0.585209
0.880279 0.567005 0.583402
0.959244 0.572398 0.587689
0.068312 0.854218 0.587314
0.296788 0.866323 0.586348
0.573416 0.872499 0.581040
0.887628 0.870889 0.580620
1.000000 0.870607 0.586472
0.095588 0.992740 0.598047
0.315892 0.996469 0.594654
0.583225 0.998877 0.586647
0.894711 0.998954 0.587750
1.000000 0.998972 0.589666
0.026000 0.035127 0.833275
0.259918 0.038030 0.839197
0.534526 0.041460 0.842342
0.788980 0.044597 0.845439
0.971511 0.051498 0.828514
0.035110 0.281745 0.844469
0.274685 0.283527 0.876583
0.557229 0.284838 0.877732
0.848764 0.286077 0.878186
0.989701 0.290733 0.867409
0.053696 0.562633 0.858959
0.287012 0.567099 0.879379
0.569179 0.567691 0.894172
0.880630 0.566772 0.892686
1.000000 0.568610 0.887180
0.071095 0.855482 0.874038
0.298659 0.866630 0.884734
0.574253 0.871833 0.890534
0.888747 0.870186 0.890533
1.000000 0.868751 0.889597
0.097731 0.993295 0.882672
0.317456 0.996751 0.889464
0.584129 0.998902 0.891443
0.891060 0.999451 0.888189
1.000000 0.999084 0.888479
0.026000 0.037314 0.975804
0.258449 0.041373 0.978341
0.528070 0.046146 0.979971
0.776097 0.050519 0.981495
0.970970 0.053283 0.982471
0.041887 0.282367 0.981250
0.276700 0.284923 0.992665
0.554245 0.287569 0.993562
0.835233 0.290048 0.994168
0.989707 0.291615 0.994580
0.064853 0.561482 0.987459
0.293406 0.566724 0.995220
0.570156 0.568205 1.000000
0.875382 0.568530 1.000000
1.000000 0.568740 1.000000
0.086284 0.850813 0.993184
0.309082 0.863495 0.998079
0.579251 0.870156 1.000000
0.888782 0.869780 1.000000
1.000000 0.868237 1.000000
0.100089 0.993538 0.996802
0.319230 0.996854 1.000000
0.585209 0.998873 1.000000
0.891535 0.999317 1.000000
1.000000 0.998939 1.000000
