creator-kit/luts/AK_Nordic_Steel.cube
# AK_Nordic_Steel
# Cold, high-contrast and desaturated. Steel blues in the shadows with a hard midtone roll - reads as weight and consequence.
# Best for: Overcast days, battle and combat sequences, winter, dramatic beats.
# Apply AFTER a D-Log M -> Rec.709 conversion, not instead of one.
TITLE "AK_Nordic_Steel"
LUT_3D_SIZE 33
DOMAIN_MIN 0.0 0.0 0.0
DOMAIN_MAX 1.0 1.0 1.0
0.012000 0.012000 0.042544
0.012000 0.012000 0.042629
0.019922 0.012000 0.042725
0.039290 0.012000 0.042828
0.061064 0.012000 0.042913
0.084930 0.012000 0.043079
0.110546 0.012000 0.043273
0.137691 0.012000 0.043498
0.166177 0.012000 0.043756
0.195874 0.012000 0.043686
0.226664 0.012000 0.043321
0.258442 0.012000 0.042915
0.291126 0.012000 0.042476
0.324643 0.012000 0.042012
0.358929 0.012000 0.041527
0.393927 0.012000 0.041026
0.429268 0.012000 0.040515
0.463882 0.012000 0.040012
0.497672 0.012000 0.039519
0.530616 0.012000 0.039039
0.561230 0.012141 0.038681
0.588535 0.012514 0.038525
0.614639 0.012913 0.038414
0.639551 0.013334 0.038344
0.663272 0.013773 0.038313
0.685798 0.014225 0.038316
0.707120 0.014687 0.038349
0.727217 0.015153 0.038410
0.746058 0.015618 0.038493
0.763591 0.016077 0.038594
0.784420 0.016656 0.038828
0.813018 0.017513 0.039345
0.833429 0.018171 0.039715
0.012000 0.020275 0.042763
0.012000 0.020479 0.042842
0.020923 0.020789 0.042956
0.040306 0.021159 0.043055
0.062105 0.021592 0.043150
0.086115 0.020672 0.042410
0.111859 0.019302 0.041006
0.139123 0.017542 0.039093
0.167720 0.015555 0.036853
0.197507 0.013425 0.034396
0.228372 0.012000 0.032513
0.260219 0.012000 0.031916
0.292967 0.012000 0.031334
0.326545 0.012000 0.030760
0.360891 0.012000 0.030191
0.395948 0.012000 0.029625
0.431346 0.012000 0.029066
0.466016 0.012000 0.028528
0.499858 0.012000 0.028011
0.532853 0.012000 0.027514
0.563243 0.012166 0.027180
0.590552 0.012540 0.027053
0.616660 0.012940 0.026974
0.641573 0.013362 0.026938
0.665295 0.013802 0.026942
0.687821 0.014256 0.026981
0.709141 0.014719 0.027050
0.729236 0.015186 0.027147
0.748075 0.015653 0.027265
0.765605 0.016113 0.027400
0.788808 0.016762 0.027739
0.816503 0.017600 0.028287
0.836272 0.018241 0.028678
0.012000 0.039080 0.043105
0.012000 0.039288 0.043173
0.022441 0.039605 0.043271
0.041826 0.039973 0.043377
0.064137 0.039226 0.042541
0.088393 0.037393 0.040419
0.114302 0.035349 0.038010
0.141679 0.033189 0.035450
0.170366 0.030948 0.032784
0.200235 0.028645 0.030039
0.231177 0.026296 0.027233
0.263099 0.023915 0.024383
0.295921 0.021512 0.021501
0.329565 0.019101 0.018603
0.363975 0.016689 0.015696
0.399095 0.014284 0.012790
0.434555 0.013985 0.012000
0.469282 0.014454 0.012000
0.503179 0.014906 0.012000
0.536225 0.015340 0.012000
0.566262 0.015959 0.012208
0.593582 0.016733 0.012593
0.619704 0.017516 0.013006
0.644634 0.018304 0.013441
0.668373 0.019095 0.013896
0.690918 0.019882 0.014365
0.712259 0.020663 0.014845
0.732376 0.021430 0.015329
0.751237 0.022180 0.015813
0.768789 0.022904 0.016290
0.795112 0.023886 0.017054
0.821638 0.024914 0.017886
0.840586 0.025726 0.018523
0.012000 0.061492 0.043527
0.012000 0.061708 0.043586
0.024287 0.062037 0.043671
0.043625 0.062421 0.043761
0.066241 0.063311 0.042243
0.091628 0.059482 0.035709
0.117636 0.055671 0.031933
0.144994 0.052643 0.028953
0.173660 0.049927 0.026151
0.203516 0.047336 0.023377
0.234454 0.044798 0.020593
0.266378 0.042286 0.017789
0.299206 0.039789 0.014969
0.332868 0.037305 0.012140
0.367300 0.037336 0.012000
0.402445 0.037542 0.012000
0.437932 0.037782 0.012000
0.472687 0.038038 0.012000
0.506613 0.038304 0.012000
0.539689 0.038574 0.012000
0.569430 0.039072 0.012282
0.596867 0.039699 0.012720
0.623100 0.040347 0.013183
0.648136 0.041011 0.013668
0.671977 0.041687 0.014169
0.694618 0.042369 0.014683
0.716051 0.043051 0.015206
0.736254 0.043728 0.015731
0.755195 0.044393 0.016253
0.772823 0.045040 0.016766
0.802114 0.046027 0.017677
0.827609 0.046956 0.018533
0.845830 0.047685 0.019185
0.012000 0.086610 0.044078
0.012000 0.086837 0.044128
0.026416 0.087181 0.044200
0.045700 0.087582 0.044278
0.067511 0.088006 0.044413
0.092276 0.089133 0.041285
0.119687 0.085939 0.032581
0.147851 0.080675 0.025815
0.176891 0.075962 0.021025
0.206933 0.071950 0.017235
0.237975 0.068424 0.013922
0.269967 0.066120 0.012000
0.302846 0.065546 0.012000
0.336550 0.065164 0.012000
0.371020 0.064922 0.012000
0.406202 0.064785 0.012000
0.441726 0.064728 0.012000
0.476518 0.064730 0.012000
0.510479 0.064775 0.012000
0.543589 0.064850 0.012000
0.573029 0.065199 0.012380
0.600599 0.065651 0.012878
0.626958 0.066141 0.013398
0.652114 0.066660 0.013937
0.676069 0.067202 0.014492
0.698820 0.067760 0.015056
0.720355 0.068327 0.015627
0.740656 0.068898 0.016197
0.759688 0.069465 0.016763
0.777401 0.070021 0.017317
0.809767 0.071001 0.018399
0.834153 0.071818 0.019278
0.851589 0.072454 0.019943
0.012000 0.113948 0.044779
0.012837 0.114185 0.044820
0.028799 0.114546 0.044877
0.048030 0.114964 0.044947
0.069801 0.115398 0.045099
0.093490 0.116046 0.044539
0.120286 0.117292 0.040562
0.149228 0.114789 0.031100
0.179141 0.109439 0.022250
0.209790 0.103718 0.015382
0.241222 0.099696 0.012000
0.273470 0.098091 0.012000
0.306524 0.096889 0.012000
0.340355 0.095981 0.012000
0.374924 0.095290 0.012000
0.410187 0.094765 0.012000
0.445779 0.094369 0.012000
0.480630 0.094081 0.012000
0.514644 0.093872 0.012000
0.547804 0.093724 0.012000
0.576966 0.093894 0.012503
0.604687 0.094148 0.013066
0.631190 0.094458 0.013649
0.656482 0.094811 0.014249
0.680565 0.095200 0.014861
0.703437 0.095617 0.015481
0.725088 0.096054 0.016104
0.745496 0.096505 0.016726
0.764630 0.096961 0.017339
0.785416 0.097490 0.018040
0.817849 0.098371 0.019211
0.841087 0.099067 0.020110
0.857709 0.099601 0.020786
0.012000 0.143186 0.045646
0.015519 0.143434 0.045678
0.031425 0.143814 0.045719
0.050604 0.144247 0.045787
0.072332 0.144692 0.045957
0.096086 0.145180 0.046145
0.121452 0.146054 0.044696
0.150007 0.147441 0.040055
0.180284 0.145451 0.030264
0.211636 0.140487 0.020185
0.243710 0.134610 0.012000
0.276454 0.132393 0.012000
0.309877 0.130630 0.012000
0.343983 0.129217 0.012000
0.378759 0.128074 0.012000
0.414185 0.127144 0.012000
0.449908 0.126389 0.012000
0.484866 0.125786 0.012000
0.518969 0.125301 0.012000
0.552003 0.124923 0.012040
0.581144 0.124870 0.012652
0.609043 0.124906 0.013286
0.635712 0.125015 0.013937
0.661160 0.125185 0.014602
0.685390 0.125405 0.015277
0.708399 0.125666 0.015957
0.730179 0.125959 0.016638
0.750708 0.126276 0.017313
0.769955 0.126609 0.017978
0.795393 0.127133 0.018905
0.826193 0.127862 0.020106
0.848273 0.128428 0.021022
0.864075 0.128853 0.021707
0.012000 0.174097 0.046696
0.018441 0.174358 0.046717
0.034289 0.174756 0.046743
0.053418 0.175203 0.046814
0.075102 0.175660 0.047004
0.098806 0.176160 0.047212
0.124254 0.176697 0.047439
0.151135 0.177822 0.044892
0.181260 0.179346 0.039781
0.212747 0.177739 0.029824
0.245338 0.173266 0.019032
0.278667 0.168417 0.012000
0.312612 0.166261 0.012000
0.347148 0.164449 0.012000
0.382270 0.162917 0.012000
0.417971 0.161614 0.012000
0.453916 0.160510 0.012000
0.489050 0.159593 0.012000
0.523298 0.158824 0.012000
0.556080 0.158219 0.012137
0.585457 0.157911 0.012828
0.613571 0.157713 0.013538
0.640438 0.157608 0.014262
0.666068 0.157580 0.014997
0.690468 0.157617 0.015739
0.713635 0.157708 0.016484
0.735562 0.157845 0.017225
0.756228 0.158017 0.017959
0.775601 0.158217 0.018678
0.805467 0.158713 0.019853
0.834662 0.159283 0.021079
0.855604 0.159711 0.022008
0.870595 0.160022 0.022700
0.012000 0.206508 0.047946
0.021603 0.206782 0.047956
0.037388 0.207200 0.047964
0.056473 0.207660 0.048047
0.078109 0.208129 0.048256
0.101761 0.208642 0.048487
0.127154 0.209194 0.048737
0.153782 0.210046 0.047605
0.182363 0.211171 0.045221
0.213910 0.212833 0.039759
0.246509 0.211523 0.029717
0.280204 0.207530 0.018513
0.314648 0.203320 0.012000
0.349686 0.201258 0.012000
0.385258 0.199452 0.012000
0.421346 0.197858 0.012000
0.457613 0.196459 0.012000
0.493009 0.195258 0.012000
0.527472 0.194223 0.012000
0.560120 0.193388 0.012253
0.589790 0.192825 0.013029
0.618167 0.192390 0.013820
0.645272 0.192063 0.014622
0.671119 0.191830 0.015432
0.695718 0.191675 0.016246
0.719070 0.191589 0.017059
0.741165 0.191560 0.017865
0.761988 0.191579 0.018661
0.781505 0.191636 0.019439
0.815491 0.192082 0.020876
0.843144 0.192488 0.022123
0.862986 0.192774 0.023063
0.877192 0.192965 0.023759
0.014913 0.240284 0.049410
0.025004 0.240571 0.049408
0.040725 0.241011 0.049399
0.059769 0.241480 0.049501
0.081355 0.241962 0.049732
0.104953 0.242489 0.049986
0.130289 0.243056 0.050261
0.157166 0.243657 0.050555
0.185045 0.244705 0.048629
0.214996 0.245962 0.045746
0.247846 0.247764 0.040012
0.281477 0.246696 0.029933
0.316173 0.243139 0.018501
0.351624 0.239314 0.012000
0.387656 0.237347 0.012000
0.424189 0.235567 0.012000
0.460857 0.233957 0.012000
0.496593 0.232535 0.012000
0.531344 0.231275 0.012000
0.563997 0.230231 0.012386
0.594025 0.229429 0.013252
0.622722 0.228766 0.014130
0.650114 0.228223 0.015015
0.676221 0.227785 0.015905
0.701056 0.227438 0.016794
0.724623 0.227171 0.017680
0.746916 0.226972 0.018556
0.767920 0.226832 0.019417
0.788567 0.226762 0.020299
0.825343 0.227117 0.021969
0.851542 0.227355 0.023233
0.870343 0.227496 0.024180
0.883802 0.227565 0.024879
0.018599 0.275312 0.051104
0.028647 0.275614 0.051091
0.044301 0.276075 0.051065
0.063310 0.276553 0.051193
0.084845 0.277048 0.051446
0.108387 0.277590 0.051724
0.133662 0.278172 0.052025
0.160475 0.278790 0.052346
0.188679 0.279440 0.052688
0.217705 0.280705 0.049827
0.248923 0.282083 0.046513
0.282919 0.283969 0.040522
0.317570 0.283164 0.030480
0.353189 0.279994 0.018937
0.389558 0.276377 0.012000
0.426502 0.274489 0.012000
0.463589 0.272754 0.012000
0.499713 0.271186 0.012000
0.534807 0.269763 0.012000
0.567604 0.268547 0.012532
0.598057 0.267541 0.013494
0.627134 0.266674 0.014463
0.654866 0.265932 0.015437
0.681281 0.265301 0.016411
0.706395 0.264769 0.017382
0.730214 0.264324 0.018344
0.752737 0.263958 0.019294
0.773950 0.263660 0.020224
0.800035 0.263539 0.021423
0.834925 0.263706 0.023123
0.859778 0.263778 0.024402
0.877610 0.263776 0.025355
0.890373 0.263723 0.026055
0.022532 0.311501 0.053045
0.032535 0.311817 0.053020
0.048120 0.312301 0.052975
0.067099 0.312785 0.053139
0.088581 0.313294 0.053415
0.112065 0.313851 0.053718
0.137278 0.314449 0.054045
0.164025 0.315084 0.054395
0.192161 0.315752 0.054766
0.221567 0.316452 0.055157
0.251659 0.317953 0.051248
0.284050 0.319442 0.047561
0.319099 0.321406 0.041353
0.354720 0.320847 0.031375
0.391198 0.318020 0.019799
0.428413 0.314479 0.012000
0.465858 0.312664 0.012000
0.502359 0.311012 0.012000
0.537816 0.309489 0.012000
0.570873 0.308148 0.012687
0.601807 0.306982 0.013749
0.631318 0.305947 0.014816
0.659444 0.305034 0.015883
0.686215 0.304232 0.016947
0.711651 0.303531 0.018003
0.735763 0.302923 0.019047
0.758552 0.302398 0.020074
0.780007 0.301948 0.021079
0.810969 0.301760 0.022602
0.844158 0.301746 0.024331
0.867791 0.301658 0.025622
0.884738 0.301515 0.026580
0.896861 0.301343 0.027282
0.026716 0.348772 0.055246
0.036672 0.349103 0.055210
0.052186 0.349610 0.055145
0.071141 0.350096 0.055354
0.092569 0.350620 0.055653
0.115993 0.351192 0.055982
0.141142 0.351807 0.056337
0.167822 0.352460 0.056717
0.195886 0.353147 0.057119
0.225218 0.353866 0.057542
0.255111 0.355119 0.055133
0.286818 0.356367 0.052933
0.320300 0.357962 0.048924
0.356328 0.360003 0.042531
0.392868 0.359673 0.032637
0.430148 0.357153 0.021083
0.467810 0.353603 0.012000
0.504610 0.351884 0.012000
0.540398 0.350301 0.012000
0.573790 0.348874 0.012846
0.605236 0.347593 0.014014
0.635222 0.346432 0.015183
0.663785 0.345383 0.016348
0.690955 0.344440 0.017506
0.716756 0.343594 0.018653
0.741200 0.342840 0.019783
0.764292 0.342172 0.020893
0.786021 0.341583 0.021975
0.821306 0.341318 0.023826
0.852991 0.341135 0.025583
0.875535 0.340895 0.026888
0.891689 0.340620 0.027851
0.903233 0.340334 0.028553
0.031155 0.387055 0.057724
0.041064 0.387401 0.057675
0.056504 0.387933 0.057591
0.075443 0.388419 0.057854
0.096814 0.388957 0.058177
0.120177 0.389546 0.058532
0.145260 0.390178 0.058916
0.171870 0.390849 0.059325
0.199861 0.391556 0.059759
0.229116 0.392295 0.060216
0.259544 0.393064 0.060694
0.290360 0.394523 0.057430
0.323105 0.395880 0.054920
0.357604 0.397577 0.050630
0.394546 0.399693 0.044081
0.431961 0.399583 0.034286
0.469655 0.397365 0.022902
0.506620 0.393765 0.012000
0.542654 0.392116 0.012000
0.577689 0.390584 0.012000
0.611687 0.389135 0.012000
0.638833 0.387998 0.015561
0.667859 0.386848 0.016829
0.695461 0.385794 0.018085
0.721660 0.384832 0.019327
0.746471 0.383958 0.020548
0.769899 0.383167 0.021744
0.791935 0.382455 0.022908
0.831015 0.382108 0.025086
0.861393 0.381772 0.026872
0.882984 0.381395 0.028191
0.898437 0.380998 0.029160
0.909468 0.380607 0.029864
0.035854 0.426291 0.060492
0.045715 0.426654 0.060430
0.061098 0.427203 0.060344
0.080008 0.427694 0.060652
0.101322 0.428247 0.061000
0.124622 0.428852 0.061382
0.149638 0.429502 0.061795
0.176176 0.430192 0.062236
0.204091 0.430919 0.062703
0.233268 0.431678 0.063193
0.263614 0.432469 0.063707
0.295051 0.433289 0.064243
0.326731 0.434970 0.060034
0.360453 0.436433 0.057241
0.395904 0.438227 0.052707
0.433702 0.440419 0.046026
0.471614 0.440532 0.036437
0.508582 0.438677 0.025590
0.544737 0.435449 0.014505
0.579970 0.433330 0.012000
0.614210 0.431833 0.012000
0.647408 0.430410 0.012000
0.679528 0.429047 0.012000
0.699722 0.428189 0.018680
0.726341 0.427136 0.020020
0.751544 0.426166 0.021336
0.775335 0.425275 0.022622
0.798366 0.424469 0.023910
0.840098 0.424033 0.026373
0.869360 0.423563 0.028191
0.890128 0.423065 0.029526
0.904971 0.422560 0.030503
0.915554 0.422075 0.031211
0.040767 0.466005 0.063531
0.050579 0.466384 0.063456
0.065933 0.466940 0.063399
0.084791 0.467444 0.063729
0.106047 0.468012 0.064102
0.129283 0.468634 0.064513
0.154231 0.469302 0.064955
0.180697 0.470012 0.065428
0.208536 0.470758 0.065927
0.237633 0.471539 0.066453
0.267897 0.472352 0.067003
0.299248 0.473195 0.067576
0.331622 0.474065 0.068172
0.364119 0.475986 0.062920
0.398769 0.477554 0.059859
0.435125 0.479445 0.055095
0.473393 0.481695 0.048351
0.510668 0.482039 0.039260
0.546804 0.480539 0.028995
0.582119 0.477809 0.018426
0.616512 0.475040 0.012000
0.649910 0.473564 0.012000
0.682255 0.472160 0.012000
0.713504 0.470811 0.012000
0.743614 0.469512 0.012000
0.756366 0.468922 0.022136
0.780532 0.467951 0.023515
0.808047 0.467109 0.025145
0.848503 0.466550 0.027668
0.876829 0.465967 0.029520
0.896902 0.465367 0.030875
0.911228 0.464770 0.031862
0.921426 0.464205 0.032573
0.045738 0.504944 0.066744
0.055502 0.505339 0.066657
0.070832 0.505898 0.066634
0.089640 0.506416 0.066986
0.110839 0.507000 0.067385
0.134013 0.507638 0.067822
0.158893 0.508324 0.068294
0.185288 0.509052 0.068797
0.213052 0.509819 0.069330
0.242072 0.510621 0.069889
0.272254 0.511455 0.070475
0.303522 0.512320 0.071085
0.335809 0.513214 0.071719
0.368128 0.514901 0.067972
0.402348 0.516323 0.065925
0.437900 0.518001 0.062572
0.474813 0.519978 0.057594
0.512416 0.522221 0.050971
0.548947 0.522766 0.042360
0.584229 0.521561 0.032658
0.618672 0.519257 0.022622
0.652183 0.516061 0.012674
0.684686 0.514453 0.012000
0.716119 0.513060 0.012000
0.746427 0.511724 0.012000
0.775557 0.510438 0.012000
0.803450 0.509200 0.012000
0.816667 0.508952 0.026344
0.856087 0.508293 0.028929
0.883650 0.507618 0.030817
0.903154 0.506935 0.032192
0.917053 0.506264 0.033190
0.926933 0.505633 0.033908
0.050744 0.543004 0.070110
0.060460 0.543415 0.070011
0.075775 0.543976 0.070028
0.094533 0.544506 0.070402
0.115676 0.545105 0.070824
0.138789 0.545760 0.071288
0.163604 0.546463 0.071789
0.189929 0.547210 0.072323
0.217620 0.547996 0.072887
0.246563 0.548818 0.073480
0.276666 0.549674 0.074100
0.307851 0.550561 0.074747
0.340054 0.551477 0.075418
0.373218 0.552422 0.076114
0.406273 0.554347 0.071346
0.441363 0.555880 0.069006
0.477471 0.557655 0.065373
0.513830 0.559657 0.060337
0.550652 0.561887 0.053859
0.586415 0.562606 0.045696
0.620817 0.561646 0.036534
0.654356 0.559708 0.027033
0.686941 0.556955 0.017560
0.718496 0.554414 0.012000
0.748953 0.553029 0.012000
0.778248 0.551704 0.012000
0.806313 0.550432 0.012000
0.845917 0.549212 0.012000
0.862981 0.549137 0.030153
0.889913 0.548387 0.032077
0.908946 0.547635 0.033474
0.922491 0.546904 0.034485
0.932106 0.546220 0.035210
0.055773 0.580154 0.073612
0.065443 0.580579 0.073501
0.080745 0.581140 0.073562
0.099455 0.581684 0.073956
0.120543 0.582297 0.074403
0.143596 0.582968 0.074893
0.168347 0.583688 0.075422
0.194605 0.584453 0.075985
0.222224 0.585258 0.076581
0.251093 0.586100 0.077206
0.281118 0.586977 0.077861
0.312223 0.587885 0.078542
0.344343 0.588824 0.079250
0.377422 0.589792 0.079984
0.411411 0.590787 0.080742
0.445181 0.592978 0.074784
0.480799 0.594612 0.072153
0.516377 0.596429 0.068364
0.552058 0.598444 0.063314
0.588070 0.600655 0.056993
0.623035 0.601528 0.049248
0.656529 0.600774 0.040604
0.689127 0.599151 0.031634
0.720741 0.596789 0.022656
0.751293 0.593844 0.013909
0.780706 0.592057 0.012000
0.808907 0.590742 0.012000
0.851431 0.589487 0.012000
0.895431 0.588290 0.012000
0.926751 0.587157 0.012000
0.914349 0.587425 0.034722
0.927595 0.586643 0.035746
0.936987 0.585915 0.036479
0.060809 0.616357 0.077231
0.070433 0.616797 0.077109
0.085728 0.617356 0.077217
0.104391 0.617913 0.077632
0.125426 0.618540 0.078102
0.148421 0.619226 0.078617
0.173109 0.619964 0.079173
0.199301 0.620746 0.079766
0.226851 0.621570 0.080392
0.255647 0.622432 0.081049
0.285596 0.623328 0.081737
0.316623 0.624258 0.082453
0.348662 0.625219 0.083196
0.381658 0.626209 0.083966
0.415561 0.627227 0.084762
0.449183 0.629214 0.080153
0.484490 0.630749 0.078268
0.519569 0.632431 0.075436
0.554501 0.634277 0.071537
0.589466 0.636297 0.066503
0.624634 0.638486 0.060346
0.658769 0.639494 0.052994
0.691320 0.638916 0.044849
0.722937 0.637564 0.036402
0.753529 0.635549 0.027930
0.783015 0.633001 0.019649
0.811310 0.630124 0.012000
0.856347 0.628822 0.012000
0.899291 0.627588 0.012000
0.929831 0.626422 0.012000
0.951696 0.625329 0.012000
0.967401 0.624322 0.012000
0.978627 0.623420 0.012000
0.065837 0.651573 0.080949
0.075418 0.652028 0.080815
0.090708 0.652584 0.080973
0.109325 0.653153 0.081408
0.130308 0.653794 0.081901
0.153247 0.654496 0.082441
0.177874 0.655249 0.083024
0.204001 0.656049 0.083644
0.231483 0.656891 0.084300
0.260208 0.657772 0.084989
0.290084 0.658688 0.085709
0.321035 0.659638 0.086458
0.352995 0.660620 0.087237
0.385910 0.661632 0.088042
0.419730 0.662673 0.088875
0.454414 0.663740 0.089733
0.488374 0.665984 0.083937
0.523124 0.667569 0.081838
0.557558 0.669287 0.078845
0.591809 0.671154 0.074869
0.626017 0.673172 0.069875
0.660305 0.675336 0.063891
0.693571 0.676462 0.056909
0.725142 0.676033 0.049246
0.755729 0.674918 0.041313
0.785243 0.673210 0.033355
0.813592 0.671023 0.025564
0.860831 0.668478 0.018088
0.902775 0.665919 0.012000
0.932590 0.664712 0.012000
0.953921 0.663586 0.012000
0.969231 0.662551 0.012000
0.980165 0.661623 0.012000
0.070840 0.685756 0.084744
0.080378 0.686225 0.084600
0.095667 0.686777 0.084809
0.114239 0.687357 0.085264
0.135172 0.688012 0.085778
0.158056 0.688729 0.086343
0.182624 0.689498 0.086951
0.208688 0.690315 0.087600
0.236105 0.691175 0.088284
0.264761 0.692074 0.089003
0.294566 0.693010 0.089755
0.325442 0.693980 0.090537
0.357326 0.694982 0.091349
0.390162 0.696015 0.092189
0.423902 0.697078 0.093058
0.458503 0.698168 0.093953
0.492354 0.700243 0.089302
0.526877 0.701758 0.087768
0.560971 0.703382 0.085484
0.594730 0.705129 0.082361
0.628262 0.707007 0.078338
0.661671 0.709018 0.073403
0.695040 0.711151 0.067599
0.727393 0.712382 0.060969
0.757937 0.712079 0.053772
0.787440 0.711170 0.046345
0.815807 0.709736 0.038903
0.865013 0.707877 0.031622
0.905985 0.705700 0.024642
0.935106 0.703315 0.018071
0.955934 0.700831 0.012000
0.970876 0.699761 0.012000
0.981542 0.698806 0.012000
0.075800 0.718852 0.088595
0.085297 0.719335 0.088442
0.100587 0.719881 0.088702
0.119115 0.720473 0.089176
0.139999 0.721142 0.089712
0.162830 0.721872 0.090300
0.187341 0.722657 0.090933
0.213345 0.723490 0.091608
0.240697 0.724367 0.092321
0.269287 0.725285 0.093070
0.299022 0.726239 0.093852
0.329827 0.727229 0.094665
0.361637 0.728251 0.095510
0.394397 0.729305 0.096384
0.428058 0.730388 0.097287
0.462578 0.731500 0.098218
0.497604 0.732629 0.099168
0.530727 0.734918 0.093353
0.564580 0.736472 0.091628
0.597994 0.738128 0.089185
0.631047 0.739896 0.085958
0.663819 0.741780 0.081913
0.696383 0.743776 0.077056
0.728789 0.745873 0.071438
0.760176 0.747194 0.065144
0.789639 0.747000 0.058403
0.817993 0.746271 0.051474
0.868984 0.745081 0.044553
0.908995 0.743519 0.037799
0.937440 0.741685 0.031349
0.957786 0.739682 0.025315
0.972379 0.737617 0.019804
0.982793 0.735610 0.014934
0.080696 0.750797 0.092478
0.090153 0.751293 0.092315
0.105446 0.751834 0.092628
0.123932 0.752438 0.093120
0.144769 0.753118 0.093677
0.167548 0.753863 0.094287
0.192004 0.754663 0.094945
0.217949 0.755512 0.095646
0.245240 0.756406 0.096386
0.273766 0.757340 0.097163
0.303434 0.758313 0.097974
0.334169 0.759321 0.098819
0.365908 0.760363 0.099695
0.398594 0.761437 0.100602
0.432179 0.762541 0.101538
0.466622 0.763674 0.102504
0.501569 0.764824 0.103488
0.534608 0.766966 0.098673
0.568285 0.768470 0.097391
0.601449 0.770058 0.095493
0.634155 0.771739 0.092914
0.666464 0.773520 0.089609
0.698432 0.775401 0.085563
0.730103 0.777376 0.080799
0.761494 0.779433 0.075374
0.791856 0.780830 0.069405
0.820172 0.780728 0.063109
0.872804 0.780157 0.056675
0.911858 0.779185 0.050279
0.939638 0.777895 0.044073
0.959513 0.776380 0.038191
0.973770 0.774743 0.032760
0.983943 0.773095 0.027916
0.085506 0.781516 0.096367
0.094924 0.782025 0.096194
0.110220 0.782560 0.096559
0.128667 0.783174 0.097069
0.149458 0.783868 0.097645
0.172188 0.784626 0.098278
0.196590 0.785440 0.098959
0.222479 0.786304 0.099685
0.249711 0.787214 0.100451
0.278174 0.788165 0.101255
0.307778 0.789156 0.102095
0.338447 0.790182 0.102969
0.370116 0.791242 0.103876
0.402731 0.792335 0.104814
0.436244 0.793459 0.105783
0.470612 0.794612 0.106781
0.505483 0.795783 0.107800
0.539802 0.796936 0.108807
0.572014 0.799283 0.102847
0.604992 0.800819 0.101388
0.637443 0.802434 0.099335
0.669410 0.804133 0.096640
0.700935 0.805920 0.093278
0.732050 0.807791 0.089251
0.762773 0.809739 0.084593
0.793091 0.811748 0.079370
0.822609 0.813207 0.073718
0.876504 0.813184 0.067861
0.914606 0.812751 0.061920
0.941728 0.811974 0.056060
0.961141 0.810933 0.050427
0.975071 0.809718 0.045165
0.985013 0.808435 0.040427
0.090203 0.810917 0.100232
0.099583 0.811439 0.100050
0.114884 0.811968 0.100465
0.133292 0.812593 0.100992
0.154040 0.813298 0.101588
0.176722 0.814069 0.102241
0.201074 0.814897 0.102945
0.226909 0.815776 0.103694
0.254084 0.816701 0.104486
0.282488 0.817669 0.105316
0.312030 0.818675 0.106183
0.342634 0.819719 0.107086
0.374238 0.820798 0.108022
0.406785 0.821909 0.108990
0.440228 0.824212 0.109990
0.474525 0.826879 0.111020
0.509323 0.829552 0.112071
0.543571 0.832149 0.113110
0.577163 0.834665 0.114134
0.608549 0.840159 0.106934
0.640807 0.843431 0.105309
0.672518 0.846791 0.103116
0.703709 0.850240 0.100324
0.734404 0.853769 0.096924
0.764613 0.857361 0.092934
0.794325 0.860990 0.088396
0.825234 0.864619 0.083384
0.880092 0.867360 0.078045
0.917252 0.867434 0.072626
0.943725 0.866871 0.067183
0.962686 0.865778 0.061874
0.976297 0.864290 0.056854
0.986014 0.862571 0.052288
0.094756 0.857431 0.104038
0.104114 0.858439 0.103861
0.119407 0.859443 0.104312
0.137778 0.860642 0.104855
0.158485 0.861983 0.105469
0.181122 0.863437 0.106143
0.205425 0.864985 0.106868
0.231208 0.866613 0.107640
0.258329 0.868308 0.108455
0.286676 0.870061 0.109311
0.316160 0.871866 0.110204
0.346704 0.873714 0.111133
0.378244 0.875601 0.112097
0.410727 0.877522 0.113094
0.444104 0.879471 0.114124
0.478332 0.881445 0.115185
