creator-kit/luts/AK_Neutral_Punch.cube
# AK_Neutral_Punch
# Clean and accurate with just enough contrast and colour to survive Instagram's encoder. Nothing stylistic - this is the safe default.
# Best for: Daily driver. Use when the location already looks good, or when you are not sure which look fits.
# Apply AFTER a D-Log M -> Rec.709 conversion, not instead of one.
TITLE "AK_Neutral_Punch"
LUT_3D_SIZE 5
DOMAIN_MIN 0.0 0.0 0.0
DOMAIN_MAX 1.0 1.0 1.0
0.006000 0.006000 0.006000
0.253407 0.006000 0.006000
0.567053 0.006216 0.006216
0.804639 0.011260 0.011260
0.906079 0.014876 0.014876
0.006000 0.235083 0.006000
0.227332 0.227332 0.006000
0.547671 0.218369 0.006000
0.802961 0.216278 0.014910
0.923570 0.216234 0.020997
0.006000 0.533974 0.006000
0.198230 0.527533 0.006000
0.519014 0.519014 0.006000
0.799697 0.512178 0.019459
0.949100 0.510147 0.029933
0.006000 0.816283 0.006000
0.181266 0.811098 0.006000
0.495897 0.804240 0.006000
0.797663 0.797663 0.006000
1.000000 0.792574 0.006000
0.006000 1.000000 0.006000
0.170829 1.000000 0.006000
0.482837 1.000000 0.006000
0.782087 1.000000 0.006000
1.000000 1.000000 0.006000
0.006000 0.006000 0.258525
0.250774 0.006000 0.250774
0.565208 0.006218 0.237697
0.804632 0.011683 0.227978
0.907966 0.015536 0.224244
0.006000 0.232451 0.232451
0.224700 0.224700 0.224700
0.550311 0.214874 0.214874
0.810084 0.212528 0.212528
0.924991 0.213245 0.213245
0.006000 0.531786 0.202484
0.191637 0.527100 0.191637
0.517271 0.517271 0.181808
0.803380 0.509974 0.190677
0.950408 0.508105 0.199847
0.006000 0.814522 0.184690
0.170874 0.812774 0.170874
0.490356 0.804607 0.162707
0.796774 0.796774 0.154873
1.000000 0.790952 0.160566
0.006000 1.000000 0.173900
0.162320 1.000000 0.162320
0.477175 1.000000 0.155403
0.779154 1.000000 0.148768
1.000000 1.000000 0.143777
0.006000 0.006000 0.579220
0.243476 0.006000 0.572778
0.564260 0.006000 0.564260
0.856212 0.006000 0.547869
0.910705 0.016495 0.527997
0.006000 0.228248 0.557551
0.221362 0.221362 0.556825
0.546997 0.211534 0.546997
0.847826 0.205926 0.533575
0.927557 0.211893 0.520150
0.006000 0.528893 0.528893
0.188299 0.523762 0.523762
0.513933 0.513933 0.513933
0.807805 0.506206 0.506206
0.952699 0.503867 0.503867
0.006000 0.812193 0.503850
0.168100 0.810001 0.495749
0.481994 0.804059 0.481994
0.794564 0.794564 0.472500
1.000000 0.787917 0.471489
0.006000 1.000000 0.489969
0.159971 1.000000 0.481743
0.465034 1.000000 0.465034
0.773165 1.000000 0.456738
1.000000 1.000000 0.450498
0.006000 0.006000 0.872598
0.237581 0.006000 0.867413
0.552212 0.006000 0.860555
0.853978 0.006000 0.853978
1.000000 0.006000 0.843071
0.006000 0.225323 0.855155
0.219266 0.219266 0.861166
0.538748 0.211099 0.852999
0.845166 0.203266 0.845166
1.000000 0.201554 0.831941
0.006000 0.523743 0.832086
0.191791 0.519440 0.833692
0.510709 0.510709 0.832774
0.823280 0.501215 0.823280
1.000000 0.496580 0.813008
0.006000 0.809960 0.809960
0.165440 0.807340 0.807340
0.478770 0.800834 0.800834
0.791340 0.791340 0.791340
1.000000 0.783902 0.783902
0.006000 1.000000 0.793113
0.157718 1.000000 0.788104
0.462216 1.000000 0.778644
0.766317 1.000000 0.766317
1.000000 1.000000 0.758878
0.006000 0.006000 1.000000
0.234743 0.006000 1.000000
0.546751 0.006000 1.000000
0.846001 0.006000 1.000000
1.000000 0.006000 1.000000
0.006000 0.223752 1.000000
0.218402 0.218402 1.000000
0.533257 0.211485 1.000000
0.835236 0.204850 1.000000
1.000000 0.199860 1.000000
0.006000 0.521223 1.000000
0.195131 0.516903 1.000000
0.508997 0.508997 1.000000
0.817129 0.500701 1.000000
1.000000 0.494461 1.000000
0.006000 0.806530 1.000000
0.172811 0.803198 1.000000
0.481089 0.797517 1.000000
0.788814 0.788814 1.000000
1.000000 0.781375 1.000000
0.006000 1.000000 1.000000
0.156023 1.000000 1.000000
0.460097 1.000000 1.000000
0.763790 1.000000 1.000000
1.000000 1.000000 1.000000
